; generated by Slic3r 1.3.1-dev on 2020-07-26 at 12:39:51

; external perimeters extrusion width = 0.44mm (2.13mm^3/s)
; perimeters extrusion width = 0.51mm (5.03mm^3/s)
; infill extrusion width = 0.50mm (6.16mm^3/s)
; solid infill extrusion width = 0.51mm (2.51mm^3/s)
; top infill extrusion width = 0.51mm (1.88mm^3/s)
; support material extrusion width = 0.44mm (5.32mm^3/s)

M190 S70 ; set bed temperature and wait for it to be reached
; Ender 3 Custom Start G-code
G92 E0 ; Reset Extruder
G28 ; Home all axes
;G29 ; perform auto level
;M500; store mesh
M155 S30
M420 L0 S1 T1 V1 Z1 ; enable mesh
M155 S3
G1 Z2.0 F3000 ; Move Z Axis up little to prevent scratching of Heat Bed
G1 X0.1 Y20 Z0.3 F5000.0 ; Move to start position
M109 S216
G1 X0.1 Y200.0 Z0.3 F1500.0 E15 ; Draw the first line
G1 X0.4 Y200.0 Z0.3 F5000.0 ; Move to side a little
G1 X0.4 Y20 Z0.3 F1500.0 E30 ; Draw the second line
G92 E0 ; Reset Extruder
G1 Z2.0 F3000 ; Move Z Axis up little to prevent scratching of Heat Bed
G1 X5 Y20 Z0.3 F5000.0 ; Move over to prevent blob squish

; Filament gcode

G21 ; set units to millimeters
G90 ; use absolute coordinates
M82 ; use absolute distances for extrusion
G92 E0
G92 E0
M106 S204
G1 E-6.00000 F1500.00000
G92 E0
G1 Z0.280 F7800.000
G1 X78.523 Y88.127 F7800.000
G1 E6.00000 F1500.00000
G1 F2250
G1 X80.836 Y86.783 E6.15649
G1 X84.150 Y86.151 E6.35378
G1 X135.850 Y86.151 E9.37750
G1 X138.496 Y86.548 E9.53400
G1 X140.908 Y87.707 E9.69049
G1 X142.873 Y89.523 E9.84698
G1 X144.217 Y91.836 E10.00347
G1 X144.849 Y95.150 E10.20076
G1 X144.849 Y124.850 E11.93779
G1 X144.452 Y127.496 E12.09428
G1 X143.293 Y129.908 E12.25078
G1 X141.477 Y131.873 E12.40727
G1 X139.164 Y133.217 E12.56376
G1 X135.850 Y133.849 E12.76105
G1 X84.150 Y133.849 E15.78477
G1 X81.504 Y133.452 E15.94126
G1 X79.092 Y132.293 E16.09776
G1 X77.127 Y130.477 E16.25425
G1 X75.783 Y128.164 E16.41074
G1 X75.151 Y124.850 E16.60803
G1 X75.151 Y95.150 E18.34506
G1 X75.548 Y92.504 E18.50155
G1 X76.707 Y90.092 E18.65804
G1 X78.482 Y88.171 E18.81103
G1 X79.010 Y88.381 F7800.000
G1 F2250
G1 X81.296 Y87.144 E18.96308
G1 X84.150 Y86.651 E19.13246
G1 X135.850 Y86.651 E22.15618
G1 X138.419 Y87.048 E22.30824
G1 X140.748 Y88.204 E22.46030
G1 X142.619 Y90.010 E22.61235
G1 X143.856 Y92.296 E22.76441
G1 X144.349 Y95.150 E22.93379
G1 X144.349 Y124.850 E24.67082
G1 X143.952 Y127.419 E24.82288
G1 X142.796 Y129.748 E24.97493
G1 X140.990 Y131.619 E25.12699
G1 X138.704 Y132.856 E25.27905
G1 X135.850 Y133.349 E25.44843
G1 X84.150 Y133.349 E28.47215
G1 X81.581 Y132.952 E28.62420
G1 X79.252 Y131.796 E28.77626
G1 X77.381 Y129.990 E28.92832
G1 X76.144 Y127.704 E29.08038
G1 X75.651 Y124.850 E29.24975
G1 X75.651 Y95.150 E30.98678
G1 X76.048 Y92.581 E31.13884
G1 X77.204 Y90.252 E31.29090
G1 X78.968 Y88.424 E31.43945
G1 X79.495 Y88.644 F7800.000
G1 F2250
G1 X81.751 Y87.519 E31.58694
G1 X84.150 Y87.151 E31.72886
G1 X135.850 Y87.151 E34.75258
G1 X138.340 Y87.548 E34.90007
G1 X140.583 Y88.701 E35.04757
G1 X142.356 Y90.495 E35.19506
G1 X143.481 Y92.751 E35.34255
G1 X143.849 Y95.150 E35.48447
G1 X143.849 Y124.850 E37.22150
G1 X143.452 Y127.340 E37.36899
G1 X142.299 Y129.583 E37.51648
G1 X140.505 Y131.356 E37.66397
G1 X138.249 Y132.481 E37.81146
G1 X135.850 Y132.849 E37.95339
G1 X84.150 Y132.849 E40.97711
G1 X81.660 Y132.452 E41.12460
G1 X79.417 Y131.299 E41.27209
G1 X77.644 Y129.505 E41.41958
G1 X76.519 Y127.249 E41.56707
G1 X76.151 Y124.850 E41.70900
G1 X76.151 Y95.150 E43.44603
G1 X76.548 Y92.660 E43.59352
G1 X77.701 Y90.417 E43.74101
G1 X79.452 Y88.687 E43.88499
G1 X79.978 Y88.918 F7800.000
G1 F2250
G1 X82.201 Y87.908 E44.02777
G1 X84.150 Y87.650 E44.14275
G1 X135.850 Y87.650 E47.16647
G1 X138.259 Y88.048 E47.30925
G1 X140.412 Y89.198 E47.45203
G1 X142.082 Y90.978 E47.59481
G1 X143.092 Y93.201 E47.73759
G1 X143.350 Y95.150 E47.85257
G1 X143.350 Y124.850 E49.58960
G1 X142.952 Y127.259 E49.73238
G1 X141.802 Y129.412 E49.87516
G1 X140.022 Y131.082 E50.01794
G1 X137.799 Y132.092 E50.16071
G1 X135.850 Y132.350 E50.27570
G1 X84.150 Y132.350 E53.29942
G1 X81.741 Y131.952 E53.44220
G1 X79.588 Y130.802 E53.58498
G1 X77.918 Y129.022 E53.72775
G1 X76.908 Y126.799 E53.87053
G1 X76.650 Y124.850 E53.98552
G1 X76.650 Y95.150 E55.72255
G1 X77.048 Y92.741 E55.86533
G1 X78.198 Y90.588 E56.00810
G1 X79.935 Y88.959 E56.14737
G1 X80.459 Y89.202 F7800.000
G1 F2250
G1 X82.644 Y88.314 E56.28528
G1 X84.150 Y88.150 E56.37390
G1 X135.850 Y88.150 E59.39762
G1 X138.174 Y88.547 E59.53552
G1 X140.235 Y89.694 E59.67343
G1 X141.798 Y91.459 E59.81133
G1 X142.686 Y93.644 E59.94924
G1 X142.850 Y95.150 E60.03786
G1 X142.850 Y124.850 E61.77489
G1 X142.453 Y127.174 E61.91279
G1 X141.306 Y129.235 E62.05070
G1 X139.541 Y130.798 E62.18860
G1 X137.356 Y131.686 E62.32650
G1 X135.850 Y131.850 E62.41513
G1 X84.150 Y131.850 E65.43885
G1 X81.826 Y131.452 E65.57675
G1 X79.765 Y130.306 E65.71466
G1 X78.202 Y128.541 E65.85256
G1 X77.314 Y126.356 E65.99046
G1 X77.150 Y124.850 E66.07908
G1 X77.150 Y95.150 E67.81612
G1 X77.547 Y92.826 E67.95402
G1 X78.694 Y90.765 E68.09192
G1 X80.414 Y89.242 E68.22632
G1 X80.938 Y89.500 F7800.000
G1 F2250
G1 X84.150 Y88.650 E68.42065
G1 X135.850 Y88.650 E71.44438
G1 X138.087 Y89.047 E71.57723
G1 X140.050 Y90.189 E71.71008
G1 X141.500 Y91.938 E71.84293
G1 X142.350 Y95.150 E72.03727
G1 X142.350 Y124.850 E73.77430
G1 X141.953 Y127.087 E73.90715
G1 X140.811 Y129.050 E74.04000
G1 X139.062 Y130.500 E74.17285
G1 X135.850 Y131.350 E74.36719
G1 X84.150 Y131.350 E77.39091
G1 X81.913 Y130.953 E77.52376
G1 X79.950 Y129.811 E77.65661
G1 X78.500 Y128.062 E77.78946
G1 X77.650 Y124.850 E77.98380
G1 X77.650 Y95.150 E79.72083
G1 X78.047 Y92.913 E79.85368
G1 X79.189 Y90.950 E79.98653
G1 X80.891 Y89.538 E80.11587
G1 X81.412 Y89.811 F7800.000
G1 F2250
G1 X84.150 Y89.150 E80.28059
G1 X135.850 Y89.150 E83.30431
G1 X137.995 Y89.547 E83.43191
G1 X139.857 Y90.684 E83.55951
G1 X141.189 Y92.412 E83.68710
G1 X141.850 Y95.150 E83.85182
G1 X141.850 Y124.850 E85.58885
G1 X141.453 Y126.995 E85.71645
G1 X140.316 Y128.857 E85.84405
G1 X138.588 Y130.189 E85.97164
G1 X135.850 Y130.850 E86.13636
G1 X84.150 Y130.850 E89.16008
G1 X82.005 Y130.453 E89.28768
G1 X80.143 Y129.316 E89.41528
G1 X78.811 Y127.588 E89.54287
G1 X78.150 Y124.850 E89.70759
G1 X78.150 Y95.150 E91.44462
G1 X78.547 Y93.005 E91.57222
G1 X79.684 Y91.143 E91.69982
G1 X81.365 Y89.848 E91.82391
G1 X81.883 Y90.139 F7800.000
G1 F2250
G1 X84.150 Y89.650 E91.95955
G1 X135.850 Y89.650 E94.98327
G1 X137.900 Y90.046 E95.10540
G1 X139.655 Y91.178 E95.22752
G1 X140.861 Y92.883 E95.34964
G1 X141.350 Y95.150 E95.48529
G1 X141.350 Y124.850 E97.22232
G1 X140.954 Y126.900 E97.34444
G1 X139.822 Y128.655 E97.46656
G1 X138.117 Y129.861 E97.58868
G1 X135.850 Y130.350 E97.72433
G1 X84.150 Y130.350 E100.74805
G1 X82.100 Y129.954 E100.87017
G1 X80.345 Y128.822 E100.99229
G1 X79.139 Y127.117 E101.11441
G1 X78.650 Y124.850 E101.25006
G1 X78.650 Y95.150 E102.98709
G1 X79.046 Y93.100 E103.10921
G1 X80.178 Y91.345 E103.23134
G1 X81.834 Y90.174 E103.34995
G1 F6240
G1 X84.150 Y89.650 E102.80766
G1 F6240
G1 X106.735 Y89.650 E97.64995
G1 E97.34995 F1500.00000
G92 E0
G1 X134.570 Y123.570 F7800.000
G1 E6.00000 F1500.00000
G1 F1800
G1 X85.430 Y123.570 E8.87402
G1 X85.430 Y96.430 E10.46135
G1 X134.570 Y96.430 E13.33537
G1 X134.570 Y123.510 E14.91918
G1 X135.070 Y124.070 F7800.000
G1 F1800
G1 X84.930 Y124.070 E17.85168
G1 X84.930 Y95.930 E19.49748
G1 X135.070 Y95.930 E22.42998
G1 X135.070 Y124.010 E24.07227
G1 X135.570 Y124.570 F7800.000
G1 F900
G1 X84.430 Y124.570 E27.06324
G1 X84.430 Y95.430 E28.76752
G1 X135.570 Y95.430 E31.75849
G1 X135.570 Y124.510 E33.45926
G1 X135.176 Y124.501 F7800.000
G1 F6240
G1 X110.610 Y124.539 E27.75926
G1 E27.45926 F1500.00000
G92 E0
G1 X134.070 Y123.070 F7800.000
G1 E6.00000 F1500.00000
G1 F900
G1 X134.070 Y122.363 E6.04142
G1 X133.363 Y123.070 E6.09999
G1 X132.655 Y123.070 E6.14139
G1 X134.070 Y121.655 E6.25852
G1 X134.070 Y120.948 E6.29992
G1 X131.948 Y123.070 E6.47560
G1 X131.240 Y123.070 E6.51700
G1 X134.070 Y120.240 E6.75122
G1 X134.070 Y119.533 E6.79263
G1 X130.533 Y123.070 E7.08540
G1 X129.825 Y123.070 E7.12681
G1 X134.070 Y118.825 E7.47813
G1 X134.070 Y118.118 E7.51954
G1 X129.118 Y123.070 E7.92941
G1 X128.411 Y123.070 E7.97082
G1 X134.070 Y117.411 E8.43925
G1 X134.070 Y116.703 E8.48065
G1 X127.703 Y123.070 E9.00763
G1 X126.996 Y123.070 E9.04903
G1 X134.070 Y115.996 E9.63456
G1 X134.070 Y115.288 E9.67596
G1 X126.288 Y123.070 E10.32004
G1 X125.581 Y123.070 E10.36145
G1 X134.070 Y114.581 E11.06408
G1 X134.070 Y113.873 E11.10548
G1 X124.873 Y123.070 E11.86666
G1 X124.166 Y123.070 E11.90807
G1 X134.070 Y113.166 E12.72780
G1 X134.070 Y112.459 E12.76920
G1 X123.459 Y123.070 E13.64749
G1 X122.751 Y123.070 E13.68889
G1 X134.070 Y111.751 E14.62573
G1 X134.070 Y111.044 E14.66713
G1 X122.044 Y123.070 E15.66251
G1 X121.336 Y123.070 E15.70392
G1 X134.070 Y110.336 E16.75785
G1 X134.070 Y109.629 E16.79925
G1 X120.629 Y123.070 E17.91174
G1 X119.921 Y123.070 E17.95314
G1 X134.070 Y108.921 E19.12418
G1 X134.070 Y108.214 E19.16559
G1 X119.214 Y123.070 E20.39518
G1 X118.506 Y123.070 E20.43658
G1 X134.070 Y107.506 E21.72472
G1 X134.070 Y106.799 E21.76612
G1 X117.799 Y123.070 E23.11281
G1 X117.092 Y123.070 E23.15421
G1 X134.070 Y106.092 E24.55946
G1 X134.070 Y105.384 E24.60086
G1 X116.384 Y123.070 E26.06465
G1 X115.677 Y123.070 E26.10605
G1 X134.070 Y104.677 E27.62840
G1 X134.070 Y103.969 E27.66980
G1 X114.969 Y123.070 E29.25069
G1 X114.262 Y123.070 E29.29209
G1 X134.070 Y103.262 E30.93154
G1 X134.070 Y102.554 E30.97294
G1 X113.554 Y123.070 E32.67094
G1 X112.847 Y123.070 E32.71234
G1 X134.070 Y101.847 E34.46889
G1 X134.070 Y101.140 E34.51029
G1 X112.140 Y123.070 E36.32539
G1 X111.432 Y123.070 E36.36679
G1 X134.070 Y100.432 E38.24044
G1 X134.070 Y99.725 E38.28184
G1 X110.725 Y123.070 E40.21404
G1 X110.017 Y123.070 E40.25544
G1 X134.070 Y99.017 E42.24619
G1 X134.070 Y98.310 E42.28759
G1 X109.310 Y123.070 E44.33689
G1 X108.602 Y123.070 E44.37829
G1 X134.070 Y97.602 E46.48615
G1 X134.070 Y96.930 E46.52552
G1 X134.036 Y96.930 E46.52755
G1 X107.895 Y123.070 E48.69108
G1 X107.187 Y123.070 E48.73248
G1 X133.328 Y96.930 E50.89601
G1 X132.621 Y96.930 E50.93741
G1 X106.480 Y123.070 E53.10094
G1 X105.773 Y123.070 E53.14234
G1 X131.913 Y96.930 E55.30587
G1 X131.206 Y96.930 E55.34727
G1 X105.065 Y123.070 E57.51080
G1 X104.358 Y123.070 E57.55221
G1 X130.498 Y96.930 E59.71574
G1 X129.791 Y96.930 E59.75714
G1 X103.650 Y123.070 E61.92067
G1 X102.943 Y123.070 E61.96207
G1 X129.084 Y96.930 E64.12560
G1 X128.376 Y96.930 E64.16700
G1 X102.235 Y123.070 E66.33053
G1 X101.528 Y123.070 E66.37193
G1 X127.669 Y96.930 E68.53546
G1 X126.961 Y96.930 E68.57686
G1 X100.821 Y123.070 E70.74039
G1 X100.113 Y123.070 E70.78180
G1 X126.254 Y96.930 E72.94533
G1 X125.546 Y96.930 E72.98673
G1 X99.406 Y123.070 E75.15026
G1 X98.698 Y123.070 E75.19166
G1 X124.839 Y96.930 E77.35519
G1 X124.132 Y96.930 E77.39659
G1 X97.991 Y123.070 E79.56012
G1 X97.283 Y123.070 E79.60152
G1 X123.424 Y96.930 E81.76505
G1 X122.717 Y96.930 E81.80646
G1 X96.576 Y123.070 E83.96999
G1 X95.869 Y123.070 E84.01139
G1 X122.009 Y96.930 E86.17492
G1 X121.302 Y96.930 E86.21632
G1 X95.161 Y123.070 E88.37985
G1 X94.454 Y123.070 E88.42125
G1 X120.594 Y96.930 E90.58478
G1 X119.887 Y96.930 E90.62618
G1 X93.746 Y123.070 E92.78971
G1 X93.039 Y123.070 E92.83111
G1 X119.179 Y96.930 E94.99464
G1 X118.472 Y96.930 E95.03605
G1 X92.331 Y123.070 E97.19958
G1 X91.624 Y123.070 E97.24098
G1 X117.765 Y96.930 E99.40451
G1 X117.057 Y96.930 E99.44591
G1 X90.916 Y123.070 E101.60944
G1 X90.209 Y123.070 E101.65084
G1 X116.350 Y96.930 E103.81437
G1 X115.642 Y96.930 E103.85577
G1 X89.502 Y123.070 E106.01930
G1 X88.794 Y123.070 E106.06070
G1 X114.935 Y96.930 E108.22423
G1 X114.227 Y96.930 E108.26564
G1 X88.087 Y123.070 E110.42917
G1 X87.379 Y123.070 E110.47057
G1 X113.520 Y96.930 E112.63410
G1 X112.813 Y96.930 E112.67550
G1 X86.672 Y123.070 E114.83903
G1 X85.964 Y123.070 E114.88043
G1 X112.105 Y96.930 E117.04396
G1 X111.398 Y96.930 E117.08536
G1 X85.930 Y122.398 E119.19322
G1 X85.930 Y121.690 E119.23462
G1 X110.690 Y96.930 E121.28393
G1 X109.983 Y96.930 E121.32533
G1 X85.930 Y120.983 E123.31608
G1 X85.930 Y120.275 E123.35748
G1 X109.275 Y96.930 E125.28969
G1 X108.568 Y96.930 E125.33109
G1 X85.930 Y119.568 E127.20474
G1 X85.930 Y118.861 E127.24615
G1 X107.861 Y96.930 E129.06125
G1 X107.153 Y96.930 E129.10265
G1 X85.930 Y118.153 E130.85920
G1 X85.930 Y117.446 E130.90060
G1 X106.446 Y96.930 E132.59860
G1 X105.738 Y96.930 E132.64001
G1 X85.930 Y116.738 E134.27946
G1 X85.930 Y116.031 E134.32086
G1 X105.031 Y96.930 E135.90176
G1 X104.323 Y96.930 E135.94316
G1 X85.930 Y115.323 E137.46551
G1 X85.930 Y114.616 E137.50691
G1 X103.616 Y96.930 E138.97071
G1 X102.908 Y96.930 E139.01211
G1 X85.930 Y113.908 E140.41735
G1 X85.930 Y113.201 E140.45876
G1 X102.201 Y96.930 E141.80545
G1 X101.494 Y96.930 E141.84685
G1 X85.930 Y112.494 E143.13500
G1 X85.930 Y111.786 E143.17640
G1 X100.786 Y96.930 E144.40600
G1 X100.079 Y96.930 E144.44740
G1 X85.930 Y111.079 E145.61844
G1 X85.930 Y110.371 E145.65984
G1 X99.371 Y96.930 E146.77234
G1 X98.664 Y96.930 E146.81374
G1 X85.930 Y109.664 E147.86768
G1 X85.930 Y108.956 E147.90908
G1 X97.956 Y96.930 E148.90447
G1 X97.249 Y96.930 E148.94587
G1 X85.930 Y108.249 E149.88271
G1 X85.930 Y107.542 E149.92412
G1 X96.542 Y96.930 E150.80241
G1 X95.834 Y96.930 E150.84381
G1 X85.930 Y106.834 E151.66355
G1 X85.930 Y106.127 E151.70495
G1 X95.127 Y96.930 E152.46614
G1 X94.419 Y96.930 E152.50754
G1 X85.930 Y105.419 E153.21018
G1 X85.930 Y104.712 E153.25158
G1 X93.712 Y96.930 E153.89566
G1 X93.004 Y96.930 E153.93707
G1 X85.930 Y104.004 E154.52260
G1 X85.930 Y103.297 E154.56400
G1 X92.297 Y96.930 E155.09099
G1 X91.589 Y96.930 E155.13239
G1 X85.930 Y102.589 E155.60082
G1 X85.930 Y101.882 E155.64223
G1 X90.882 Y96.930 E156.05211
G1 X90.175 Y96.930 E156.09351
G1 X85.930 Y101.175 E156.44484
G1 X85.930 Y100.467 E156.48624
G1 X89.467 Y96.930 E156.77903
G1 X88.760 Y96.930 E156.82043
G1 X85.930 Y99.760 E157.05466
G1 X85.930 Y99.052 E157.09606
G1 X88.052 Y96.930 E157.27174
G1 X87.345 Y96.930 E157.31314
G1 X85.930 Y98.345 E157.43027
G1 X85.930 Y97.637 E157.47167
G1 X86.637 Y96.930 E157.53025
G1 X85.930 Y96.930 E157.57166
G1 F6240
G1 X86.637 Y96.930 E157.41008
G1 F6240
G1 X85.930 Y97.637 E157.18150
G1 F6240
G1 X85.930 Y98.345 E157.01994
G1 F6240
G1 X87.345 Y96.930 E156.56289
G1 F6240
G1 X88.052 Y96.930 E156.40134
G1 F6240
G1 X85.930 Y99.052 E155.71581
G1 F6240
G1 X85.930 Y99.760 E155.55426
G1 F6240
G1 X88.760 Y96.930 E154.64026
G1 F6240
G1 X89.467 Y96.930 E154.47871
G1 F6240
G1 X85.930 Y100.467 E153.33624
G1 F6240
G1 X85.930 Y101.175 E153.17469
G1 F6240
G1 X89.964 Y97.140 E151.87166
G1 E151.57166 F1500.00000
G92 E0
G1 Z0.280 F7800.000
G1 Z0.560 F7800.000
G1 X134.767 Y123.767 F7800.000
G1 E6.00000 F1500.00000
G1 F2400
G1 X85.233 Y123.767 E8.60082
G1 X85.233 Y96.233 E10.04651
G1 X134.767 Y96.233 E12.64733
G1 X134.767 Y123.707 E14.08987
G1 X135.216 Y124.216 F7800.000
G1 F2400
G1 X84.784 Y124.216 E16.73782
G1 X84.784 Y95.784 E18.23064
G1 X135.216 Y95.784 E20.87859
G1 X135.216 Y124.156 E22.36826
G1 X135.630 Y124.630 F7800.000
G1 F1200
G1 X84.370 Y124.630 E24.64660
G1 X84.370 Y95.370 E25.94711
G1 X135.630 Y95.370 E28.22546
G1 X135.630 Y124.570 E29.52330
G1 X135.236 Y124.561 F7800.000
G1 X134.318 Y97.320 F7800.000
G1 F1200
G1 X133.680 Y96.682 E29.57093
G1 X133.042 Y96.682 E29.60459
G1 X134.318 Y97.958 E29.69983
G1 X134.318 Y98.596 E29.73349
G1 X132.404 Y96.682 E29.87633
G1 X131.766 Y96.682 E29.90999
G1 X134.318 Y99.234 E30.10044
G1 X134.318 Y99.872 E30.13410
G1 X131.128 Y96.682 E30.37215
G1 X130.490 Y96.682 E30.40581
G1 X134.318 Y100.510 E30.69147
G1 X134.318 Y101.147 E30.72513
G1 X129.853 Y96.682 E31.05840
G1 X129.215 Y96.682 E31.09206
G1 X134.318 Y101.785 E31.47293
G1 X134.318 Y102.423 E31.50659
G1 X128.577 Y96.682 E31.93506
G1 X127.939 Y96.682 E31.96873
G1 X134.318 Y103.061 E32.44481
G1 X134.318 Y103.699 E32.47847
G1 X127.301 Y96.682 E33.00216
G1 X126.663 Y96.682 E33.03582
G1 X134.318 Y104.337 E33.60711
