; generated by Slic3r 1.3.1-dev on 2020-07-27 at 21:22:35

; external perimeters extrusion width = 0.44mm (2.13mm^3/s)
; perimeters extrusion width = 0.51mm (5.03mm^3/s)
; infill extrusion width = 0.50mm (6.16mm^3/s)
; solid infill extrusion width = 0.51mm (2.51mm^3/s)
; top infill extrusion width = 0.51mm (1.88mm^3/s)
; support material extrusion width = 0.44mm (5.32mm^3/s)

M190 S70 ; set bed temperature and wait for it to be reached
; Ender 3 Custom Start G-code
G92 E0 ; Reset Extruder
G28 ; Home all axes
;G29 ; perform auto level
;M500; store mesh
M155 S30
M420 L0 S1 T1 V1 Z1 ; enable mesh
M155 S3
G1 Z2.0 F3000 ; Move Z Axis up little to prevent scratching of Heat Bed
G1 X0.1 Y20 Z0.3 F5000.0 ; Move to start position
M109 S216
G1 X0.1 Y200.0 Z0.3 F1500.0 E15 ; Draw the first line
G1 X0.4 Y200.0 Z0.3 F5000.0 ; Move to side a little
G1 X0.4 Y20 Z0.3 F1500.0 E30 ; Draw the second line
G92 E0 ; Reset Extruder
G1 Z2.0 F3000 ; Move Z Axis up little to prevent scratching of Heat Bed
G1 X5 Y20 Z0.3 F5000.0 ; Move over to prevent blob squish

; Filament gcode

G21 ; set units to millimeters
G90 ; use absolute coordinates
M82 ; use absolute distances for extrusion
G92 E0
G92 E0
M106 S204
G1 E-6.00000 F1500.00000
G92 E0
G1 Z0.280 F7800.000
G1 X65.997 Y35.911 F7800.000
G1 E6.00000 F1500.00000
G1 F2250
G1 X67.226 Y33.898 E6.13790
G1 X69.053 Y32.408 E6.27581
G1 X71.271 Y31.609 E6.41371
G1 X72.500 Y31.500 E6.48585
G1 X96.750 Y31.500 E7.90413
G1 X99.074 Y31.897 E8.04204
G1 X100.411 Y32.534 E8.12866
G1 X149.655 Y62.758 E11.50790
G1 X151.428 Y64.312 E11.64580
G1 X152.534 Y66.229 E11.77524
G1 X153.350 Y68.371 E11.90929
G1 X153.809 Y70.778 E12.05262
G1 X154.499 Y126.413 E15.30674
G1 X154.500 Y181.500 E18.52854
G1 X154.103 Y183.824 E18.66645
G1 X152.956 Y185.885 E18.80435
G1 X151.191 Y187.448 E18.94226
G1 X149.006 Y188.336 E19.08016
G1 X147.500 Y188.500 E19.16878
G1 X72.500 Y188.500 E23.55522
G1 X70.176 Y188.103 E23.69313
G1 X68.115 Y186.956 E23.83103
G1 X66.552 Y185.191 E23.96894
G1 X65.664 Y183.006 E24.10684
G1 X65.502 Y181.638 E24.18742
G1 X64.190 Y115.135 E28.07768
G1 X64.196 Y70.582 E30.68341
G1 X65.506 Y38.217 E32.57785
G1 X65.984 Y35.969 E32.71225
G1 X66.493 Y36.018 F7800.000
G1 F2250
G1 X67.713 Y34.103 E32.84510
G1 X69.519 Y32.724 E32.97795
G1 X72.500 Y32.000 E33.15738
G1 X96.750 Y32.000 E34.57566
G1 X98.987 Y32.397 E34.70851
G1 X100.150 Y32.960 E34.78411
G1 X149.393 Y63.184 E38.16334
G1 X151.092 Y64.692 E38.29620
G1 X152.066 Y66.407 E38.41158
G1 X152.883 Y68.549 E38.54563
G1 X153.309 Y70.784 E38.67873
G1 X153.999 Y126.419 E41.93285
G1 X154.000 Y181.500 E45.15428
G1 X153.603 Y183.737 E45.28714
G1 X152.461 Y185.700 E45.41999
G1 X150.712 Y187.150 E45.55284
G1 X147.500 Y188.000 E45.74717
G1 X72.500 Y188.000 E50.13362
G1 X70.263 Y187.603 E50.26647
G1 X68.300 Y186.461 E50.39932
G1 X66.850 Y184.712 E50.53217
G1 X66.002 Y181.628 E50.71924
G1 X64.690 Y115.135 E54.60892
G1 X64.695 Y70.602 E57.21347
G1 X66.006 Y38.237 E59.10791
G1 X66.480 Y36.077 E59.23725
G1 X66.988 Y36.130 F7800.000
G1 F2250
G1 X68.200 Y34.316 E59.36485
G1 X69.981 Y33.055 E59.49245
G1 X72.500 Y32.500 E59.64333
G1 X96.750 Y32.500 E61.06161
G1 X98.895 Y32.897 E61.18921
G1 X99.888 Y33.386 E61.25397
G1 X149.132 Y63.610 E64.63320
G1 X150.753 Y65.070 E64.76080
G1 X151.599 Y66.585 E64.86232
G1 X152.416 Y68.727 E64.99637
G1 X152.810 Y70.791 E65.11923
G1 X153.499 Y126.426 E68.37335
G1 X153.500 Y181.500 E71.59443
G1 X153.103 Y183.645 E71.72203
G1 X151.966 Y185.507 E71.84963
G1 X150.238 Y186.839 E71.97723
G1 X147.500 Y187.500 E72.14194
G1 X72.500 Y187.500 E76.52838
G1 X70.355 Y187.103 E76.65598
G1 X68.493 Y185.966 E76.78358
G1 X67.161 Y184.238 E76.91118
G1 X66.501 Y181.618 E77.06915
G1 X65.190 Y115.135 E80.95825
G1 X65.195 Y70.622 E83.56162
G1 X66.505 Y38.257 E85.45606
G1 X66.975 Y36.188 E85.58015
G1 X67.484 Y36.245 F7800.000
G1 F2250
G1 X68.686 Y34.538 E85.70227
G1 X70.437 Y33.402 E85.82439
G1 X72.500 Y33.000 E85.94729
G1 X96.750 Y33.000 E87.36557
G1 X99.627 Y33.813 E87.54041
G1 X148.870 Y64.036 E90.91965
G1 X150.410 Y65.446 E91.04177
G1 X151.132 Y66.764 E91.12963
G1 X151.949 Y68.905 E91.26368
G1 X152.310 Y70.797 E91.37631
G1 X152.999 Y126.432 E94.63043
G1 X153.000 Y181.500 E97.85114
G1 X152.604 Y183.550 E97.97326
G1 X151.472 Y185.305 E98.09538
G1 X149.767 Y186.511 E98.21751
G1 X147.500 Y187.000 E98.35315
G1 X72.500 Y187.000 E102.73960
G1 X70.450 Y186.604 E102.86172
G1 X68.695 Y185.472 E102.98384
G1 X67.489 Y183.767 E103.10596
G1 X67.001 Y181.609 E103.23539
G1 X65.690 Y115.135 E107.12392
G1 X65.694 Y70.642 E109.72610
G1 X67.005 Y38.278 E111.62055
G1 X67.470 Y36.304 E111.73916
G1 F6240
G1 X68.686 Y34.538 E111.24958
G1 F6240
G1 X70.437 Y33.402 E110.77274
G1 F6240
G1 X72.500 Y33.000 E110.29287
G1 F6240
G1 X91.127 Y33.000 E106.03916
G1 E105.73916 F1500.00000
G92 E0
G1 X94.530 Y57.780 F7800.000
G1 E6.00000 F1500.00000
G1 F900
G1 X79.970 Y57.780 E6.85155
G1 X79.970 Y45.220 E7.58614
G1 X94.530 Y45.220 E8.43769
G1 X94.530 Y57.720 E9.16877
G1 X94.643 Y58.164 F7800.000
G1 F6240
G1 X79.970 Y57.780 E5.84374
G1 F6240
G1 X79.970 Y47.380 E3.46877
G1 E3.16877 F1500.00000
G92 E0
G1 X95.250 Y58.000 F7800.000
G1 X79.250 Y58.000 F7800.000
G1 X77.500 Y56.250 F7800.000
G1 X77.500 Y46.732 F7800.000
G1 X77.750 Y46.500 F7800.000
G1 X77.750 Y45.000 F7800.000
G1 X77.470 Y45.280 F7800.000
G1 E6.00000 F1500.00000
G1 F1800
G1 X78.970 Y45.280 E6.08773
G1 X78.970 Y57.720 E6.81531
G1 X76.030 Y57.720 E6.98728
G1 X76.030 Y39.780 E8.03654
G1 X77.470 Y39.780 E8.12078
G1 X77.470 Y45.220 E8.43895
G1 X77.970 Y44.780 F7800.000
G1 F1800
G1 X79.470 Y44.780 E8.52667
G1 X79.470 Y58.220 E9.31274
G1 X75.530 Y58.220 E9.54318
G1 X75.530 Y39.280 E10.65091
G1 X77.970 Y39.280 E10.79363
G1 X77.970 Y44.720 E11.11179
G1 F6240
G1 X79.470 Y44.780 E10.76897
G1 F6240
G1 X79.470 Y58.220 E7.69970
G1 F6240
G1 X75.530 Y58.220 E6.79990
G1 F6240
G1 X75.530 Y52.142 E5.41179
G1 E5.11179 F1500.00000
G92 E0
G1 X95.030 Y44.780 F7800.000
G1 E6.00000 F1500.00000
G1 F675
G1 X95.970 Y44.780 E6.05499
G1 X95.970 Y58.220 E6.84105
G1 X95.030 Y58.220 E6.89604
G1 X95.030 Y44.840 E7.67859
G1 X96.030 Y44.280 F7800.000
G1 F900
G1 X96.030 Y38.780 E8.00026
G1 X96.470 Y38.780 E8.02599
G1 X96.470 Y58.720 E9.19220
G1 X72.780 Y58.720 E10.57773
G1 X72.780 Y57.780 E10.63271
G1 X75.030 Y57.780 E10.76430
G1 X75.030 Y49.220 E11.26494
G1 X72.780 Y49.220 E11.39654
G1 X72.780 Y48.280 E11.45151
G1 X75.030 Y48.280 E11.58311
G1 X75.030 Y39.720 E12.08375
G1 X72.780 Y39.720 E12.21534
G1 X72.780 Y38.780 E12.27032
G1 X78.470 Y38.780 E12.60310
G1 X78.470 Y44.280 E12.92477
G1 X95.970 Y44.280 E13.94828
G1 X96.428 Y44.320 F7800.000
G1 X95.500 Y45.030 F7800.000
G1 F900
G1 X95.500 Y57.970 E14.52384
G1 X94.780 Y58.250 F7800.000
G1 F900
G1 X79.720 Y58.250 E15.19336
G1 X78.470 Y57.220 F7800.000
G1 F900
G1 X78.470 Y56.494 E15.23700
G1 X77.744 Y57.220 E15.29872
G1 X77.018 Y57.220 E15.34235
G1 X78.470 Y55.768 E15.46576
G1 X78.470 Y55.042 E15.50939
G1 X76.530 Y56.982 E15.67427
G1 X76.530 Y56.256 E15.71789
G1 X78.470 Y54.315 E15.88277
G1 X78.470 Y53.589 E15.92640
G1 X76.530 Y55.530 E16.09128
G1 X76.530 Y54.804 E16.13490
G1 X78.470 Y52.863 E16.29979
G1 X78.470 Y52.137 E16.34341
G1 X76.530 Y54.077 E16.50829
G1 X76.530 Y53.351 E16.55192
G1 X78.470 Y51.411 E16.71680
G1 X78.470 Y50.684 E16.76042
G1 X76.530 Y52.625 E16.92530
G1 X76.530 Y51.899 E16.96893
G1 X78.470 Y49.958 E17.13381
G1 X78.470 Y49.232 E17.17743
G1 X76.530 Y51.173 E17.34231
G1 X76.530 Y50.447 E17.38594
G1 X78.470 Y48.506 E17.55082
G1 X78.470 Y47.780 E17.59445
G1 X76.530 Y49.720 E17.75933
G1 X76.530 Y48.994 E17.80295
G1 X78.470 Y47.053 E17.96783
G1 X78.470 Y46.327 E18.01146
G1 X76.530 Y48.268 E18.17634
G1 X76.530 Y47.542 E18.21996
G1 X78.292 Y45.780 E18.36967
G1 X77.566 Y45.780 E18.41330
G1 X76.530 Y46.816 E18.50131
G1 X76.530 Y46.089 E18.54494
G1 X76.970 Y45.649 E18.58238
G1 X76.970 Y44.923 E18.62601
G1 X76.530 Y45.363 E18.66345
G1 X76.530 Y44.637 E18.70708
G1 X76.970 Y44.196 E18.74452
G1 X76.970 Y43.470 E18.78814
G1 X76.530 Y43.911 E18.82559
G1 X76.530 Y43.185 E18.86921
G1 X76.970 Y42.744 E18.90665
G1 X76.970 Y42.018 E18.95028
G1 X76.530 Y42.458 E18.98772
G1 X76.530 Y41.732 E19.03135
G1 X76.970 Y41.292 E19.06879
G1 X76.970 Y40.565 E19.11242
G1 X76.530 Y41.006 E19.14986
G1 X76.530 Y40.280 E19.19350
G1 X75.280 Y39.250 F7800.000
G1 F900
G1 X73.030 Y39.250 E19.29353
G1 F6240
G1 X75.280 Y39.250 E18.77971
G1 E13.29353 F1500.00000
G92 E0
G1 X75.750 Y39.500 F7800.000
G1 X76.750 Y40.500 F7800.000
G1 X76.750 Y45.000 F7800.000
G1 X77.500 Y46.732 F7800.000
G1 X79.250 Y45.000 F7800.000
G1 X79.720 Y44.750 F7800.000
G1 E6.00000 F1500.00000
G1 F900
G1 X94.780 Y44.750 E6.66952
G1 F6240
G1 X79.720 Y44.750 E3.23036
G1 E0.66952 F1500.00000
G92 E0
G1 X95.250 Y45.000 F7800.000
G1 X79.250 Y45.000 F7800.000
G1 X75.280 Y48.750 F7800.000
G1 E6.00000 F1500.00000
G1 F900
G1 X73.030 Y48.750 E6.10003
G1 F6240
G1 X75.280 Y48.750 E5.58621
G1 E0.10003 F1500.00000
G92 E0
G1 X77.500 Y46.732 F7800.000
G1 X77.500 Y56.250 F7800.000
G1 X75.750 Y58.000 F7800.000
G1 X73.030 Y58.250 F7800.000
G1 E6.00000 F1500.00000
G1 F900
G1 X75.280 Y58.250 E6.10003
G1 F6240
G1 X73.030 Y58.250 E5.58621
G1 E0.10003 F1500.00000
G92 E0
G1 Z0.280 F7800.000
G1 Z0.280 F7800.000
G1 X70.500 Y61.000 F7800.000
G1 X70.500 Y63.505 F7800.000
G1 X73.780 Y77.049 F7800.000
G1 E6.00000 F1500.00000
G1 F1800
G1 X144.220 Y77.049 E10.11977
G1 X144.220 Y108.951 E11.98554
G1 X73.780 Y108.951 E16.10531
G1 X73.780 Y77.109 E17.96758
G1 X73.280 Y76.549 F7800.000
G1 F1800
G1 X144.720 Y76.549 E22.14582
G1 X144.720 Y109.451 E24.07007
G1 X73.280 Y109.451 E28.24832
G1 X73.280 Y76.609 E30.16906
G1 X72.780 Y76.050 F7800.000
G1 F900
G1 X145.220 Y76.050 E34.40578
G1 X145.220 Y109.950 E36.38850
G1 X72.780 Y109.950 E40.62522
G1 X72.780 Y76.110 E42.60444
G1 X73.176 Y76.108 F7800.000
G1 F6240
G1 X97.740 Y76.089 E36.90444
G1 E36.60444 F1500.00000
G92 E0
G1 X74.280 Y77.549 F7800.000
G1 E6.00000 F1500.00000
G1 F900
G1 X74.992 Y77.549 E6.04190
G1 X74.280 Y78.261 E6.10118
G1 X74.280 Y78.973 E6.14308
G1 X75.703 Y77.549 E6.26160
G1 X76.415 Y77.549 E6.30350
G1 X74.280 Y79.684 E6.48127
G1 X74.280 Y80.396 E6.52317
G1 X77.127 Y77.549 E6.76019
G1 X77.838 Y77.549 E6.80209
G1 X74.280 Y81.108 E7.09836
G1 X74.280 Y81.819 E7.14025
G1 X78.550 Y77.549 E7.49578
G1 X79.261 Y77.549 E7.53767
G1 X74.280 Y82.531 E7.95244
G1 X74.280 Y83.243 E7.99434
G1 X79.973 Y77.549 E8.46836
G1 X80.685 Y77.549 E8.51026
G1 X74.280 Y83.954 E9.04353
G1 X74.280 Y84.666 E9.08542
G1 X81.396 Y77.549 E9.67794
G1 X82.108 Y77.549 E9.71984
G1 X74.280 Y85.378 E10.37161
G1 X74.280 Y86.089 E10.41350
G1 X82.820 Y77.549 E11.12452
G1 X83.531 Y77.549 E11.16642
G1 X74.280 Y86.801 E11.93668
G1 X74.280 Y87.513 E11.97858
G1 X84.243 Y77.549 E12.80810
G1 X84.955 Y77.549 E12.84999
G1 X74.280 Y88.224 E13.73876
G1 X74.280 Y88.936 E13.78065
G1 X85.666 Y77.549 E14.72867
G1 X86.378 Y77.549 E14.77056
G1 X74.280 Y89.647 E15.77783
G1 X74.280 Y90.359 E15.81972
G1 X87.090 Y77.549 E16.88624
G1 X87.801 Y77.549 E16.92813
G1 X74.280 Y91.071 E18.05390
G1 X74.280 Y91.782 E18.09579
G1 X88.513 Y77.549 E19.28081
G1 X89.224 Y77.549 E19.32270
G1 X74.280 Y92.494 E20.56696
G1 X74.280 Y93.206 E20.60886
G1 X89.936 Y77.549 E21.91237
G1 X90.648 Y77.549 E21.95427
G1 X74.280 Y93.917 E23.31703
G1 X74.280 Y94.629 E23.35892
G1 X91.359 Y77.549 E24.78093
G1 X92.071 Y77.549 E24.82283
G1 X74.280 Y95.341 E26.30409
G1 X74.280 Y96.052 E26.34598
G1 X92.783 Y77.549 E27.88649
G1 X93.494 Y77.549 E27.92838
G1 X74.280 Y96.764 E29.52814
G1 X74.280 Y97.476 E29.57004
G1 X94.206 Y77.549 E31.22904
G1 X94.918 Y77.549 E31.27094
G1 X74.280 Y98.187 E32.98920
G1 X74.280 Y98.899 E33.03109
G1 X95.629 Y77.549 E34.80860
G1 X96.341 Y77.549 E34.85049
G1 X74.280 Y99.610 E36.68725
G1 X74.280 Y100.322 E36.72914
G1 X97.053 Y77.549 E38.62515
G1 X97.764 Y77.549 E38.66704
G1 X74.280 Y101.034 E40.62230
G1 X74.280 Y101.745 E40.66419
G1 X98.476 Y77.549 E42.67869
G1 X99.187 Y77.549 E42.72059
G1 X74.280 Y102.457 E44.79434
G1 X74.280 Y103.169 E44.83624
G1 X99.899 Y77.549 E46.96924
G1 X100.611 Y77.549 E47.01113
G1 X74.280 Y103.880 E49.20339
G1 X74.280 Y104.592 E49.24528
G1 X101.322 Y77.549 E51.49678
G1 X102.034 Y77.549 E51.53868
G1 X74.280 Y105.304 E53.84943
G1 X74.280 Y106.015 E53.89132
G1 X102.746 Y77.549 E56.26132
G1 X103.457 Y77.549 E56.30322
G1 X74.280 Y106.727 E58.73246
G1 X74.280 Y107.439 E58.77436
G1 X104.169 Y77.549 E61.26286
G1 X104.881 Y77.549 E61.30475
G1 X74.280 Y108.150 E63.85250
G1 X74.280 Y108.451 E63.87020
G1 X74.691 Y108.451 E63.89439
G1 X105.592 Y77.549 E66.46717
G1 X106.304 Y77.549 E66.50907
G1 X75.402 Y108.451 E69.08184
G1 X76.114 Y108.451 E69.12374
G1 X107.016 Y77.549 E71.69652
G1 X107.727 Y77.549 E71.73841
G1 X76.826 Y108.451 E74.31119
G1 X77.537 Y108.451 E74.35308
G1 X108.439 Y77.549 E76.92586
G1 X109.151 Y77.549 E76.96776
G1 X78.249 Y108.451 E79.54054
G1 X78.960 Y108.451 E79.58243
G1 X109.862 Y77.549 E82.15521
G1 X110.574 Y77.549 E82.19710
G1 X79.672 Y108.451 E84.76988
G1 X80.384 Y108.451 E84.81178
G1 X111.285 Y77.549 E87.38455
G1 X111.997 Y77.549 E87.42645
G1 X81.095 Y108.451 E89.99923
G1 X81.807 Y108.451 E90.04112
G1 X112.709 Y77.549 E92.61390
G1 X113.420 Y77.549 E92.65580
G1 X82.519 Y108.451 E95.22857
G1 X83.230 Y108.451 E95.27047
G1 X114.132 Y77.549 E97.84325
G1 X114.844 Y77.549 E97.88514
G1 X83.942 Y108.451 E100.45792
G1 X84.654 Y108.451 E100.49981
G1 X115.555 Y77.549 E103.07259
G1 X116.267 Y77.549 E103.11449
G1 X85.365 Y108.451 E105.68726
G1 X86.077 Y108.451 E105.72916
G1 X116.979 Y77.549 E108.30194
G1 X117.690 Y77.549 E108.34383
G1 X86.789 Y108.451 E110.91661
G1 X87.500 Y108.451 E110.95851
G1 X118.402 Y77.549 E113.53128
G1 X119.114 Y77.549 E113.57318
G1 X88.212 Y108.451 E116.14596
G1 X88.924 Y108.451 E116.18785
G1 X119.825 Y77.549 E118.76063
G1 X120.537 Y77.549 E118.80253
G1 X89.635 Y108.451 E121.37530
G1 X90.347 Y108.451 E121.41720
G1 X121.248 Y77.549 E123.98998
G1 X121.960 Y77.549 E124.03187
G1 X91.058 Y108.451 E126.60465
G1 X91.770 Y108.451 E126.64654
G1 X122.672 Y77.549 E129.21932
G1 X123.383 Y77.549 E129.26122
G1 X92.482 Y108.451 E131.83400
G1 X93.193 Y108.451 E131.87589
G1 X124.095 Y77.549 E134.44867
G1 X124.807 Y77.549 E134.49056
G1 X93.905 Y108.451 E137.06334
G1 X94.617 Y108.451 E137.10524
G1 X125.518 Y77.549 E139.67801
G1 X126.230 Y77.549 E139.71991
G1 X95.328 Y108.451 E142.29269
G1 X96.040 Y108.451 E142.33458
G1 X126.942 Y77.549 E144.90736
G1 X127.653 Y77.549 E144.94926
G1 X96.752 Y108.451 E147.52203
G1 X97.463 Y108.451 E147.56393
G1 X128.365 Y77.549 E150.13671
G1 X129.077 Y77.549 E150.17860
G1 X98.175 Y108.451 E152.75138
G1 X98.887 Y108.451 E152.79327
G1 X129.788 Y77.549 E155.36605
G1 X130.500 Y77.549 E155.40795
G1 X99.598 Y108.451 E157.98073
G1 X100.310 Y108.451 E158.02262
G1 X131.211 Y77.549 E160.59540
G1 X131.923 Y77.549 E160.63729
G1 X101.021 Y108.451 E163.21007
G1 X101.733 Y108.451 E163.25197
G1 X132.635 Y77.549 E165.82474
G1 X133.346 Y77.549 E165.86664
G1 X102.445 Y108.451 E168.43942
G1 X103.156 Y108.451 E168.48131
G1 X134.058 Y77.549 E171.05409
G1 X134.770 Y77.549 E171.09599
G1 X103.868 Y108.451 E173.66876
G1 X104.580 Y108.451 E173.71066
G1 X135.481 Y77.549 E176.28344
G1 X136.193 Y77.549 E176.32533
G1 X105.291 Y108.451 E178.89811
G1 X106.003 Y108.451 E178.94000
G1 X136.905 Y77.549 E181.51278
G1 X137.616 Y77.549 E181.55468
G1 X106.715 Y108.451 E184.12745
G1 X107.426 Y108.451 E184.16935
G1 X138.328 Y77.549 E186.74213
G1 X139.040 Y77.549 E186.78402
G1 X108.138 Y108.451 E189.35680
G1 X108.850 Y108.451 E189.39870
G1 X139.751 Y77.549 E191.97147
G1 X140.463 Y77.549 E192.01337
G1 X109.561 Y108.451 E194.58615
G1 X110.273 Y108.451 E194.62804
G1 X141.174 Y77.549 E197.20082
G1 X141.886 Y77.549 E197.24271
G1 X110.984 Y108.451 E199.81549
G1 X111.696 Y108.451 E199.85739
G1 X142.598 Y77.549 E202.43016
G1 X143.309 Y77.549 E202.47206
G1 X112.408 Y108.451 E205.04484
G1 X113.119 Y108.451 E205.08673
G1 X143.720 Y77.850 E207.63448
G1 X143.720 Y78.562 E207.67637
G1 X113.831 Y108.451 E210.16487
G1 X114.543 Y108.451 E210.20676
G1 X143.720 Y79.273 E212.63601
G1 X143.720 Y79.985 E212.67790
