; generated by Slic3r 1.3.1-dev on 2020-07-27 at 09:14:33

; external perimeters extrusion width = 0.44mm (2.13mm^3/s)
; perimeters extrusion width = 0.51mm (5.03mm^3/s)
; infill extrusion width = 0.50mm (6.16mm^3/s)
; solid infill extrusion width = 0.51mm (2.51mm^3/s)
; top infill extrusion width = 0.51mm (1.88mm^3/s)
; support material extrusion width = 0.44mm (5.32mm^3/s)

M190 S70 ; set bed temperature and wait for it to be reached
; Ender 3 Custom Start G-code
G92 E0 ; Reset Extruder
G28 ; Home all axes
;G29 ; perform auto level
;M500; store mesh
M155 S30
M420 L0 S1 T1 V1 Z1 ; enable mesh
M155 S3
G1 Z2.0 F3000 ; Move Z Axis up little to prevent scratching of Heat Bed
G1 X0.1 Y20 Z0.3 F5000.0 ; Move to start position
M109 S216
G1 X0.1 Y200.0 Z0.3 F1500.0 E15 ; Draw the first line
G1 X0.4 Y200.0 Z0.3 F5000.0 ; Move to side a little
G1 X0.4 Y20 Z0.3 F1500.0 E30 ; Draw the second line
G92 E0 ; Reset Extruder
G1 Z2.0 F3000 ; Move Z Axis up little to prevent scratching of Heat Bed
G1 X5 Y20 Z0.3 F5000.0 ; Move over to prevent blob squish

; Filament gcode

G21 ; set units to millimeters
G90 ; use absolute coordinates
M82 ; use absolute distances for extrusion
G92 E0
G92 E0
M106 S204
G1 E-6.00000 F1500.00000
G92 E0
G1 Z0.280 F7800.000
G1 X49.138 Y53.306 F7800.000
G1 E6.00000 F1500.00000
G1 F2250
G1 X50.009 Y52.630 E6.06447
G1 X53.271 Y51.403 E6.26835
G1 X86.473 Y47.801 E8.22158
G1 X87.410 Y47.760 E8.27644
G1 X88.528 Y47.850 E8.34203
G1 X88.708 Y47.879 E8.35271
G1 X89.797 Y48.146 E8.41829
G1 X89.971 Y48.204 E8.42897
G1 X91.003 Y48.642 E8.49457
G1 X91.912 Y49.177 E8.55622
G1 X170.671 Y103.724 E14.15943
G1 X171.977 Y104.897 E14.26208
G1 X173.133 Y106.232 E14.36538
G1 X174.281 Y108.070 E14.49210
G1 X180.206 Y121.986 E15.37673
G1 X180.555 Y123.043 E15.44180
G1 X180.750 Y123.848 E15.49023
G1 X180.947 Y125.028 E15.56024
G1 X181.019 Y125.938 E15.61360
G1 X181.041 Y126.494 E15.64616
G1 X181.041 Y159.494 E17.57619
G1 X181.015 Y160.104 E17.61190
G1 X180.927 Y161.101 E17.67042
G1 X180.716 Y162.303 E17.74178
G1 X180.457 Y163.269 E17.80030
G1 X180.039 Y164.416 E17.87166
G1 X179.616 Y165.322 E17.93018
G1 X179.006 Y166.379 E18.00154
G1 X178.432 Y167.199 E18.06007
G1 X177.648 Y168.133 E18.13141
G1 X176.941 Y168.841 E18.18993
G1 X176.006 Y169.625 E18.26130
G1 X175.186 Y170.199 E18.31981
G1 X174.130 Y170.809 E18.39117
G1 X173.223 Y171.232 E18.44969
G1 X172.076 Y171.649 E18.52105
G1 X171.110 Y171.908 E18.57957
G1 X169.908 Y172.120 E18.65093
G1 X168.912 Y172.207 E18.70944
G1 X168.302 Y172.234 E18.74516
G1 X135.702 Y172.234 E20.65180
G1 X135.092 Y172.207 E20.68752
G1 X134.095 Y172.120 E20.74604
G1 X132.893 Y171.908 E20.81739
G1 X131.733 Y171.594 E20.88770
G1 X43.953 Y145.342 E26.24627
G1 X41.840 Y144.296 E26.38417
G1 X40.194 Y142.607 E26.52208
G1 X39.203 Y140.468 E26.65998
G1 X38.959 Y138.636 E26.76806
G1 X38.959 Y112.906 E28.27290
G1 X39.460 Y90.292 E29.59584
G1 X39.631 Y88.903 E29.67767
G1 X46.828 Y57.108 E31.58428
G1 X47.197 Y56.017 E31.65162
G1 X47.675 Y55.076 E31.71333
G1 X48.339 Y54.137 E31.78063
G1 X49.096 Y53.349 E31.84453
G1 X49.469 Y53.681 F7800.000
G1 F2250
G1 X50.295 Y53.039 E31.90574
G1 X53.325 Y51.900 E32.09506
G1 X86.527 Y48.298 E34.04828
G1 X87.410 Y48.260 E34.09999
G1 X88.448 Y48.343 E34.16089
G1 X88.629 Y48.373 E34.17158
G1 X89.813 Y48.678 E34.24313
G1 X90.772 Y49.085 E34.30404
G1 X91.627 Y49.588 E34.36205
G1 X170.386 Y104.135 E39.96525
G1 X171.599 Y105.224 E40.06057
G1 X172.755 Y106.559 E40.16387
G1 X173.821 Y108.266 E40.28155
G1 X179.746 Y122.180 E41.16603
G1 X180.069 Y123.161 E41.22645
G1 X180.265 Y123.966 E41.27487
G1 X180.448 Y125.068 E41.34024
G1 X180.521 Y125.978 E41.39360
G1 X180.541 Y126.494 E41.42383
G1 X180.541 Y159.494 E43.35387
G1 X180.517 Y160.061 E43.38703
G1 X180.429 Y161.057 E43.44555
G1 X180.233 Y162.173 E43.51181
G1 X179.974 Y163.140 E43.57033
G1 X179.586 Y164.204 E43.63660
G1 X179.163 Y165.111 E43.69512
G1 X178.597 Y166.092 E43.76138
G1 X178.023 Y166.912 E43.81991
G1 X177.295 Y167.780 E43.88615
G1 X176.587 Y168.487 E43.94467
G1 X175.719 Y169.216 E44.01094
G1 X174.900 Y169.789 E44.06946
G1 X173.919 Y170.356 E44.13572
G1 X173.012 Y170.779 E44.19424
G1 X171.947 Y171.166 E44.26050
G1 X170.981 Y171.425 E44.31902
G1 X169.865 Y171.622 E44.38528
G1 X168.868 Y171.709 E44.44380
G1 X168.302 Y171.734 E44.47696
G1 X135.702 Y171.734 E46.38361
G1 X135.135 Y171.709 E46.41677
G1 X134.138 Y171.622 E46.47530
G1 X133.023 Y171.425 E46.54155
G1 X131.876 Y171.115 E46.61102
G1 X44.096 Y144.863 E51.96958
G1 X42.067 Y143.842 E52.10244
G1 X40.513 Y142.185 E52.23529
G1 X39.624 Y140.094 E52.36814
G1 X39.459 Y138.636 E52.45400
G1 X39.459 Y112.906 E53.95884
G1 X39.960 Y90.303 E55.28113
G1 X40.119 Y89.013 E55.35711
G1 X47.313 Y57.229 E57.26309
G1 X47.649 Y56.231 E57.32466
G1 X48.102 Y55.336 E57.38333
G1 X48.722 Y54.458 E57.44622
G1 X49.427 Y53.724 E57.50571
G1 X49.800 Y54.056 F7800.000
G1 F2250
G1 X50.582 Y53.448 E57.56366
G1 X53.379 Y52.397 E57.73841
G1 X86.581 Y48.795 E59.69164
G1 X87.410 Y48.760 E59.74019
G1 X88.368 Y48.837 E59.79641
G1 X89.482 Y49.095 E59.86328
G1 X89.656 Y49.153 E59.87396
G1 X90.541 Y49.528 E59.93019
G1 X91.342 Y49.999 E59.98456
G1 X170.102 Y104.546 E65.58776
G1 X171.221 Y105.551 E65.67575
G1 X172.377 Y106.886 E65.77905
G1 X173.361 Y108.462 E65.88767
G1 X179.285 Y122.374 E66.77201
G1 X179.583 Y123.280 E66.82779
G1 X179.779 Y124.084 E66.87620
G1 X179.950 Y125.108 E66.93692
G1 X180.041 Y126.494 E67.01818
G1 X180.041 Y159.494 E68.94821
G1 X180.019 Y160.017 E68.97882
G1 X179.931 Y161.014 E69.03734
G1 X179.750 Y162.044 E69.09851
G1 X179.491 Y163.010 E69.15703
G1 X179.133 Y163.993 E69.21820
G1 X178.710 Y164.900 E69.27672
G1 X178.187 Y165.806 E69.33789
G1 X177.613 Y166.625 E69.39641
G1 X176.941 Y167.426 E69.45756
G1 X176.234 Y168.134 E69.51608
G1 X175.433 Y168.806 E69.57725
G1 X174.613 Y169.380 E69.63577
G1 X173.707 Y169.903 E69.69693
G1 X172.800 Y170.326 E69.75545
G1 X171.818 Y170.683 E69.81662
G1 X170.851 Y170.942 E69.87514
G1 X169.821 Y171.124 E69.93630
G1 X168.825 Y171.211 E69.99482
G1 X168.302 Y171.234 E70.02544
G1 X135.702 Y171.234 E71.93208
G1 X135.179 Y171.211 E71.96269
G1 X134.182 Y171.124 E72.02122
G1 X133.152 Y170.942 E72.08237
G1 X132.019 Y170.636 E72.15100
G1 X44.239 Y144.384 E77.50957
G1 X42.298 Y143.389 E77.63716
G1 X40.840 Y141.766 E77.76476
G1 X40.059 Y139.729 E77.89236
G1 X39.959 Y138.636 E77.95656
G1 X39.959 Y112.906 E79.46140
G1 X40.460 Y90.314 E80.78304
G1 X40.606 Y89.124 E80.85318
G1 X47.798 Y57.349 E82.75852
G1 X48.110 Y56.423 E82.81568
G1 X48.529 Y55.596 E82.86994
G1 X49.106 Y54.778 E82.92843
G1 X49.758 Y54.099 E82.98351
G1 X50.130 Y54.431 F7800.000
G1 F2250
G1 X50.869 Y53.858 E83.03820
G1 X53.433 Y52.894 E83.19839
G1 X86.635 Y49.292 E85.15162
G1 X87.410 Y49.260 E85.19701
G1 X88.289 Y49.330 E85.24855
G1 X88.469 Y49.360 E85.25923
G1 X89.498 Y49.627 E85.32141
G1 X90.309 Y49.971 E85.37296
G1 X91.058 Y50.410 E85.42368
G1 X169.817 Y104.957 E91.02689
G1 X170.843 Y105.879 E91.10755
G1 X171.999 Y107.214 E91.21084
G1 X172.901 Y108.658 E91.31042
G1 X178.824 Y122.567 E92.19461
G1 X179.097 Y123.398 E92.24574
G1 X179.293 Y124.202 E92.29416
G1 X179.452 Y125.148 E92.35023
G1 X179.541 Y126.494 E92.42916
G1 X179.541 Y159.494 E94.35919
G1 X179.521 Y159.973 E94.38725
G1 X179.433 Y160.970 E94.44577
G1 X179.267 Y161.914 E94.50184
G1 X179.008 Y162.881 E94.56036
G1 X178.680 Y163.782 E94.61643
G1 X178.257 Y164.689 E94.67495
G1 X177.778 Y165.519 E94.73102
G1 X177.204 Y166.339 E94.78955
G1 X176.588 Y167.073 E94.84560
G1 X175.880 Y167.780 E94.90412
G1 X175.146 Y168.397 E94.96020
G1 X174.326 Y168.970 E95.01871
G1 X173.496 Y169.450 E95.07478
G1 X172.589 Y169.873 E95.13330
G1 X171.688 Y170.201 E95.18937
G1 X170.722 Y170.460 E95.24789
G1 X169.778 Y170.626 E95.30396
G1 X168.781 Y170.713 E95.36248
G1 X168.302 Y170.734 E95.39054
G1 X135.702 Y170.734 E97.29718
G1 X135.222 Y170.713 E97.32524
G1 X134.225 Y170.626 E97.38377
G1 X133.281 Y170.459 E97.43983
G1 X132.163 Y170.157 E97.50761
G1 X44.383 Y143.905 E102.86618
G1 X42.532 Y142.938 E102.98830
G1 X41.175 Y141.351 E103.11042
G1 X40.458 Y138.636 E103.27465
G1 X40.458 Y112.906 E104.77949
G1 X40.960 Y90.325 E106.10048
G1 X41.094 Y89.234 E106.16477
G1 X48.283 Y57.470 E108.06948
G1 X48.572 Y56.616 E108.12223
G1 X48.957 Y55.855 E108.17208
G1 X49.489 Y55.099 E108.22617
G1 X50.088 Y54.474 E108.27683
G1 F6240
G1 X50.203 Y54.367 E108.24112
G1 F6240
G1 X50.685 Y53.987 E108.10104
G1 F6240
G1 X50.869 Y53.858 E108.04950
G1 F6240
G1 X53.433 Y52.894 E107.42400
G1 F6240
G1 X74.535 Y50.605 E102.57683
G1 E102.27683 F1500.00000
G92 E0
G1 X89.098 Y58.554 F7800.000
G1 E6.00000 F1500.00000
G1 F1800
G1 X88.416 Y58.673 E6.04051
G1 X87.616 Y58.894 E6.08905
G1 X87.466 Y58.970 E6.09890
G1 X87.024 Y59.124 E6.12623
G1 X86.478 Y59.375 E6.16141
G1 X85.885 Y59.730 E6.20182
G1 X85.357 Y60.128 E6.24048
G1 X84.891 Y60.568 E6.27794
G1 X84.493 Y61.046 E6.31434
G1 X84.165 Y61.556 E6.34982
G1 X83.912 Y62.094 E6.38457
G1 X83.743 Y62.634 E6.41769
G1 X83.680 Y62.962 E6.43723
G1 X83.644 Y63.240 E6.45359
G1 X83.630 Y63.789 E6.48575
G1 X83.695 Y64.350 E6.51876
G1 X83.844 Y64.923 E6.55338
G1 X84.063 Y65.456 E6.58707
G1 X84.259 Y65.795 E6.60997
G1 X84.259 Y94.546 E8.29147
G1 X84.224 Y94.941 E8.31468
G1 X84.136 Y95.270 E8.33462
G1 X83.992 Y95.579 E8.35455
G1 X83.796 Y95.858 E8.37448
G1 X83.555 Y96.099 E8.39442
G1 X83.276 Y96.295 E8.41435
G1 X82.967 Y96.439 E8.43428
G1 X82.638 Y96.527 E8.45422
G1 X82.243 Y96.562 E8.47743
G1 X49.754 Y96.562 E10.37754
G1 X49.359 Y96.527 E10.40075
G1 X49.030 Y96.439 E10.42068
G1 X48.721 Y96.295 E10.44062
G1 X48.442 Y96.099 E10.46055
G1 X48.201 Y95.858 E10.48049
G1 X48.005 Y95.579 E10.50042
G1 X47.861 Y95.270 E10.52035
G1 X47.773 Y94.941 E10.54029
G1 X47.738 Y94.546 E10.56350
G1 X47.738 Y90.635 E10.79221
G1 X51.792 Y77.104 E11.61833
G1 X54.767 Y59.641 E12.65438
G1 X80.913 Y59.644 E14.18354
G1 X81.330 Y59.615 E14.20799
G1 X81.838 Y59.502 E14.23840
G1 X82.333 Y59.312 E14.26943
G1 X82.664 Y59.131 E14.29149
G1 X82.925 Y59.137 E14.30673
G1 X83.757 Y59.022 E14.35590
G1 X84.566 Y58.770 E14.40545
G1 X85.321 Y58.389 E14.45489
G1 X86.003 Y57.890 E14.50432
G1 X86.595 Y57.287 E14.55374
G1 X87.049 Y56.637 E14.60008
G1 X87.349 Y56.122 E14.63494
G1 X87.761 Y56.523 E14.66856
G1 X88.349 Y57.242 E14.72286
G1 X88.844 Y58.027 E14.77712
G1 X89.072 Y58.500 E14.80785
G1 X89.644 Y58.782 F7800.000
G1 F1800
G1 X89.554 Y58.922 E14.81759
G1 X89.404 Y59.008 E14.82768
G1 X88.526 Y59.162 E14.87984
G1 X87.797 Y59.363 E14.92404
G1 X87.662 Y59.431 E14.93291
G1 X87.211 Y59.589 E14.96082
G1 X86.711 Y59.818 E14.99302
G1 X86.165 Y60.145 E15.03026
G1 X85.680 Y60.510 E15.06575
G1 X85.256 Y60.911 E15.09985
G1 X84.896 Y61.342 E15.13269
G1 X84.604 Y61.798 E15.16441
G1 X84.379 Y62.276 E15.19525
G1 X84.229 Y62.757 E15.22473
G1 X84.174 Y63.043 E15.24175
G1 X84.143 Y63.279 E15.25569
G1 X84.131 Y63.767 E15.28424
G1 X84.188 Y64.261 E15.31333
G1 X84.318 Y64.761 E15.34356
G1 X84.513 Y65.235 E15.37353
G1 X84.758 Y65.661 E15.40231
G1 X84.759 Y94.567 E17.09290
G1 X84.718 Y95.028 E17.11995
G1 X84.607 Y95.442 E17.14500
G1 X84.426 Y95.830 E17.17005
G1 X84.181 Y96.181 E17.19510
G1 X83.878 Y96.484 E17.22015
G1 X83.527 Y96.729 E17.24520
G1 X83.139 Y96.910 E17.27025
G1 X82.725 Y97.021 E17.29530
G1 X82.264 Y97.062 E17.32235
G1 X49.732 Y97.062 E19.22500
G1 X49.272 Y97.021 E19.25205
G1 X48.858 Y96.910 E19.27710
G1 X48.470 Y96.729 E19.30215
G1 X48.119 Y96.484 E19.32720
G1 X47.816 Y96.181 E19.35225
G1 X47.570 Y95.830 E19.37730
G1 X47.389 Y95.442 E19.40235
G1 X47.279 Y95.028 E19.42740
G1 X47.238 Y94.567 E19.45445
G1 X47.238 Y90.562 E19.68872
G1 X51.305 Y76.990 E20.51733
G1 X54.345 Y59.141 E21.57628
G1 X80.896 Y59.144 E23.12910
G1 X81.258 Y59.119 E23.15035
G1 X81.693 Y59.022 E23.17641
G1 X82.123 Y58.857 E23.20332
G1 X82.542 Y58.628 E23.23126
G1 X82.896 Y58.637 E23.25195
G1 X83.648 Y58.532 E23.29636
G1 X84.378 Y58.305 E23.34109
G1 X85.059 Y57.961 E23.38570
G1 X85.675 Y57.511 E23.43031
G1 X86.209 Y56.966 E23.47492
G1 X86.627 Y56.368 E23.51764
G1 X87.043 Y55.669 E23.56520
G1 X87.180 Y55.567 E23.57516
G1 X87.291 Y55.540 E23.58184
G1 X87.468 Y55.571 E23.59235
G1 X87.565 Y55.635 E23.59914
G1 X88.130 Y56.185 E23.64526
G1 X88.756 Y56.949 E23.70302
G1 X89.282 Y57.784 E23.76075
G1 X89.628 Y58.501 E23.80731
G1 X89.659 Y58.613 E23.81411
G1 X89.658 Y58.724 E23.82059
G1 F6240
G1 X89.621 Y58.835 E23.79390
G1 F6240
G1 X89.589 Y58.884 E23.78053
G1 F6240
G1 X89.554 Y58.922 E23.76865
G1 F6240
G1 X89.489 Y58.972 E23.74991
G1 F6240
G1 X89.454 Y58.990 E23.74099
G1 F6240
G1 X89.404 Y59.008 E23.72889
G1 F6240
G1 X88.526 Y59.162 E23.52521
G1 F6240
G1 X87.797 Y59.363 E23.35263
G1 F6240
G1 X87.662 Y59.431 E23.31802
G1 F6240
G1 X87.211 Y59.589 E23.20902
G1 F6240
G1 X86.711 Y59.818 E23.08331
G1 F6240
G1 X86.165 Y60.145 E22.93788
G1 F6240
G1 X85.680 Y60.510 E22.79930
G1 F6240
G1 X85.256 Y60.911 E22.66616
G1 F6240
G1 X84.896 Y61.342 E22.53794
G1 F6240
G1 X84.604 Y61.798 E22.41407
G1 F6240
G1 X84.379 Y62.276 E22.29367
G1 F6240
G1 X84.229 Y62.757 E22.17854
G1 F6240
G1 X84.174 Y63.043 E22.11209
G1 F6240
G1 X84.143 Y63.279 E22.05767
G1 F6240
G1 X84.131 Y63.767 E21.94620
G1 F6240
G1 X84.188 Y64.261 E21.83262
G1 F6240
G1 X84.258 Y64.541 E21.76660
G1 F6240
G1 X84.318 Y64.761 E21.71458
G1 F6240
G1 X84.513 Y65.235 E21.59754
G1 F6240
G1 X84.758 Y65.661 E21.48517
G1 F6240
G1 X84.758 Y80.395 E18.12059
G1 E17.82059 F1500.00000
G92 E0
G1 X53.972 Y58.753 F7800.000
G1 E6.00000 F1500.00000
G1 F900
G1 X54.120 Y58.641 E6.01083
G1 X80.878 Y58.644 E7.57585
G1 X81.186 Y58.623 E7.59391
G1 X81.549 Y58.542 E7.61561
G1 X81.913 Y58.402 E7.63840
G1 X82.391 Y58.125 E7.67078
G1 X82.867 Y58.136 E7.69860
G1 X83.539 Y58.043 E7.73824
G1 X84.190 Y57.840 E7.77815
G1 X84.797 Y57.534 E7.81794
G1 X85.347 Y57.132 E7.85773
G1 X85.823 Y56.646 E7.89752
G1 X86.206 Y56.098 E7.93663
G1 X86.571 Y55.472 E7.97898
G1 X86.752 Y55.251 E7.99569
G1 X86.984 Y55.105 E8.01174
G1 X87.250 Y55.040 E8.02779
G1 X87.494 Y55.057 E8.04208
G1 X87.658 Y55.107 E8.05207
G1 X87.890 Y55.254 E8.06816
G1 X88.499 Y55.846 E8.11784
G1 X89.162 Y56.656 E8.17906
G1 X89.720 Y57.541 E8.24026
G1 X90.097 Y58.323 E8.29102
G1 X90.154 Y58.526 E8.30332
G1 X90.165 Y58.673 E8.31198
G1 X90.151 Y58.822 E8.32071
G1 X90.062 Y59.074 E8.33633
G1 X89.985 Y59.191 E8.34449
G1 X89.893 Y59.292 E8.35249
G1 X89.760 Y59.394 E8.36234
G1 X89.531 Y59.493 E8.37692
G1 X88.635 Y59.650 E8.43009
G1 X87.978 Y59.831 E8.46995
G1 X87.858 Y59.892 E8.47782
G1 X87.398 Y60.053 E8.50633
G1 X86.944 Y60.261 E8.53554
G1 X86.444 Y60.561 E8.56962
G1 X86.003 Y60.893 E8.60194
G1 X85.621 Y61.254 E8.63268
G1 X85.300 Y61.638 E8.66195
G1 X85.042 Y62.041 E8.68992
G1 X84.846 Y62.457 E8.71685
G1 X84.714 Y62.879 E8.74269
G1 X84.642 Y63.318 E8.76869
G1 X84.631 Y63.744 E8.79363
G1 X84.681 Y64.171 E8.81879
G1 X84.792 Y64.599 E8.84464
G1 X84.963 Y65.014 E8.87089
G1 X85.162 Y65.360 E8.89425
G1 X85.258 Y65.488 E8.90361
G1 X85.258 Y94.589 E10.60562
G1 X85.212 Y95.115 E10.63650
G1 X85.079 Y95.613 E10.66667
G1 X84.861 Y96.081 E10.69683
G1 X84.565 Y96.503 E10.72700
G1 X84.200 Y96.868 E10.75716
G1 X83.778 Y97.164 E10.78733
G1 X83.310 Y97.382 E10.81749
G1 X82.812 Y97.515 E10.84766
G1 X82.286 Y97.561 E10.87854
G1 X49.711 Y97.561 E12.78375
G1 X49.185 Y97.515 E12.81464
G1 X48.686 Y97.382 E12.84480
G1 X48.219 Y97.164 E12.87497
G1 X47.796 Y96.868 E12.90513
G1 X47.432 Y96.503 E12.93530
G1 X47.136 Y96.081 E12.96546
G1 X46.918 Y95.613 E12.99563
G1 X46.784 Y95.115 E13.02580
G1 X46.738 Y94.589 E13.05668
G1 X46.738 Y90.488 E13.29652
G1 X50.817 Y76.876 E14.12762
G1 X53.869 Y58.962 E15.19044
G1 X53.937 Y58.802 E15.20062
G1 X54.151 Y58.798 F7800.000
G1 X55.190 Y60.141 F7800.000
G1 F900
G1 X55.904 Y60.141 E15.24289
G1 X55.042 Y61.003 E15.31497
G1 X54.896 Y61.865 E15.36665
G1 X56.619 Y60.141 E15.51078
G1 X57.334 Y60.141 E15.55304
G1 X54.749 Y62.726 E15.76921
G1 X54.602 Y63.588 E15.82090
G1 X58.049 Y60.141 E16.10911
G1 X58.763 Y60.142 E16.15137
G1 X54.455 Y64.450 E16.51163
G1 X54.308 Y65.311 E16.56331
G1 X59.478 Y60.142 E16.99562
G1 X60.193 Y60.142 E17.03788
G1 X54.162 Y66.173 E17.54223
G1 X54.015 Y67.034 E17.59391
