; generated by Slic3r 1.3.1-dev on 2020-07-28 at 16:54:45

; external perimeters extrusion width = 0.44mm (2.13mm^3/s)
; perimeters extrusion width = 0.51mm (5.03mm^3/s)
; infill extrusion width = 0.50mm (6.16mm^3/s)
; solid infill extrusion width = 0.51mm (2.51mm^3/s)
; top infill extrusion width = 0.51mm (1.88mm^3/s)
; support material extrusion width = 0.44mm (5.32mm^3/s)

M190 S70 ; set bed temperature and wait for it to be reached
; Ender 3 Custom Start G-code
G92 E0 ; Reset Extruder
G28 ; Home all axes
;G29 ; perform auto level
;M500; store mesh
M155 S30
M420 L0 S1 T1 V1 Z1 ; enable mesh
M155 S3
G1 Z2.0 F3000 ; Move Z Axis up little to prevent scratching of Heat Bed
G1 X0.1 Y20 Z0.3 F5000.0 ; Move to start position
M109 S216
G1 X0.1 Y200.0 Z0.3 F1500.0 E15 ; Draw the first line
G1 X0.4 Y200.0 Z0.3 F5000.0 ; Move to side a little
G1 X0.4 Y20 Z0.3 F1500.0 E30 ; Draw the second line
G92 E0 ; Reset Extruder
G1 Z2.0 F3000 ; Move Z Axis up little to prevent scratching of Heat Bed
G1 X5 Y20 Z0.3 F5000.0 ; Move over to prevent blob squish

; Filament gcode

G21 ; set units to millimeters
G90 ; use absolute coordinates
M82 ; use absolute distances for extrusion
G92 E0
G92 E0
M106 S204
G1 E-6.00000 F1500.00000
G92 E0
G1 Z0.280 F7800.000
G1 X42.828 Y100.768 F7800.000
G1 E6.00000 F1500.00000
G1 F2250
G1 X46.069 Y99.558 E6.20131
G1 X159.430 Y85.380 E12.84974
G1 X171.835 Y84.539 E13.57330
G1 X174.265 Y84.775 E13.71537
G1 X176.490 Y85.779 E13.85744
G1 X178.275 Y87.445 E13.99950
G1 X179.430 Y89.595 E14.14157
G1 X179.817 Y91.523 E14.25597
G1 X180.483 Y101.501 E14.83794
G1 X180.500 Y102.000 E14.86700
G1 X180.500 Y118.000 E15.79812
G1 X180.483 Y118.499 E15.82716
G1 X179.817 Y128.477 E16.40915
G1 X179.260 Y130.854 E16.55121
G1 X177.970 Y132.926 E16.69328
G1 X176.082 Y134.474 E16.83535
G1 X173.797 Y135.333 E16.97742
G1 X171.835 Y135.461 E17.09182
G1 X159.430 Y134.620 E17.81538
G1 X46.069 Y120.442 E24.46381
G1 X43.728 Y119.748 E24.60588
G1 X41.734 Y118.340 E24.74795
G1 X40.298 Y116.366 E24.89001
G1 X39.500 Y113.000 E25.09132
G1 X39.500 Y107.000 E25.44049
G1 X39.898 Y104.591 E25.58256
G1 X41.048 Y102.438 E25.72463
G1 X42.785 Y100.809 E25.86320
G1 X43.309 Y101.052 F7800.000
G1 F2250
G1 X46.131 Y100.054 E26.03739
G1 X159.492 Y85.876 E32.68582
G1 X171.868 Y85.038 E33.40770
G1 X174.214 Y85.280 E33.54492
G1 X176.346 Y86.286 E33.68214
G1 X178.023 Y87.944 E33.81936
G1 X179.054 Y90.064 E33.95657
G1 X179.318 Y91.556 E34.04474
G1 X179.984 Y101.534 E34.62671
G1 X180.000 Y102.000 E34.65383
G1 X180.000 Y118.000 E35.58495
G1 X179.984 Y118.466 E35.61206
G1 X179.318 Y128.444 E36.19404
G1 X178.767 Y130.737 E36.33126
G1 X177.486 Y132.716 E36.46848
G1 X175.621 Y134.158 E36.60569
G1 X173.382 Y134.899 E36.74291
G1 X171.868 Y134.962 E36.83109
G1 X159.492 Y134.124 E37.55296
G1 X46.131 Y119.946 E44.20139
G1 X43.874 Y119.263 E44.33861
G1 X41.972 Y117.870 E44.47583
G1 X40.640 Y115.924 E44.61305
G1 X40.000 Y113.000 E44.78723
G1 X40.000 Y107.000 E45.13640
G1 X40.397 Y104.676 E45.27362
G1 X41.544 Y102.615 E45.41084
G1 X43.264 Y101.092 E45.54457
G1 X43.788 Y101.350 F7800.000
G1 F2250
G1 X46.193 Y100.551 E45.69209
G1 X159.554 Y86.372 E52.34052
G1 X171.902 Y85.537 E53.06072
G1 X174.160 Y85.784 E53.19291
G1 X176.195 Y86.793 E53.32510
G1 X177.758 Y88.441 E53.45729
G1 X178.820 Y91.589 E53.65064
G1 X179.485 Y101.567 E54.23261
G1 X179.500 Y102.000 E54.25780
G1 X179.500 Y118.000 E55.18892
G1 X179.485 Y118.432 E55.21409
G1 X178.820 Y128.411 E55.79607
G1 X178.275 Y130.616 E55.92826
G1 X177.004 Y132.499 E56.06045
G1 X175.163 Y133.830 E56.19264
G1 X171.902 Y134.463 E56.38600
G1 X159.928 Y133.664 E57.08434
G1 X46.193 Y119.449 E63.75463
G1 X44.023 Y118.778 E63.88682
G1 X42.217 Y117.401 E64.01901
G1 X40.995 Y115.486 E64.15120
G1 X40.500 Y113.000 E64.29872
G1 X40.500 Y107.000 E64.64789
G1 X40.897 Y104.763 E64.78008
G1 X42.039 Y102.800 E64.91227
G1 X43.741 Y101.388 E65.04097
G1 X44.262 Y101.661 F7800.000
G1 F2250
G1 X46.255 Y101.047 E65.16234
G1 X159.616 Y86.868 E71.81077
G1 X171.935 Y86.036 E72.52928
G1 X174.102 Y86.289 E72.65625
G1 X176.035 Y87.300 E72.78321
G1 X177.479 Y88.935 E72.91018
G1 X178.321 Y91.623 E73.07406
G1 X178.987 Y101.601 E73.65602
G1 X179.000 Y102.000 E73.67927
G1 X179.000 Y118.000 E74.61039
G1 X178.987 Y118.399 E74.63363
G1 X178.321 Y128.377 E75.21560
G1 X177.782 Y130.492 E75.34257
G1 X176.523 Y132.273 E75.46953
G1 X174.710 Y133.487 E75.59650
G1 X171.935 Y133.964 E75.76038
G1 X159.961 Y133.165 E76.45873
G1 X46.255 Y118.953 E83.12733
G1 X44.176 Y118.294 E83.25429
G1 X42.470 Y116.934 E83.38126
G1 X41.363 Y115.054 E83.50822
G1 X41.000 Y113.000 E83.62959
G1 X41.000 Y107.000 E83.97876
G1 X41.397 Y104.855 E84.10572
G1 X42.534 Y102.993 E84.23269
G1 X44.215 Y101.698 E84.35616
G1 X44.733 Y101.989 F7800.000
G1 F2250
G1 X46.317 Y101.543 E84.45197
G1 X159.678 Y87.364 E91.10040
G1 X171.968 Y86.534 E91.81723
G1 X174.040 Y86.793 E91.93875
G1 X175.866 Y87.806 E92.06026
G1 X177.183 Y89.426 E92.18177
G1 X177.822 Y91.656 E92.31674
G1 X178.500 Y102.000 E92.92000
G1 X178.500 Y118.000 E93.85112
G1 X177.822 Y128.344 E94.45438
G1 X177.290 Y130.363 E94.57590
G1 X176.044 Y132.039 E94.69741
G1 X174.263 Y133.129 E94.81892
G1 X171.968 Y133.466 E94.95389
G1 X159.995 Y132.667 E95.65224
G1 X46.317 Y118.457 E102.31916
G1 X44.332 Y117.810 E102.44067
G1 X42.732 Y116.469 E102.56218
G1 X41.746 Y114.628 E102.68370
G1 X41.500 Y113.000 E102.77950
G1 X41.500 Y107.000 E103.12867
G1 X41.896 Y104.950 E103.25019
G1 X43.028 Y103.195 E103.37170
G1 X44.684 Y102.024 E103.48972
G1 F6240
G1 X46.317 Y101.543 E103.10083
G1 F6240
G1 X69.395 Y98.656 E97.78972
G1 E97.48972 F1500.00000
G92 E0
G1 X168.289 Y124.791 F7800.000
G1 E6.00000 F1500.00000
G1 F675
G1 X168.708 Y118.645 E6.35848
G1 X172.060 Y118.874 E6.55402
G1 X171.641 Y125.020 E6.91250
G1 X168.348 Y124.795 E7.10454
G1 X167.905 Y124.905 F7800.000
G1 F6240
G1 X168.684 Y118.986 E5.77569
G1 F6240
G1 X168.708 Y118.645 E5.69774
G1 F6240
G1 X172.060 Y118.874 E4.93043
G1 F6240
G1 X171.641 Y125.020 E3.52370
G1 F6240
G1 X168.348 Y124.795 E2.77010
G1 E1.10454 F1500.00000
G92 E0
G1 X167.521 Y125.460 F7800.000
G1 X166.331 Y125.379 F7800.000
G1 X164.636 Y123.439 F7800.000
G1 X164.768 Y121.472 F7800.000
G1 X162.896 Y119.330 F7800.000
G1 X161.925 Y118.760 F7800.000
G1 X52.662 Y111.443 F7800.000
G1 X52.700 Y110.888 F7800.000
G1 X53.700 Y109.953 F7800.000
G1 X52.701 Y109.018 F7800.000
G1 X52.667 Y108.509 F7800.000
G1 X161.925 Y101.235 F7800.000
G1 X162.888 Y100.670 F7800.000
G1 X164.533 Y98.791 F7800.000
G1 X167.481 Y101.366 F7800.000
G1 X168.158 Y100.713 F7800.000
G1 E6.00000 F1500.00000
G1 F675
G1 X167.739 Y94.567 E6.35848
G1 X171.091 Y94.339 E6.55401
G1 X171.510 Y100.485 E6.91250
G1 X168.218 Y100.709 E7.10454
G1 X167.793 Y100.878 F7800.000
G1 F6240
G1 X167.739 Y94.567 E5.69774
G1 F6240
G1 X171.091 Y94.339 E4.93044
G1 F6240
G1 X171.510 Y100.485 E3.52371
G1 F6240
G1 X168.218 Y100.709 E2.77010
G1 E1.10454 F1500.00000
G92 E0
G1 X162.189 Y100.997 F7800.000
G1 E6.00000 F1500.00000
G1 F1800
G1 X161.723 Y94.013 E6.40736
G1 X166.676 Y93.682 E6.69626
G1 X167.182 Y101.105 E7.12923
G1 X52.420 Y108.756 E13.82261
G1 X52.420 Y111.244 E13.96741
G1 X167.686 Y118.928 E20.69017
G1 X167.223 Y125.721 E21.08636
G1 X171.184 Y125.991 E21.31741
G1 X171.142 Y126.616 E21.35386
G1 X161.723 Y125.987 E21.90325
G1 X162.189 Y119.003 E22.31061
G1 X53.043 Y111.720 E28.67650
G1 X48.280 Y111.720 E28.95367
G1 X48.280 Y108.280 E29.15389
G1 X53.043 Y108.280 E29.43106
G1 X162.129 Y101.001 E35.79346
G1 X161.657 Y100.532 F7800.000
G1 F1800
G1 X161.191 Y93.547 E36.20082
G1 X171.608 Y92.852 E36.80839
G1 X171.671 Y93.798 E36.86356
G1 X167.206 Y94.103 E37.12400
G1 X167.693 Y101.246 E37.54067
G1 X172.148 Y100.942 E37.80052
G1 X172.170 Y101.274 E37.81986
G1 X52.920 Y109.224 E44.77498
G1 X52.920 Y110.776 E44.86534
G1 X168.219 Y118.463 E51.59003
G1 X167.756 Y125.256 E51.98626
G1 X171.716 Y125.526 E52.21726
G1 X171.608 Y127.148 E52.31186
G1 X161.191 Y126.453 E52.91943
G1 X161.657 Y119.468 E53.32679
G1 X53.026 Y112.220 E59.66263
G1 X47.780 Y112.220 E59.96792
G1 X47.780 Y107.780 E60.22632
G1 X53.026 Y107.780 E60.53161
G1 X161.597 Y100.536 E66.86395
G1 X161.125 Y100.066 F7800.000
G1 F900
G1 X160.659 Y93.082 E67.27132
G1 X172.074 Y92.320 E67.93706
G1 X172.702 Y101.739 E68.48642
G1 X53.420 Y109.691 E75.44342
G1 X53.420 Y110.309 E75.47935
G1 X172.702 Y118.261 E82.43635
G1 X172.074 Y127.680 E82.98571
G1 X160.659 Y126.918 E83.65146
G1 X161.125 Y119.934 E84.05882
G1 X53.009 Y112.720 E90.36459
G1 X47.280 Y112.720 E90.69801
G1 X47.280 Y107.280 E91.01459
G1 X53.009 Y107.280 E91.34801
G1 X161.065 Y100.070 E97.65028
G1 X161.524 Y100.040 F7800.000
G1 F6240
G1 X160.659 Y93.082 E96.05167
G1 F6240
G1 X172.074 Y92.320 E93.43917
G1 F6240
G1 X172.508 Y98.825 E91.95028
G1 E91.65028 F1500.00000
G92 E0
G1 X166.101 Y101.188 F7800.000
G1 E6.00000 F1500.00000
G1 F900
G1 X167.197 Y100.092 E6.09619
G1 X167.149 Y99.386 E6.14010
G1 X165.294 Y101.241 E6.30297
G1 X164.486 Y101.295 E6.35321
G1 X167.101 Y98.680 E6.58276
G1 X167.053 Y97.974 E6.62667
G1 X163.678 Y101.349 E6.92289
G1 X162.870 Y101.403 E6.97314
G1 X167.005 Y97.268 E7.33604
G1 X166.957 Y96.562 E7.37995
G1 X162.132 Y101.388 E7.80345
G1 X162.084 Y100.681 E7.84741
G1 X166.909 Y95.857 E8.27083
G1 X166.861 Y95.151 E8.31474
G1 X162.037 Y99.974 E8.73807
G1 X161.990 Y99.267 E8.78203
G1 X166.812 Y94.445 E9.20528
G1 X166.764 Y93.739 E9.24919
G1 X161.943 Y98.560 E9.67235
G1 X161.896 Y97.854 E9.71631
G1 X166.035 Y93.715 E10.07957
G1 X165.227 Y93.769 E10.12982
G1 X161.849 Y97.147 E10.42631
G1 X161.802 Y96.440 E10.47027
G1 X164.419 Y93.823 E10.70000
G1 X163.611 Y93.877 E10.75024
G1 X161.754 Y95.733 E10.91320
G1 X161.707 Y95.026 E10.95717
G1 X162.803 Y93.930 E11.05336
G1 F6240
G1 X161.707 Y95.026 E10.69941
G1 F6240
G1 X161.754 Y95.733 E10.53764
G1 F6240
G1 X163.611 Y93.877 E9.93801
G1 F6240
G1 X164.419 Y93.823 E9.75311
G1 F6240
G1 X161.802 Y96.440 E8.90781
G1 F6240
G1 X161.849 Y97.147 E8.74604
G1 F6240
G1 X165.227 Y93.769 E7.65506
G1 F6240
G1 X166.035 Y93.715 E7.47016
G1 F6240
G1 X161.896 Y97.854 E6.13351
G1 F6240
G1 X161.943 Y98.560 E5.97174
G1 F6240
G1 X163.858 Y96.646 E5.35336
G1 E5.05336 F1500.00000
G92 E0
G1 X166.924 Y93.643 F7800.000
G1 E6.00000 F1500.00000
G1 F900
G1 X171.390 Y93.342 E6.20555
G1 X171.630 Y94.051 F7800.000
G1 F900
G1 X172.078 Y100.696 E6.63559
G1 F6240
G1 X171.630 Y94.051 E5.11470
G1 E0.63559 F1500.00000
G92 E0
G1 X171.741 Y98.059 F7800.000
G1 X166.971 Y93.898 F7800.000
G1 X166.501 Y93.930 F7800.000
G1 X164.369 Y96.353 F7800.000
G1 X164.533 Y98.791 F7800.000
G1 X162.888 Y100.670 F7800.000
G1 X161.925 Y101.235 F7800.000
G1 X52.667 Y108.509 F7800.000
G1 X52.701 Y109.018 F7800.000
G1 X53.700 Y109.953 F7800.000
G1 X52.700 Y110.888 F7800.000
G1 X52.662 Y111.443 F7800.000
G1 X161.925 Y118.760 F7800.000
G1 X162.896 Y119.330 F7800.000
G1 X164.768 Y121.472 F7800.000
G1 X168.480 Y118.305 F7800.000
G1 E6.00000 F1500.00000
G1 F900
G1 X172.352 Y118.567 E6.02218
G1 X172.376 Y118.645 E6.02264
G1 X171.928 Y125.290 E6.06071
G1 X170.914 Y126.286 F7800.000
G1 F900
G1 X166.952 Y126.019 E6.09421
G1 X165.918 Y126.350 F7800.000
G1 F900
G1 X167.014 Y125.255 E6.18979
G1 X167.039 Y124.873 E6.21339
G1 X167.289 Y124.889 E6.22883
G1 X167.338 Y124.182 E6.27259
G1 X165.215 Y126.304 E6.45766
G1 X164.513 Y126.257 E6.50106
G1 X167.392 Y123.378 E6.75216
G1 X167.447 Y122.574 E6.80185
G1 X163.811 Y126.210 E7.11897
G1 X163.109 Y126.163 E7.16238
G1 X167.502 Y121.770 E7.54553
G1 X167.557 Y120.966 E7.59523
G1 X162.406 Y126.116 E8.04441
G1 X161.707 Y126.066 E8.08761
G1 X167.612 Y120.162 E8.60251
G1 X167.666 Y119.358 E8.65220
G1 X161.761 Y125.263 E9.16721
G1 X161.815 Y124.460 E9.21682
G1 X167.446 Y118.829 E9.70794
G1 X166.744 Y118.782 E9.75135
G1 X161.868 Y123.658 E10.17654
G1 X161.922 Y122.855 E10.22616
G1 X166.041 Y118.735 E10.58543
G1 X165.339 Y118.688 E10.62884
G1 X161.975 Y122.052 E10.92219
G1 X162.029 Y121.249 E10.97180
G1 X164.637 Y118.642 E11.19922
G1 X163.934 Y118.595 E11.24263
G1 X162.082 Y120.447 E11.40414
G1 X162.136 Y119.644 E11.45375
G1 X163.232 Y118.548 E11.54933
G1 F6240
G1 X162.136 Y119.644 E11.19537
G1 F6240
G1 X162.082 Y120.447 E11.01165
G1 F6240
G1 X163.934 Y118.595 E10.41357
G1 F6240
G1 X164.637 Y118.642 E10.25283
G1 F6240
G1 X162.029 Y121.249 E9.41062
G1 F6240
G1 X161.975 Y122.052 E9.22690
G1 F6240
G1 X165.339 Y118.688 E8.14057
G1 F6240
G1 X166.041 Y118.735 E7.97983
G1 F6240
G1 X161.922 Y122.855 E6.64937
G1 F6240
G1 X161.868 Y123.658 E6.46565
G1 F6240
G1 X163.777 Y121.749 E5.84933
G1 E5.54933 F1500.00000
G92 E0
G1 X51.372 Y111.768 F7800.000
G1 E6.00000 F1500.00000
G1 F900
G1 X52.468 Y110.672 E6.10172
G1 X52.468 Y109.875 E6.15405
G1 X50.575 Y111.768 E6.32977
G1 X49.778 Y111.768 E6.38210
G1 X52.468 Y109.078 E6.63182
G1 X52.468 Y108.280 E6.68415
G1 X48.981 Y111.768 E7.00787
G1 X48.232 Y111.768 E7.05702
G1 X48.232 Y111.720 E7.06020
G1 X51.720 Y108.232 E7.38393
G1 X50.922 Y108.232 E7.43625
G1 X48.232 Y110.922 E7.68598
G1 X48.232 Y110.125 E7.73830
G1 X50.125 Y108.232 E7.91403
G1 X49.328 Y108.232 E7.96635
G1 X48.232 Y109.328 E8.06806
G1 F6240
G1 X49.328 Y108.232 E7.71416
G1 F6240
G1 X50.125 Y108.232 E7.53208
G1 F6240
G1 X48.232 Y110.125 E6.92064
G1 F6240
G1 X48.232 Y110.922 E6.73856
G1 F6240
G1 X50.922 Y108.232 E5.86962
G1 F6240
G1 X51.720 Y108.232 E5.68754
G1 F6240
G1 X48.232 Y111.720 E4.56111
G1 F6240
G1 X48.232 Y111.768 E4.55003
G1 F6240
G1 X48.981 Y111.768 E4.37903
G1 F6240
G1 X52.468 Y108.280 E3.25260
G1 F6240
G1 X52.468 Y109.078 E3.07052
G1 F6240
G1 X50.293 Y111.253 E2.36806
G1 E2.06806 F1500.00000
G92 E0
G1 Z0.280 F7800.000
G1 X83.575 Y109.966 F7800.000
G1 X156.779 Y109.997 F7800.000
G1 X158.566 Y113.214 F7800.000
G1 X160.375 Y113.327 F7800.000
G1 X162.071 Y115.258 F7800.000
G1 X163.692 Y114.239 F7800.000
G1 E6.00000 F1500.00000
G1 F1125
G1 X163.655 Y114.678 E6.01947
G1 X168.888 Y114.678 E6.25088
G1 X168.879 Y115.116 E6.27029
G1 X163.620 Y115.116 E6.50287
G1 X163.585 Y115.555 E6.52233
G1 X168.871 Y115.555 E6.75608
G1 X168.862 Y115.994 E6.77549
G1 X163.550 Y115.994 E7.01041
G1 X163.517 Y116.432 E7.02987
G1 X168.854 Y116.432 E7.26590
G1 X168.844 Y116.871 E7.28531
G1 F6240
G1 X168.854 Y116.432 E7.18510
G1 F6240
G1 X163.517 Y116.432 E5.96629
G1 F6240
G1 X163.550 Y115.994 E5.86581
G1 F6240
G1 X168.862 Y115.994 E4.65277
G1 F6240
G1 X168.871 Y115.555 E4.55257
G1 F6240
G1 X163.585 Y115.555 E3.34557
G1 F6240
G1 X163.620 Y115.116 E3.24506
G1 F6240
G1 X168.879 Y115.116 E2.04410
G1 F6240
G1 X168.888 Y114.678 E1.94390
G1 F6240
G1 X167.317 Y114.678 E1.58531
G1 E1.28531 F1500.00000
G92 E0
G1 Z0.500 F7800.000
G1 X172.209 Y115.943 F7800.000
G1 X170.386 Y115.823 F7800.000
G1 X169.651 Y114.642 F7800.000
G1 E6.00000 F1500.00000
G1 F1500
G1 X169.252 Y114.615 E6.01437
G1 X169.252 Y116.892 E6.09619
G1 X168.853 Y116.865 E6.11056
G1 X168.853 Y114.588 E6.19237
G1 X168.454 Y114.562 E6.20674
G1 X168.454 Y116.839 E6.28855
G1 X168.055 Y116.812 E6.30292
G1 X168.055 Y114.535 E6.38472
G1 X167.656 Y114.509 E6.39909
G1 X167.656 Y116.786 E6.48089
G1 X167.256 Y116.759 E6.49526
G1 X167.256 Y114.482 E6.57706
G1 X166.857 Y114.456 E6.59143
G1 X166.857 Y116.732 E6.67322
G1 X166.458 Y116.706 E6.68759
G1 X166.458 Y114.429 E6.76938
G1 X166.059 Y114.403 E6.78375
G1 X166.059 Y116.679 E6.86554
G1 X165.660 Y116.652 E6.87991
G1 X165.660 Y114.376 E6.96169
G1 X165.261 Y114.350 E6.97606
G1 X165.261 Y116.626 E7.05784
G1 X164.861 Y116.599 E7.07221
G1 X164.861 Y114.323 E7.15399
G1 X164.462 Y114.297 E7.16836
G1 X164.462 Y116.573 E7.25013
G1 X164.063 Y116.546 E7.26450
G1 X164.063 Y114.270 E7.34627
G1 X163.664 Y114.244 E7.36064
G1 X163.664 Y116.519 E7.44240
G1 X163.265 Y116.493 E7.45677
G1 X163.265 Y114.217 E7.53853
G1 X162.999 Y114.199 E7.54810
G1 X162.866 Y116.464 E7.62962
G1 F6240
G1 X162.999 Y114.199 E7.11145
G1 F6240
G1 X163.265 Y114.217 E7.05066
G1 F6240
G1 X163.265 Y116.493 E6.53096
G1 F6240
G1 X163.664 Y116.519 E6.43960
G1 F6240
G1 X163.664 Y114.244 E5.91987
G1 F6240
G1 X164.063 Y114.270 E5.82852
G1 F6240
G1 X164.063 Y116.546 E5.30877
G1 F6240
G1 X164.462 Y116.573 E5.21742
G1 F6240
G1 X164.462 Y114.297 E4.69764
G1 F6240
