; generated by Slic3r 1.3.1-dev on 2020-07-29 at 08:53:14

; external perimeters extrusion width = 0.44mm (2.13mm^3/s)
; perimeters extrusion width = 0.51mm (5.03mm^3/s)
; infill extrusion width = 0.50mm (6.16mm^3/s)
; solid infill extrusion width = 0.51mm (2.51mm^3/s)
; top infill extrusion width = 0.51mm (1.88mm^3/s)
; support material extrusion width = 0.44mm (5.32mm^3/s)

M190 S70 ; set bed temperature and wait for it to be reached
; Ender 3 Custom Start G-code
G92 E0 ; Reset Extruder
G28 ; Home all axes
;G29 ; perform auto level
;M500; store mesh
M155 S30
M420 L0 S1 T1 V1 Z1 ; enable mesh
M155 S3
G1 Z2.0 F3000 ; Move Z Axis up little to prevent scratching of Heat Bed
G1 X0.1 Y20 Z0.3 F5000.0 ; Move to start position
M109 S216
G1 X0.1 Y200.0 Z0.3 F1500.0 E15 ; Draw the first line
G1 X0.4 Y200.0 Z0.3 F5000.0 ; Move to side a little
G1 X0.4 Y20 Z0.3 F1500.0 E30 ; Draw the second line
G92 E0 ; Reset Extruder
G1 Z2.0 F3000 ; Move Z Axis up little to prevent scratching of Heat Bed
G1 X5 Y20 Z0.3 F5000.0 ; Move over to prevent blob squish

; Filament gcode

G21 ; set units to millimeters
G90 ; use absolute coordinates
M82 ; use absolute distances for extrusion
G92 E0
G92 E0
M106 S204
G1 E-6.00000 F1500.00000
G92 E0
G1 Z0.280 F7800.000
G1 X25.039 Y25.800 F7800.000
G1 E6.00000 F1500.00000
G1 F2250
G1 X26.788 Y24.350 E6.13219
G1 X30.000 Y23.500 E6.32556
G1 X190.000 Y23.500 E15.63675
G1 X192.237 Y23.897 E15.76894
G1 X194.200 Y25.039 E15.90113
G1 X195.650 Y26.788 E16.03332
G1 X196.500 Y30.000 E16.22669
G1 X196.500 Y190.000 E25.53788
G1 X196.103 Y192.237 E25.67007
G1 X194.961 Y194.200 E25.80226
G1 X193.212 Y195.650 E25.93445
G1 X190.000 Y196.500 E26.12782
G1 X30.000 Y196.500 E35.43901
G1 X27.763 Y196.103 E35.57120
G1 X25.800 Y194.961 E35.70339
G1 X24.350 Y193.212 E35.83558
G1 X23.500 Y190.000 E36.02895
G1 X23.500 Y30.000 E45.34013
G1 X23.897 Y27.763 E45.47233
G1 X25.009 Y25.852 E45.60102
G1 X25.534 Y25.993 F7800.000
G1 F2250
G1 X27.262 Y24.661 E45.72799
G1 X30.000 Y24.000 E45.89188
G1 X190.000 Y24.000 E55.20307
G1 X192.145 Y24.397 E55.33003
G1 X194.007 Y25.534 E55.45700
G1 X195.339 Y27.262 E55.58396
G1 X196.000 Y30.000 E55.74785
G1 X196.000 Y190.000 E65.05904
G1 X195.603 Y192.145 E65.18601
G1 X194.466 Y194.007 E65.31297
G1 X192.738 Y195.339 E65.43994
G1 X190.000 Y196.000 E65.60383
G1 X30.000 Y196.000 E74.91502
G1 X27.855 Y195.603 E75.04198
G1 X25.993 Y194.466 E75.16895
G1 X24.661 Y192.738 E75.29591
G1 X24.000 Y190.000 E75.45980
G1 X24.000 Y30.000 E84.77099
G1 X24.397 Y27.855 E84.89796
G1 X25.503 Y26.044 E85.02143
G1 X26.028 Y26.195 F7800.000
G1 F2250
G1 X27.733 Y24.989 E85.14294
G1 X30.000 Y24.500 E85.27792
G1 X190.000 Y24.500 E94.58910
G1 X192.050 Y24.896 E94.71062
G1 X193.805 Y26.028 E94.83213
G1 X195.011 Y27.733 E94.95365
G1 X195.500 Y30.000 E95.08862
G1 X195.500 Y190.000 E104.39981
G1 X195.104 Y192.050 E104.52132
G1 X193.972 Y193.805 E104.64284
G1 X192.267 Y195.011 E104.76435
G1 X190.000 Y195.500 E104.89932
G1 X30.000 Y195.500 E114.21051
G1 X27.950 Y195.104 E114.33202
G1 X26.195 Y193.972 E114.45354
G1 X24.989 Y192.267 E114.57505
G1 X24.500 Y190.000 E114.71002
G1 X24.500 Y30.000 E124.02121
G1 X24.896 Y27.950 E124.14273
G1 X25.996 Y26.246 E124.26075
G1 F6240
G1 X27.733 Y24.989 E123.77117
G1 F6240
G1 X30.000 Y24.500 E123.24152
G1 F6240
G1 X50.497 Y24.500 E118.56075
G1 E118.26075 F1500.00000
G92 E0
G1 X28.292 Y28.459 F7800.000
G1 E6.00000 F1500.00000
G1 F2250
G1 X29.048 Y27.702 E6.06226
G1 X190.952 Y27.702 E15.48589
G1 X192.298 Y29.048 E15.59667
G1 X192.298 Y190.952 E25.02030
G1 X190.952 Y192.298 E25.13109
G1 X29.048 Y192.298 E34.55471
G1 X27.702 Y190.952 E34.66550
G1 X27.702 Y29.048 E44.08912
G1 X28.249 Y28.501 E44.13415
G1 X28.645 Y28.812 F7800.000
G1 F2250
G1 X29.255 Y28.202 E44.18436
G1 X190.745 Y28.202 E53.58388
G1 X191.798 Y29.255 E53.67056
G1 X191.798 Y190.745 E63.07007
G1 X190.745 Y191.798 E63.15675
G1 X29.255 Y191.798 E72.55626
G1 X28.202 Y190.745 E72.64294
G1 X28.202 Y29.255 E82.04246
G1 X28.603 Y28.855 E82.07543
G1 X28.999 Y29.166 F7800.000
G1 F2250
G1 X29.463 Y28.702 E82.11359
G1 X190.537 Y28.702 E91.48899
G1 X191.298 Y29.463 E91.55156
G1 X191.298 Y190.537 E100.92697
G1 X190.537 Y191.298 E100.98953
G1 X29.463 Y191.298 E110.36494
G1 X28.702 Y190.537 E110.42751
G1 X28.702 Y29.463 E119.80291
G1 X28.957 Y29.208 E119.82384
G1 X29.353 Y29.519 F7800.000
G1 F2250
G1 X29.670 Y29.202 E119.84994
G1 X190.330 Y29.202 E129.20123
G1 X190.798 Y29.670 E129.23969
G1 X190.798 Y190.330 E138.59099
G1 X190.330 Y190.798 E138.62945
G1 X29.670 Y190.798 E147.98074
G1 X29.202 Y190.330 E148.01920
G1 X29.202 Y29.670 E157.37050
G1 X29.310 Y29.562 E157.37936
G1 X29.877 Y29.702 F7800.000
G1 F2250
G1 X190.123 Y29.702 E166.70655
G1 X190.298 Y29.877 E166.72090
G1 X190.298 Y190.123 E176.04809
G1 X190.123 Y190.298 E176.06244
G1 X29.877 Y190.298 E185.38962
G1 X29.702 Y190.123 E185.40397
G1 X29.702 Y29.877 E194.73116
G1 X29.834 Y29.745 E194.74202
G1 X30.280 Y30.280 F7800.000
G1 F900
G1 X189.720 Y30.280 E204.02062
G1 X189.720 Y189.720 E213.29922
G1 X30.280 Y189.720 E222.57782
G1 X30.280 Y30.340 E231.85293
G1 X30.666 Y30.384 F7800.000
G1 F6240
G1 X55.240 Y30.331 E226.15293
G1 E225.85293 F1500.00000
G92 E0
G1 X150.720 Y69.720 F7800.000
G1 E6.00000 F1500.00000
G1 F900
G1 X189.280 Y69.720 E8.24400
G1 X189.280 Y110.280 E10.60438
G1 X150.720 Y110.280 E12.84838
G1 X150.720 Y69.780 E15.20527
G1 X150.620 Y69.333 F7800.000
G1 X150.720 Y69.280 F7800.000
G1 F900
G1 X150.720 Y30.720 E17.44927
G1 X189.280 Y30.720 E19.69327
G1 X189.280 Y69.280 E21.93726
G1 X150.780 Y69.280 E24.17777
G1 X150.334 Y69.384 F7800.000
G1 X150.280 Y69.280 F7800.000
G1 F900
G1 X110.720 Y69.280 E26.47996
G1 X110.720 Y30.720 E28.72396
G1 X150.280 Y30.720 E31.02615
G1 X150.280 Y69.220 E33.26665
G1 X150.385 Y69.666 F7800.000
G1 X150.280 Y69.720 F7800.000
G1 F900
G1 X150.280 Y110.280 E35.62704
G1 X110.720 Y110.280 E37.92923
G1 X110.720 Y69.720 E40.28962
G1 X150.220 Y69.720 E42.58832
G1 X150.666 Y69.615 F7800.000
G1 F6240
G1 X150.257 Y94.680 E36.88832
G1 E36.58832 F1500.00000
G92 E0
G1 X69.280 Y69.720 F7800.000
G1 E6.00000 F1500.00000
G1 F900
G1 X69.280 Y110.280 E8.36039
G1 X30.720 Y110.280 E10.60438
G1 X30.720 Y69.720 E12.96477
G1 X69.220 Y69.720 E15.20527
G1 X69.665 Y69.613 F7800.000
G1 X69.280 Y69.280 F7800.000
G1 F900
G1 X30.720 Y69.280 E17.44927
G1 X30.720 Y30.720 E19.69327
G1 X69.280 Y30.720 E21.93726
G1 X69.280 Y69.220 E24.17777
G1 X69.384 Y69.666 F7800.000
G1 X69.720 Y69.280 F7800.000
G1 F900
G1 X69.720 Y30.720 E26.42177
G1 X110.280 Y30.720 E28.78215
G1 X110.280 Y69.280 E31.02615
G1 X69.780 Y69.280 E33.38304
G1 X69.333 Y69.380 F7800.000
G1 X69.720 Y69.720 F7800.000
G1 F900
G1 X110.280 Y69.720 E35.74343
G1 X110.280 Y110.280 E38.10382
G1 X69.720 Y110.280 E40.46420
G1 X69.720 Y69.780 E42.82110
G1 X69.616 Y69.334 F7800.000
G1 F6240
G1 X94.680 Y69.743 E37.12110
G1 E36.82110 F1500.00000
G92 E0
G1 X69.720 Y110.720 F7800.000
G1 E6.00000 F1500.00000
G1 F900
G1 X110.280 Y110.720 E8.36039
G1 X110.280 Y150.280 E10.66258
G1 X69.720 Y150.280 E13.02296
G1 X69.720 Y110.780 E15.32166
G1 X69.615 Y110.334 F7800.000
G1 X69.280 Y110.720 F7800.000
G1 F900
G1 X69.280 Y150.280 E17.62386
G1 X30.720 Y150.280 E19.86785
G1 X30.720 Y110.720 E22.17004
G1 X69.220 Y110.720 E24.41055
G1 X69.666 Y110.615 F7800.000
G1 F6240
G1 X69.258 Y135.680 E18.71055
G1 E18.41055 F1500.00000
G92 E0
G1 X69.280 Y150.720 F7800.000
G1 E6.00000 F1500.00000
G1 F900
G1 X69.280 Y189.280 E8.24400
G1 X30.720 Y189.280 E10.48799
G1 X30.720 Y150.720 E12.73199
G1 X69.220 Y150.720 E14.97249
G1 X69.666 Y150.616 F7800.000
G1 X69.720 Y150.720 F7800.000
G1 F900
G1 X110.280 Y150.720 E17.33288
G1 X110.280 Y189.280 E19.57688
G1 X69.720 Y189.280 E21.93726
G1 X69.720 Y150.780 E24.17777
G1 X69.613 Y150.335 F7800.000
G1 F6240
G1 X94.680 Y150.743 E18.47777
G1 E18.17777 F1500.00000
G92 E0
G1 X110.720 Y150.720 F7800.000
G1 E6.00000 F1500.00000
G1 F900
G1 X150.280 Y150.720 E8.30219
G1 X150.280 Y189.280 E10.54619
G1 X110.720 Y189.280 E12.84838
G1 X110.720 Y150.780 E15.08888
G1 X110.615 Y150.334 F7800.000
G1 X110.720 Y150.280 F7800.000
G1 F900
G1 X110.720 Y110.720 E17.39108
G1 X150.280 Y110.720 E19.69327
G1 X150.280 Y150.280 E21.99546
G1 X110.780 Y150.280 E24.29416
G1 X110.334 Y150.384 F7800.000
G1 F6240
G1 X110.742 Y125.320 E18.59416
G1 E18.29416 F1500.00000
G92 E0
G1 X150.720 Y150.280 F7800.000
G1 E6.00000 F1500.00000
G1 F900
G1 X150.720 Y110.720 E8.30219
G1 X189.280 Y110.720 E10.54619
G1 X189.280 Y150.280 E12.84838
G1 X150.780 Y150.280 E15.08888
G1 X150.334 Y150.385 F7800.000
G1 X150.720 Y150.720 F7800.000
G1 F900
G1 X189.280 Y150.720 E17.33288
G1 X189.280 Y189.280 E19.57688
G1 X150.720 Y189.280 E21.82087
G1 X150.720 Y150.780 E24.06138
G1 X150.616 Y150.334 F7800.000
G1 F6240
G1 X175.680 Y150.741 E18.36138
G1 E18.06138 F1500.00000
G92 E0
G1 X192.000 Y192.000 F7800.000
G1 X165.280 Y160.280 F7800.000
G1 E6.00000 F1500.00000
G1 F900
G1 X174.720 Y160.280 E6.54936
G1 X174.720 Y179.720 E7.68067
G1 X165.280 Y179.720 E8.23003
G1 X165.280 Y160.340 E9.35785
G1 X165.653 Y160.426 F7800.000
G1 X165.780 Y160.780 F7800.000
G1 F1800
G1 X174.220 Y160.780 E9.84902
G1 X174.220 Y179.220 E10.92215
G1 X165.780 Y179.220 E11.41332
G1 X165.780 Y160.840 E12.48296
G1 X166.280 Y161.280 F7800.000
G1 F1800
G1 X173.720 Y161.280 E12.91595
G1 X173.720 Y178.720 E13.93089
G1 X166.280 Y178.720 E14.36388
G1 X166.280 Y161.340 E15.37533
G1 F6240
G1 X173.720 Y161.280 E13.67615
G1 F6240
G1 X173.720 Y178.720 E9.69338
G1 F6240
G1 X173.641 Y178.720 E9.67533
G1 E9.37533 F1500.00000
G92 E0
G1 X192.000 Y192.000 F7800.000
G1 X99.720 Y165.280 F7800.000
G1 E6.00000 F1500.00000
G1 F900
G1 X99.720 Y174.720 E6.54936
G1 X80.280 Y174.720 E7.68067
G1 X80.280 Y165.280 E8.23003
G1 X99.660 Y165.280 E9.35785
G1 X99.574 Y165.653 F7800.000
G1 X99.220 Y165.780 F7800.000
G1 F1800
G1 X99.220 Y174.220 E9.84902
G1 X80.780 Y174.220 E10.92215
G1 X80.780 Y165.780 E11.41332
G1 X99.160 Y165.780 E12.48296
G1 X98.720 Y166.280 F7800.000
G1 F1800
G1 X98.720 Y173.720 E12.91595
G1 X81.280 Y173.720 E13.93089
G1 X81.280 Y166.280 E14.36388
G1 X98.660 Y166.280 E15.37533
G1 F6240
G1 X98.720 Y173.720 E13.67615
G1 F6240
G1 X81.280 Y173.720 E9.69338
G1 F6240
G1 X81.280 Y173.641 E9.67533
G1 E9.37533 F1500.00000
G92 E0
G1 X192.000 Y192.000 F7800.000
G1 X125.318 Y169.409 F7800.000
G1 E6.00000 F1500.00000
G1 F675
G1 X125.429 Y168.826 E6.03449
G1 X125.612 Y168.263 E6.06898
G1 X125.864 Y167.726 E6.10347
G1 X126.182 Y167.226 E6.13796
G1 X126.560 Y166.769 E6.17245
G1 X126.992 Y166.364 E6.20694
G1 X127.471 Y166.015 E6.24143
G1 X127.991 Y165.730 E6.27593
G1 X128.542 Y165.512 E6.31042
G1 X129.116 Y165.364 E6.34491
G1 X129.704 Y165.290 E6.37940
G1 X130.296 Y165.290 E6.41389
G1 X130.453 Y165.310 E6.42309
G1 X130.884 Y165.364 E6.44838
G1 X131.458 Y165.512 E6.48287
G1 X132.009 Y165.730 E6.51736
G1 X132.529 Y166.015 E6.55185
G1 X133.008 Y166.364 E6.58634
G1 X133.440 Y166.769 E6.62083
G1 X133.818 Y167.226 E6.65532
G1 X134.136 Y167.726 E6.68981
G1 X134.388 Y168.263 E6.72430
G1 X134.571 Y168.826 E6.75879
G1 X134.682 Y169.409 E6.79328
G1 X134.719 Y170.000 E6.82777
G1 X134.682 Y170.591 E6.86226
G1 X134.571 Y171.174 E6.89676
G1 X134.388 Y171.737 E6.93125
G1 X134.136 Y172.274 E6.96574
G1 X133.818 Y172.774 E7.00023
G1 X133.440 Y173.231 E7.03472
G1 X133.008 Y173.636 E7.06921
G1 X132.529 Y173.985 E7.10370
G1 X132.009 Y174.270 E7.13819
G1 X131.458 Y174.488 E7.17268
G1 X130.884 Y174.636 E7.20717
G1 X130.296 Y174.710 E7.24166
G1 X129.704 Y174.710 E7.27615
G1 X129.116 Y174.636 E7.31064
G1 X128.542 Y174.488 E7.34513
G1 X127.991 Y174.270 E7.37962
G1 X127.471 Y173.985 E7.41411
G1 X126.992 Y173.636 E7.44860
G1 X126.560 Y173.231 E7.48309
G1 X126.182 Y172.774 E7.51759
G1 X125.864 Y172.274 E7.55208
G1 X125.612 Y171.737 E7.58657
G1 X125.429 Y171.174 E7.62106
G1 X125.318 Y170.591 E7.65555
G1 X125.281 Y170.000 E7.69004
G1 X125.314 Y169.468 E7.72104
G1 X125.318 Y169.409 F7800.000
G1 X125.815 Y169.471 F7800.000
G1 F675
G1 X125.914 Y168.951 E7.75187
G1 X126.078 Y168.447 E7.78270
G1 X126.303 Y167.968 E7.81353
G1 X126.587 Y167.520 E7.84436
G1 X126.925 Y167.112 E7.87519
G1 X127.311 Y166.750 E7.90602
G1 X127.740 Y166.438 E7.93685
G1 X128.204 Y166.183 E7.96768
G1 X128.696 Y165.988 E7.99851
G1 X129.210 Y165.856 E8.02934
G1 X129.735 Y165.790 E8.06017
G1 X130.265 Y165.790 E8.09100
G1 X130.391 Y165.806 E8.09837
G1 X130.790 Y165.856 E8.12183
G1 X131.304 Y165.988 E8.15266
G1 X131.796 Y166.183 E8.18349
G1 X132.260 Y166.438 E8.21432
G1 X132.689 Y166.750 E8.24515
G1 X133.075 Y167.112 E8.27597
G1 X133.413 Y167.520 E8.30681
G1 X133.697 Y167.968 E8.33764
G1 X133.922 Y168.447 E8.36847
G1 X134.086 Y168.951 E8.39929
G1 X134.185 Y169.471 E8.43013
G1 X134.219 Y170.000 E8.46096
G1 X134.185 Y170.529 E8.49179
G1 X134.086 Y171.049 E8.52262
G1 X133.922 Y171.553 E8.55344
G1 X133.697 Y172.032 E8.58428
G1 X133.413 Y172.480 E8.61511
G1 X133.075 Y172.888 E8.64594
G1 X132.689 Y173.250 E8.67676
G1 X132.260 Y173.562 E8.70759
G1 X131.796 Y173.817 E8.73842
G1 X131.304 Y174.012 E8.76925
G1 X130.790 Y174.144 E8.80008
G1 X130.265 Y174.210 E8.83091
G1 X129.735 Y174.210 E8.86174
G1 X129.210 Y174.144 E8.89257
G1 X128.696 Y174.012 E8.92340
G1 X128.204 Y173.817 E8.95423
G1 X127.740 Y173.562 E8.98506
G1 X127.311 Y173.250 E9.01589
G1 X126.925 Y172.888 E9.04672
G1 X126.587 Y172.480 E9.07755
G1 X126.303 Y172.032 E9.10838
G1 X126.078 Y171.553 E9.13921
G1 X125.914 Y171.049 E9.17004
G1 X125.815 Y170.529 E9.20087
G1 X125.781 Y170.000 E9.23170
G1 X125.811 Y169.531 E9.25904
G1 X126.312 Y169.534 F7800.000
G1 F675
G1 X126.399 Y169.075 E9.28621
G1 X126.543 Y168.631 E9.31338
G1 X126.742 Y168.209 E9.34055
G1 X126.992 Y167.815 E9.36772
G1 X127.290 Y167.455 E9.39489
G1 X127.630 Y167.136 E9.42206
G1 X128.008 Y166.861 E9.44923
G1 X128.417 Y166.636 E9.47640
G1 X128.851 Y166.464 E9.50356
G1 X129.303 Y166.348 E9.53073
G1 X129.767 Y166.290 E9.55790
G1 X130.328 Y166.302 E9.59058
G1 X130.697 Y166.348 E9.61220
G1 X131.149 Y166.464 E9.63937
G1 X131.583 Y166.636 E9.66654
G1 X131.992 Y166.861 E9.69371
G1 X132.370 Y167.136 E9.72088
G1 X132.710 Y167.455 E9.74805
G1 X133.008 Y167.815 E9.77522
G1 X133.258 Y168.209 E9.80239
G1 X133.457 Y168.631 E9.82956
G1 X133.601 Y169.075 E9.85673
G1 X133.688 Y169.534 E9.88390
G1 X133.718 Y170.000 E9.91107
G1 X133.688 Y170.466 E9.93824
G1 X133.601 Y170.925 E9.96541
G1 X133.457 Y171.369 E9.99257
G1 X133.258 Y171.791 E10.01974
G1 X133.008 Y172.185 E10.04691
G1 X132.710 Y172.545 E10.07408
G1 X132.370 Y172.864 E10.10125
G1 X131.992 Y173.139 E10.12842
G1 X131.583 Y173.364 E10.15559
G1 X131.149 Y173.536 E10.18276
G1 X130.697 Y173.652 E10.20993
G1 X130.233 Y173.710 E10.23710
G1 X129.767 Y173.710 E10.26427
G1 X129.303 Y173.652 E10.29144
G1 X128.851 Y173.536 E10.31860
G1 X128.417 Y173.364 E10.34577
G1 X128.008 Y173.139 E10.37294
G1 X127.630 Y172.864 E10.40011
G1 X127.290 Y172.545 E10.42728
G1 X126.992 Y172.185 E10.45445
G1 X126.742 Y171.791 E10.48162
G1 X126.543 Y171.369 E10.50879
G1 X126.399 Y170.925 E10.53596
G1 X126.312 Y170.466 E10.56313
G1 X126.282 Y170.000 E10.59030
G1 X126.308 Y169.594 E10.61398
G1 F6240
G1 X126.312 Y169.534 E10.60027
G1 F6240
G1 X126.399 Y169.075 E10.49365
G1 F6240
G1 X126.543 Y168.631 E10.38704
G1 F6240
G1 X126.742 Y168.209 E10.28042
G1 F6240
G1 X126.992 Y167.815 E10.17381
G1 F6240
G1 X127.290 Y167.455 E10.06719
G1 F6240
G1 X127.630 Y167.136 E9.96058
G1 F6240
G1 X128.008 Y166.861 E9.85396
G1 F6240
G1 X128.417 Y166.636 E9.74734
G1 F6240
G1 X128.851 Y166.464 E9.64073
G1 F6240
G1 X129.303 Y166.348 E9.53411
G1 F6240
G1 X129.767 Y166.290 E9.42749
G1 F6240
G1 X130.233 Y166.290 E9.32088
G1 F6240
G1 X130.328 Y166.302 E9.29912
G1 F6240
G1 X130.697 Y166.348 E9.21427
G1 F6240
G1 X131.149 Y166.464 E9.10764
G1 F6240
G1 X131.583 Y166.636 E9.00103
G1 F6240
G1 X131.992 Y166.861 E8.89442
G1 F6240
G1 X132.370 Y167.136 E8.78780
G1 F6240
G1 X132.710 Y167.455 E8.68119
G1 F6240
G1 X133.008 Y167.815 E8.57457
G1 F6240
G1 X133.258 Y168.209 E8.46795
G1 F6240
G1 X133.457 Y168.631 E8.36133
G1 F6240
G1 X133.601 Y169.075 E8.25472
G1 F6240
G1 X133.688 Y169.534 E8.14810
G1 F6240
G1 X133.718 Y170.000 E8.04149
G1 F6240
