; generated by Slic3r 1.3.1-dev on 2020-07-27 at 20:20:31

; external perimeters extrusion width = 0.44mm (2.13mm^3/s)
; perimeters extrusion width = 0.51mm (5.03mm^3/s)
; infill extrusion width = 0.50mm (6.16mm^3/s)
; solid infill extrusion width = 0.51mm (2.51mm^3/s)
; top infill extrusion width = 0.51mm (1.88mm^3/s)
; support material extrusion width = 0.44mm (5.32mm^3/s)

M190 S70 ; set bed temperature and wait for it to be reached
; Ender 3 Custom Start G-code
G92 E0 ; Reset Extruder
G28 ; Home all axes
;G29 ; perform auto level
;M500; store mesh
M155 S30
M420 L0 S1 T1 V1 Z1 ; enable mesh
M155 S3
G1 Z2.0 F3000 ; Move Z Axis up little to prevent scratching of Heat Bed
G1 X0.1 Y20 Z0.3 F5000.0 ; Move to start position
M109 S216
G1 X0.1 Y200.0 Z0.3 F1500.0 E15 ; Draw the first line
G1 X0.4 Y200.0 Z0.3 F5000.0 ; Move to side a little
G1 X0.4 Y20 Z0.3 F1500.0 E30 ; Draw the second line
G92 E0 ; Reset Extruder
G1 Z2.0 F3000 ; Move Z Axis up little to prevent scratching of Heat Bed
G1 X5 Y20 Z0.3 F5000.0 ; Move over to prevent blob squish

; Filament gcode

G21 ; set units to millimeters
G90 ; use absolute coordinates
M82 ; use absolute distances for extrusion
G92 E0
G92 E0
M106 S204
G1 E-6.00000 F1500.00000
G92 E0
G1 Z0.280 F7800.000
G1 X78.359 Y92.907 F7800.000
G1 E6.00000 F1500.00000
G1 F2250
G1 X81.622 Y90.544 E6.23564
G1 X83.999 Y89.314 E6.39213
G1 X86.901 Y88.833 E6.56418
G1 X133.099 Y88.833 E9.26613
G1 X135.745 Y89.231 E9.42262
G1 X138.657 Y90.754 E9.61482
G1 X141.774 Y93.202 E9.84661
G1 X144.010 Y95.780 E10.04620
G1 X146.931 Y100.839 E10.38787
G1 X148.046 Y104.065 E10.58747
G1 X148.607 Y107.988 E10.81925
G1 X148.588 Y110.664 E10.97574
G1 X147.492 Y113.762 E11.16795
G1 X140.893 Y125.192 E11.93986
G1 X139.225 Y127.284 E12.09635
G1 X136.450 Y129.044 E12.28856
G1 X132.772 Y130.520 E12.52034
G1 X129.421 Y131.167 E12.71993
G1 X90.579 Y131.167 E14.99164
G1 X87.228 Y130.520 E15.19124
G1 X83.550 Y129.044 E15.42302
G1 X81.242 Y127.690 E15.57951
G1 X79.107 Y125.192 E15.77172
G1 X72.508 Y113.762 E16.54363
G1 X71.530 Y111.271 E16.70012
G1 X71.350 Y108.335 E16.87217
G1 X71.765 Y104.328 E17.10781
G1 X72.923 Y100.755 E17.32746
G1 X75.844 Y95.696 E17.66913
G1 X78.319 Y92.951 E17.88527
G1 X78.652 Y93.312 F7800.000
G1 F2250
G1 X81.916 Y90.948 E18.12090
G1 X84.230 Y89.763 E18.27296
G1 X86.901 Y89.333 E18.43120
G1 X133.099 Y89.333 E21.13315
G1 X135.668 Y89.730 E21.28521
G1 X138.348 Y91.147 E21.46250
G1 X141.465 Y93.595 E21.69428
G1 X143.577 Y96.030 E21.88279
G1 X146.498 Y101.089 E22.22446
G1 X147.551 Y104.136 E22.41297
G1 X148.112 Y108.059 E22.64475
G1 X148.082 Y110.658 E22.79681
G1 X147.059 Y113.512 E22.97410
G1 X140.460 Y124.942 E23.74601
G1 X138.831 Y126.968 E23.89807
G1 X136.264 Y128.580 E24.07536
G1 X132.586 Y130.056 E24.30714
G1 X129.421 Y130.667 E24.49565
G1 X90.579 Y130.667 E26.76736
G1 X87.414 Y130.056 E26.95587
G1 X83.736 Y128.580 E27.18765
G1 X81.500 Y127.255 E27.33971
G1 X79.540 Y124.942 E27.51700
G1 X72.941 Y113.512 E28.28891
G1 X72.001 Y111.088 E28.44097
G1 X71.848 Y108.387 E28.59921
G1 X72.263 Y104.379 E28.83484
G1 X73.356 Y101.005 E29.04229
G1 X76.277 Y95.946 E29.38397
G1 X78.612 Y93.356 E29.58790
G1 X78.946 Y93.717 F7800.000
G1 F2250
G1 X82.209 Y91.353 E29.82354
G1 X84.459 Y90.215 E29.97103
G1 X86.901 Y89.833 E30.11559
G1 X133.099 Y89.833 E32.81753
G1 X135.589 Y90.230 E32.96502
G1 X138.039 Y91.541 E33.12752
G1 X141.156 Y93.988 E33.35931
G1 X143.144 Y96.280 E33.53673
G1 X146.065 Y101.339 E33.87840
G1 X147.056 Y104.206 E34.05582
G1 X147.617 Y108.130 E34.28760
G1 X147.576 Y110.651 E34.43510
G1 X146.626 Y113.262 E34.59760
G1 X140.027 Y124.692 E35.36951
G1 X138.437 Y126.650 E35.51700
G1 X136.078 Y128.116 E35.67950
G1 X132.400 Y129.592 E35.91128
G1 X129.421 Y130.167 E36.08870
G1 X90.579 Y130.167 E38.36041
G1 X87.600 Y129.592 E38.53783
G1 X83.922 Y128.116 E38.76961
G1 X81.759 Y126.820 E38.91711
G1 X79.973 Y124.692 E39.07961
G1 X73.374 Y113.262 E39.85152
G1 X72.473 Y110.906 E39.99901
G1 X72.345 Y108.438 E40.14357
G1 X72.760 Y104.431 E40.37920
G1 X73.789 Y101.255 E40.57445
G1 X76.710 Y96.196 E40.91612
G1 X78.906 Y93.761 E41.10786
G1 X79.239 Y94.121 F7800.000
G1 F2250
G1 X82.502 Y91.758 E41.34349
G1 X84.686 Y90.667 E41.48627
G1 X86.901 Y90.333 E41.61728
G1 X133.099 Y90.333 E44.31923
G1 X135.508 Y90.730 E44.46201
G1 X137.731 Y91.934 E44.60986
G1 X140.848 Y94.381 E44.84164
G1 X142.711 Y96.530 E45.00797
G1 X145.632 Y101.589 E45.34965
G1 X146.561 Y104.277 E45.51598
G1 X147.122 Y108.200 E45.74777
G1 X147.070 Y110.641 E45.89054
G1 X146.193 Y113.012 E46.03839
G1 X139.594 Y124.442 E46.81030
G1 X138.045 Y126.329 E46.95308
G1 X135.891 Y127.653 E47.10093
G1 X132.213 Y129.128 E47.33271
G1 X129.421 Y129.667 E47.49905
G1 X90.579 Y129.667 E49.77076
G1 X87.787 Y129.128 E49.93709
G1 X84.109 Y127.653 E50.16887
G1 X82.021 Y126.387 E50.31165
G1 X80.406 Y124.442 E50.45950
G1 X73.807 Y113.012 E51.23141
G1 X72.947 Y110.727 E51.37419
G1 X72.842 Y108.490 E51.50520
G1 X73.257 Y104.482 E51.74084
G1 X74.222 Y101.505 E51.92388
G1 X77.143 Y96.446 E52.26556
G1 X79.199 Y94.166 E52.44509
G1 X79.532 Y94.526 F7800.000
G1 F2250
G1 X82.795 Y92.163 E52.68073
G1 X84.911 Y91.121 E52.81863
G1 X86.901 Y90.833 E52.93625
G1 X133.099 Y90.833 E55.63820
G1 X135.423 Y91.230 E55.77610
G1 X137.422 Y92.327 E55.90945
G1 X140.539 Y94.774 E56.14124
G1 X142.278 Y96.780 E56.29648
G1 X145.199 Y101.839 E56.63816
G1 X146.066 Y104.348 E56.79340
G1 X146.627 Y108.271 E57.02519
G1 X146.563 Y110.628 E57.16309
G1 X145.760 Y112.762 E57.29644
G1 X139.161 Y124.192 E58.06835
G1 X137.655 Y126.006 E58.20625
G1 X135.705 Y127.189 E58.33961
G1 X132.027 Y128.664 E58.57139
G1 X129.421 Y129.167 E58.72663
G1 X90.579 Y129.167 E60.99834
G1 X87.973 Y128.664 E61.15359
G1 X84.295 Y127.189 E61.38537
G1 X82.285 Y125.955 E61.52328
G1 X80.839 Y124.192 E61.65663
G1 X74.240 Y112.762 E62.42854
G1 X73.422 Y110.551 E62.56644
G1 X73.339 Y108.541 E62.68407
G1 X73.754 Y104.534 E62.91970
G1 X74.655 Y101.755 E63.09054
G1 X77.576 Y96.696 E63.43222
G1 X79.492 Y94.571 E63.59955
G1 X79.825 Y94.931 F7800.000
G1 F2250
G1 X83.088 Y92.568 E63.83518
G1 X85.133 Y91.578 E63.96804
G1 X86.901 Y91.332 E64.07244
G1 X133.099 Y91.332 E66.77439
G1 X135.336 Y91.729 E66.90724
G1 X137.113 Y92.720 E67.02626
G1 X140.230 Y95.168 E67.25804
G1 X141.845 Y97.030 E67.40220
G1 X144.766 Y102.089 E67.74387
G1 X145.571 Y104.419 E67.88803
G1 X146.132 Y108.342 E68.11981
G1 X146.056 Y110.612 E68.25267
G1 X145.327 Y112.512 E68.37169
G1 X138.728 Y123.942 E69.14360
G1 X137.266 Y125.681 E69.27645
G1 X135.519 Y126.725 E69.39547
G1 X131.841 Y128.200 E69.62725
G1 X129.421 Y128.668 E69.77141
G1 X90.579 Y128.668 E72.04312
G1 X88.159 Y128.200 E72.18728
G1 X84.481 Y126.725 E72.41906
G1 X82.553 Y125.523 E72.55191
G1 X81.272 Y123.942 E72.67093
G1 X74.673 Y112.512 E73.44285
G1 X73.898 Y110.377 E73.57570
G1 X73.837 Y108.593 E73.68010
G1 X74.252 Y104.585 E73.91573
G1 X75.088 Y102.005 E74.07437
G1 X78.009 Y96.945 E74.41605
G1 X79.785 Y94.976 E74.57118
G1 X80.119 Y95.336 F7800.000
G1 F2250
G1 X83.382 Y92.973 E74.80681
G1 X85.352 Y92.036 E74.93441
G1 X86.901 Y91.832 E75.02579
G1 X133.099 Y91.832 E77.72773
G1 X135.244 Y92.229 E77.85533
G1 X136.805 Y93.113 E77.96021
G1 X139.921 Y95.561 E78.19199
G1 X141.412 Y97.280 E78.32506
G1 X144.333 Y102.339 E78.66674
G1 X145.076 Y104.490 E78.79981
G1 X145.638 Y108.413 E79.03159
G1 X145.549 Y110.593 E79.15919
G1 X144.894 Y112.262 E79.26407
G1 X138.295 Y123.692 E80.03598
G1 X136.879 Y125.352 E80.16358
G1 X135.333 Y126.261 E80.26846
G1 X131.655 Y127.736 E80.50024
G1 X129.421 Y128.168 E80.63331
G1 X90.579 Y128.168 E82.90502
G1 X88.345 Y127.736 E83.03809
G1 X84.667 Y126.261 E83.26987
G1 X82.824 Y125.094 E83.39747
G1 X81.705 Y123.692 E83.50235
G1 X75.106 Y112.262 E84.27427
G1 X74.377 Y110.206 E84.40187
G1 X74.334 Y108.644 E84.49324
G1 X74.749 Y104.637 E84.72887
G1 X75.521 Y102.255 E84.87531
G1 X78.442 Y97.195 E85.21699
G1 X80.078 Y95.381 E85.35991
G1 X80.412 Y95.741 F7800.000
G1 F2250
G1 X83.675 Y93.378 E85.59555
G1 X85.568 Y92.496 E85.71767
G1 X86.901 Y92.332 E85.79623
G1 X133.099 Y92.332 E88.49817
G1 X135.149 Y92.729 E88.62029
G1 X136.496 Y93.507 E88.71124
G1 X139.613 Y95.954 E88.94303
G1 X140.979 Y97.530 E89.06501
G1 X143.900 Y102.589 E89.40668
G1 X144.582 Y104.560 E89.52867
G1 X145.143 Y108.483 E89.76045
G1 X145.041 Y110.569 E89.88257
G1 X144.461 Y112.012 E89.97352
G1 X137.862 Y123.442 E90.74543
G1 X136.494 Y125.019 E90.86755
G1 X135.147 Y125.797 E90.95851
G1 X131.469 Y127.272 E91.19029
G1 X129.421 Y127.668 E91.31227
G1 X90.579 Y127.668 E93.58398
G1 X88.531 Y127.272 E93.70596
G1 X84.853 Y125.797 E93.93775
G1 X83.098 Y124.665 E94.05987
G1 X82.138 Y123.442 E94.15082
G1 X75.539 Y112.012 E94.92273
G1 X74.857 Y110.039 E95.04485
G1 X74.831 Y108.696 E95.12341
G1 X75.246 Y104.688 E95.35904
G1 X75.954 Y102.505 E95.49328
G1 X78.875 Y97.445 E95.83496
G1 X80.372 Y95.785 E95.96568
G1 F6240
G1 X83.675 Y93.378 E95.03221
G1 F6240
G1 X85.568 Y92.496 E94.55537
G1 F6240
G1 X86.901 Y92.332 E94.24864
G1 F6240
G1 X104.342 Y92.332 E90.26568
G1 E89.96568 F1500.00000
G92 E0
G1 X94.609 Y121.388 F7800.000
G1 E6.00000 F1500.00000
G1 F675
G1 X92.391 Y121.388 E6.12968
G1 X93.500 Y120.217 E6.22399
G1 X94.567 Y121.344 E6.31480
G1 F6240
G1 X92.391 Y121.388 E5.81776
G1 F6240
G1 X93.500 Y120.217 E5.44951
G1 F6240
G1 X94.567 Y121.344 E5.09495
G1 E0.31480 F1500.00000
G92 E0
G1 X94.097 Y121.168 F7800.000
G1 X103.264 Y103.625 F7800.000
G1 X102.987 Y103.785 F7800.000
G1 E6.00000 F1500.00000
G1 F675
G1 X103.447 Y102.239 E6.09431
G1 X104.555 Y104.159 E6.22399
G1 X103.045 Y103.799 E6.31480
G1 F6240
G1 X103.447 Y102.239 E5.94703
G1 F6240
G1 X104.555 Y104.159 E5.44068
G1 F6240
G1 X103.045 Y103.799 E5.08612
G1 E0.31480 F1500.00000
G92 E0
G1 X100.302 Y105.251 F7800.000
G1 E6.00000 F1500.00000
G1 F1800
G1 X100.697 Y105.975 E6.04826
G1 X101.092 Y107.033 E6.11429
G1 X101.332 Y108.136 E6.18031
G1 X101.412 Y109.262 E6.24634
G1 X101.332 Y110.388 E6.31237
G1 X101.092 Y111.491 E6.37840
G1 X100.697 Y112.549 E6.44442
G1 X100.156 Y113.540 E6.51045
G1 X99.480 Y114.444 E6.57648
G1 X98.682 Y115.242 E6.64250
G1 X97.778 Y115.919 E6.70853
G1 X96.787 Y116.460 E6.77456
G1 X95.729 Y116.854 E6.84059
G1 X94.626 Y117.094 E6.90661
G1 X93.500 Y117.175 E6.97264
G1 X92.374 Y117.094 E7.03867
G1 X91.271 Y116.854 E7.10470
G1 X90.213 Y116.460 E7.17072
G1 X89.222 Y115.919 E7.23675
G1 X88.318 Y115.242 E7.30278
G1 X87.520 Y114.444 E7.36880
G1 X86.844 Y113.540 E7.43483
G1 X86.303 Y112.549 E7.50086
G1 X85.908 Y111.491 E7.56689
G1 X85.668 Y110.388 E7.63291
G1 X85.588 Y109.262 E7.69894
G1 X85.668 Y108.136 E7.76497
G1 X85.908 Y107.033 E7.83099
G1 X86.303 Y105.975 E7.89702
G1 X86.844 Y104.984 E7.96305
G1 X87.520 Y104.081 E8.02908
G1 X88.318 Y103.282 E8.09510
G1 X89.222 Y102.606 E8.16113
G1 X90.213 Y102.065 E8.22716
G1 X91.271 Y101.670 E8.29318
G1 X92.374 Y101.430 E8.35921
G1 X93.500 Y101.350 E8.42524
G1 X94.626 Y101.430 E8.49126
G1 X95.729 Y101.670 E8.55729
G1 X96.787 Y102.065 E8.62332
G1 X97.778 Y102.606 E8.68935
G1 X98.682 Y103.282 E8.75537
G1 X99.480 Y104.081 E8.82140
G1 X100.156 Y104.984 E8.88743
G1 X100.273 Y105.198 E8.90169
G1 X99.863 Y105.491 F7800.000
G1 F1800
G1 X100.242 Y106.183 E8.94786
G1 X100.611 Y107.174 E9.00970
G1 X100.836 Y108.207 E9.07154
G1 X100.911 Y109.262 E9.13339
G1 X100.836 Y110.317 E9.19523
G1 X100.611 Y111.350 E9.25708
G1 X100.242 Y112.341 E9.31892
G1 X99.735 Y113.269 E9.38077
G1 X99.101 Y114.116 E9.44261
G1 X98.353 Y114.863 E9.50446
G1 X97.507 Y115.497 E9.56630
G1 X96.579 Y116.004 E9.62815
G1 X95.588 Y116.373 E9.68999
G1 X94.555 Y116.598 E9.75184
G1 X93.500 Y116.673 E9.81368
G1 X92.445 Y116.598 E9.87553
G1 X91.412 Y116.373 E9.93737
G1 X90.421 Y116.004 E9.99922
G1 X89.493 Y115.497 E10.06106
G1 X88.647 Y114.863 E10.12291
G1 X87.899 Y114.116 E10.18475
G1 X87.265 Y113.269 E10.24660
G1 X86.758 Y112.341 E10.30844
G1 X86.389 Y111.350 E10.37029
G1 X86.164 Y110.317 E10.43213
G1 X86.089 Y109.262 E10.49398
G1 X86.164 Y108.207 E10.55582
G1 X86.389 Y107.174 E10.61767
G1 X86.758 Y106.183 E10.67951
G1 X87.265 Y105.255 E10.74136
G1 X87.899 Y104.409 E10.80320
G1 X88.647 Y103.661 E10.86505
G1 X89.493 Y103.027 E10.92689
G1 X90.421 Y102.521 E10.98874
G1 X91.412 Y102.151 E11.05058
G1 X92.445 Y101.926 E11.11243
G1 X93.500 Y101.851 E11.17427
G1 X94.555 Y101.926 E11.23612
G1 X95.588 Y102.151 E11.29796
G1 X96.579 Y102.521 E11.35981
G1 X97.507 Y103.027 E11.42165
G1 X98.353 Y103.661 E11.48350
G1 X99.101 Y104.409 E11.54534
G1 X99.735 Y105.255 E11.60719
G1 X99.834 Y105.438 E11.61935
G1 X99.424 Y105.730 F7800.000
G1 F900
G1 X99.786 Y106.392 E11.66343
G1 X100.130 Y107.315 E11.72109
G1 X100.340 Y108.279 E11.77876
G1 X100.410 Y109.262 E11.83642
G1 X100.340 Y110.246 E11.89408
G1 X100.130 Y111.209 E11.95174
G1 X99.786 Y112.133 E12.00941
G1 X99.313 Y112.998 E12.06707
G1 X98.722 Y113.787 E12.12473
G1 X98.025 Y114.485 E12.18239
G1 X97.236 Y115.075 E12.24006
G1 X96.371 Y115.548 E12.29772
G1 X95.447 Y115.892 E12.35538
G1 X94.483 Y116.102 E12.41305
G1 X93.500 Y116.172 E12.47071
G1 X92.517 Y116.102 E12.52837
G1 X91.553 Y115.892 E12.58603
G1 X90.629 Y115.548 E12.64370
G1 X89.764 Y115.075 E12.70136
G1 X88.975 Y114.485 E12.75902
G1 X88.278 Y113.787 E12.81668
G1 X87.687 Y112.998 E12.87435
G1 X87.214 Y112.133 E12.93201
G1 X86.870 Y111.209 E12.98967
G1 X86.660 Y110.246 E13.04733
G1 X86.590 Y109.262 E13.10500
G1 X86.660 Y108.279 E13.16266
G1 X86.870 Y107.315 E13.22032
G1 X87.214 Y106.392 E13.27798
G1 X87.687 Y105.526 E13.33565
G1 X88.278 Y104.737 E13.39331
G1 X88.975 Y104.040 E13.45097
G1 X89.764 Y103.449 E13.50864
G1 X90.629 Y102.977 E13.56630
G1 X91.553 Y102.632 E13.62396
G1 X92.517 Y102.422 E13.68162
G1 X93.500 Y102.352 E13.73929
G1 X94.483 Y102.422 E13.79695
G1 X95.447 Y102.632 E13.85461
G1 X96.371 Y102.977 E13.91227
G1 X97.236 Y103.449 E13.96994
G1 X98.025 Y104.040 E14.02760
G1 X98.722 Y104.737 E14.08526
G1 X99.313 Y105.526 E14.14292
G1 X99.396 Y105.677 E14.15300
G1 X99.824 Y105.724 F7800.000
G1 F6240
G1 X99.786 Y106.392 E13.96719
G1 F6240
G1 X100.130 Y107.315 E13.74204
G1 F6240
G1 X100.340 Y108.279 E13.51689
G1 F6240
G1 X100.410 Y109.262 E13.29174
G1 F6240
G1 X100.340 Y110.246 E13.06658
G1 F6240
G1 X100.130 Y111.209 E12.84143
G1 F6240
G1 X99.786 Y112.133 E12.61628
G1 F6240
G1 X99.313 Y112.998 E12.39113
G1 F6240
G1 X98.722 Y113.787 E12.16598
G1 F6240
G1 X98.025 Y114.485 E11.94083
G1 F6240
G1 X97.236 Y115.075 E11.71568
G1 F6240
G1 X96.371 Y115.548 E11.49053
G1 F6240
G1 X95.447 Y115.892 E11.26538
G1 F6240
G1 X94.483 Y116.102 E11.04023
G1 F6240
G1 X93.500 Y116.172 E10.81508
G1 F6240
G1 X92.517 Y116.102 E10.58993
G1 F6240
G1 X91.553 Y115.892 E10.36477
G1 F6240
G1 X90.629 Y115.548 E10.13962
G1 F6240
G1 X89.764 Y115.075 E9.91447
G1 F6240
G1 X88.975 Y114.485 E9.68932
G1 F6240
G1 X88.278 Y113.787 E9.46417
G1 F6240
G1 X87.687 Y112.998 E9.23902
G1 F6240
G1 X87.214 Y112.133 E9.01387
G1 F6240
G1 X86.870 Y111.209 E8.78872
G1 F6240
G1 X86.660 Y110.246 E8.56357
G1 F6240
G1 X86.626 Y109.763 E8.45300
G1 E8.15300 F1500.00000
G92 E0
G1 X99.395 Y100.588 F7800.000
G1 E6.00000 F1500.00000
G1 F1800
G1 X97.998 Y99.112 E6.11884
G1 X99.360 Y99.112 E6.19851
G1 X105.220 Y109.262 E6.88399
G1 X104.539 Y110.442 E6.96366
G1 X103.960 Y108.494 E7.08250
G1 X98.065 Y118.705 E7.77205
G1 X100.041 Y118.233 E7.89090
G1 X99.360 Y119.412 E7.97057
G1 X87.640 Y119.412 E8.65604
G1 X86.959 Y118.233 E8.73571
G1 X88.935 Y118.705 E8.85456
G1 X83.040 Y108.494 E9.54411
G1 X82.461 Y110.442 E9.66295
G1 X81.780 Y109.262 E9.74262
G1 X87.640 Y99.112 E10.42810
G1 X89.002 Y99.112 E10.50777
G1 X87.605 Y100.588 E10.62661
G1 X99.335 Y100.588 E11.31265
G1 X98.233 Y100.088 F7800.000
G1 F1800
G1 X96.836 Y98.612 E11.43150
G1 X99.649 Y98.612 E11.59599
G1 X105.798 Y109.262 E12.31523
G1 X104.391 Y111.698 E12.47972
G1 X103.812 Y109.750 E12.59856
G1 X99.079 Y117.949 E13.15223
G1 X101.055 Y117.477 E13.27107
G1 X99.649 Y119.912 E13.43556
G1 X87.351 Y119.912 E14.15480
G1 X85.945 Y117.477 E14.31930
G1 X87.921 Y117.949 E14.43814
G1 X83.188 Y109.750 E14.99181
G1 X82.609 Y111.698 E15.11065
G1 X81.202 Y109.262 E15.27514
G1 X87.351 Y98.612 E15.99438
G1 X90.164 Y98.612 E16.15887
