; generated by Slic3r 1.3.1-dev on 2020-07-28 at 15:00:06

; external perimeters extrusion width = 0.44mm (2.13mm^3/s)
; perimeters extrusion width = 0.51mm (5.03mm^3/s)
; infill extrusion width = 0.50mm (6.16mm^3/s)
; solid infill extrusion width = 0.51mm (2.51mm^3/s)
; top infill extrusion width = 0.51mm (1.88mm^3/s)
; support material extrusion width = 0.44mm (5.32mm^3/s)

M190 S70 ; set bed temperature and wait for it to be reached
; Ender 3 Custom Start G-code
G92 E0 ; Reset Extruder
G28 ; Home all axes
;G29 ; perform auto level
;M500; store mesh
M155 S30
M420 L0 S1 T1 V1 Z1 ; enable mesh
M155 S3
G1 Z2.0 F3000 ; Move Z Axis up little to prevent scratching of Heat Bed
G1 X0.1 Y20 Z0.3 F5000.0 ; Move to start position
M109 S216
G1 X0.1 Y200.0 Z0.3 F1500.0 E15 ; Draw the first line
G1 X0.4 Y200.0 Z0.3 F5000.0 ; Move to side a little
G1 X0.4 Y20 Z0.3 F1500.0 E30 ; Draw the second line
G92 E0 ; Reset Extruder
G1 Z2.0 F3000 ; Move Z Axis up little to prevent scratching of Heat Bed
G1 X5 Y20 Z0.3 F5000.0 ; Move over to prevent blob squish

; Filament gcode

G21 ; set units to millimeters
G90 ; use absolute coordinates
M82 ; use absolute distances for extrusion
G92 E0
G92 E0
M106 S204
G1 E-6.00000 F1500.00000
G92 E0
G1 Z0.280 F7800.000
G1 X46.427 Y38.560 F7800.000
G1 E6.00000 F1500.00000
G1 F2250
G1 X48.174 Y37.008 E6.13596
G1 X61.742 Y28.529 E7.06708
G1 X63.924 Y27.635 E7.20430
G1 X65.452 Y27.466 E7.29375
G1 X147.452 Y27.466 E12.06573
G1 X149.776 Y27.863 E12.20295
G1 X151.836 Y29.009 E12.34017
G1 X153.418 Y30.805 E12.47943
G1 X154.586 Y32.709 E12.60943
G1 X155.782 Y34.731 E12.74613
G1 X157.001 Y36.872 E12.88952
G1 X158.074 Y38.832 E13.01953
G1 X159.169 Y40.910 E13.15622
G1 X160.281 Y43.109 E13.29962
G1 X161.256 Y45.119 E13.42963
G1 X162.248 Y47.248 E13.56632
G1 X163.204 Y49.394 E13.70303
G1 X164.169 Y51.661 E13.84641
G1 X165.010 Y53.730 E13.97641
G1 X165.860 Y55.920 E14.11311
G1 X166.712 Y58.232 E14.25650
G1 X167.450 Y60.341 E14.38651
G1 X168.190 Y62.570 E14.52321
G1 X168.928 Y64.921 E14.66659
G1 X169.561 Y67.063 E14.79660
G1 X170.191 Y69.326 E14.93330
G1 X170.812 Y71.711 E15.07669
G1 X171.339 Y73.882 E15.20670
G1 X171.856 Y76.173 E15.34340
G1 X172.359 Y78.585 E15.48679
G1 X172.778 Y80.779 E15.61679
G1 X173.182 Y83.093 E15.75349
G1 X173.565 Y85.527 E15.89688
G1 X173.876 Y87.740 E16.02689
G1 X174.166 Y90.071 E16.16359
G1 X174.428 Y92.521 E16.30698
G1 X174.630 Y94.746 E16.43699
G1 X174.804 Y97.088 E16.57370
G1 X174.940 Y99.433 E16.71038
G1 X175.037 Y101.780 E16.84708
G1 X175.096 Y104.128 E16.98377
G1 X175.117 Y106.477 E17.12048
G1 X174.738 Y108.804 E17.25770
G1 X172.974 Y111.575 E17.44888
G1 X90.974 Y190.575 E24.07519
G1 X89.024 Y191.902 E24.21240
G1 X86.117 Y192.534 E24.38554
G1 X70.117 Y192.534 E25.31665
G1 X67.793 Y192.137 E25.45387
G1 X65.732 Y190.991 E25.59109
G1 X64.170 Y189.225 E25.72831
G1 X63.389 Y187.464 E25.84043
G1 X45.154 Y123.874 E29.69020
G1 X44.883 Y121.944 E29.80358
G1 X44.883 Y42.944 E34.40098
G1 X45.280 Y40.620 E34.53820
G1 X46.398 Y38.612 E34.67192
G1 X46.922 Y38.744 F7800.000
G1 F2250
G1 X48.439 Y37.432 E34.78861
G1 X62.007 Y28.953 E35.71973
G1 X64.114 Y28.105 E35.85192
G1 X65.452 Y27.966 E35.93016
G1 X147.452 Y27.966 E40.70215
G1 X149.688 Y28.363 E40.83434
G1 X151.652 Y29.505 E40.96653
G1 X152.992 Y31.067 E41.08629
G1 X154.160 Y32.971 E41.21629
G1 X155.352 Y34.985 E41.35251
G1 X156.563 Y37.112 E41.49495
G1 X157.636 Y39.072 E41.62496
G1 X158.727 Y41.143 E41.76117
G1 X159.831 Y43.327 E41.90361
G1 X160.807 Y45.337 E42.03362
G1 X161.794 Y47.459 E42.16984
G1 X162.747 Y49.597 E42.30606
G1 X163.706 Y51.849 E42.44849
G1 X164.547 Y53.919 E42.57850
G1 X165.393 Y56.101 E42.71471
G1 X166.240 Y58.397 E42.85715
G1 X167.013 Y60.607 E42.99337
G1 X167.716 Y62.727 E43.12338
G1 X168.448 Y65.063 E43.26581
G1 X169.082 Y67.205 E43.39582
G1 X169.709 Y69.460 E43.53204
G1 X170.326 Y71.829 E43.67447
G1 X170.853 Y74.000 E43.80448
G1 X171.369 Y76.283 E43.94070
G1 X171.868 Y78.679 E44.08313
G1 X172.306 Y80.978 E44.21935
G1 X172.690 Y83.179 E44.34936
G1 X173.070 Y85.597 E44.49179
G1 X173.381 Y87.809 E44.62180
G1 X173.669 Y90.132 E44.75802
G1 X173.930 Y92.566 E44.90046
G1 X174.132 Y94.791 E45.03047
G1 X174.306 Y97.125 E45.16670
G1 X174.441 Y99.462 E45.30291
G1 X174.538 Y101.800 E45.43912
G1 X174.597 Y104.140 E45.57534
G1 X174.617 Y106.481 E45.71157
G1 X174.238 Y108.721 E45.84376
G1 X172.627 Y111.215 E46.01658
G1 X90.627 Y190.215 E52.64288
G1 X88.741 Y191.481 E52.77507
G1 X86.117 Y192.034 E52.93110
G1 X70.117 Y192.034 E53.86222
G1 X67.881 Y191.637 E53.99441
G1 X65.917 Y190.495 E54.12660
G1 X64.467 Y188.747 E54.25879
G1 X63.869 Y187.326 E54.34849
G1 X45.635 Y123.736 E58.19826
G1 X45.383 Y121.944 E58.30354
G1 X45.383 Y42.944 E62.90094
G1 X45.780 Y40.708 E63.03313
G1 X46.892 Y38.796 E63.16183
G1 X47.417 Y38.937 F7800.000
G1 F2250
G1 X48.703 Y37.856 E63.25961
G1 X62.272 Y29.377 E64.19073
G1 X64.302 Y28.577 E64.31770
G1 X65.452 Y28.466 E64.38492
G1 X147.452 Y28.466 E69.15691
G1 X149.597 Y28.862 E69.28387
G1 X151.459 Y30.000 E69.41084
G1 X152.566 Y31.328 E69.51146
G1 X153.734 Y33.232 E69.64146
G1 X154.922 Y35.240 E69.77720
G1 X156.124 Y37.353 E69.91868
G1 X157.244 Y39.399 E70.05442
G1 X158.330 Y41.463 E70.19017
G1 X159.382 Y43.545 E70.32591
G1 X160.357 Y45.555 E70.45592
G1 X161.382 Y47.759 E70.59740
G1 X162.330 Y49.891 E70.73314
G1 X163.205 Y51.946 E70.86315
G1 X164.084 Y54.107 E70.99889
G1 X164.962 Y56.374 E71.14037
G1 X165.735 Y58.470 E71.27037
G1 X166.506 Y60.671 E71.40611
G1 X167.241 Y62.885 E71.54186
G1 X167.969 Y65.204 E71.68333
G1 X168.602 Y67.347 E71.81334
G1 X169.228 Y69.594 E71.94909
G1 X169.840 Y71.947 E72.09056
G1 X170.367 Y74.118 E72.22058
G1 X170.881 Y76.393 E72.35632
G1 X171.377 Y78.773 E72.49779
G1 X171.796 Y80.967 E72.62780
G1 X172.197 Y83.265 E72.76354
G1 X172.575 Y85.666 E72.90502
G1 X172.886 Y87.879 E73.03503
G1 X173.173 Y90.193 E73.17077
G1 X173.432 Y92.611 E73.31225
G1 X173.634 Y94.836 E73.44226
G1 X173.807 Y97.162 E73.57801
G1 X173.942 Y99.490 E73.71374
G1 X174.038 Y101.821 E73.84948
G1 X174.097 Y104.153 E73.98522
G1 X174.117 Y106.485 E74.12097
G1 X173.738 Y108.634 E74.24793
G1 X172.280 Y110.855 E74.40257
G1 X90.280 Y189.855 E81.02887
G1 X88.460 Y191.058 E81.15584
G1 X86.117 Y191.534 E81.29495
G1 X70.117 Y191.534 E82.22607
G1 X67.972 Y191.138 E82.35303
G1 X66.110 Y190.000 E82.48000
G1 X64.778 Y188.272 E82.60696
G1 X64.350 Y187.188 E82.67478
G1 X46.115 Y123.598 E86.52455
G1 X45.883 Y121.944 E86.62174
G1 X45.883 Y42.944 E91.21914
G1 X46.280 Y40.799 E91.34610
G1 X47.386 Y38.988 E91.46958
G1 X47.911 Y39.140 F7800.000
G1 F2250
G1 X48.968 Y38.280 E91.54886
G1 X62.537 Y29.801 E92.47998
G1 X65.452 Y28.966 E92.65643
G1 X147.452 Y28.966 E97.42841
G1 X149.502 Y29.362 E97.54992
G1 X151.256 Y30.494 E97.67144
G1 X152.140 Y31.589 E97.75333
G1 X153.308 Y33.494 E97.88334
G1 X154.491 Y35.494 E98.01860
G1 X155.686 Y37.593 E98.15913
G1 X156.759 Y39.552 E98.28914
G1 X157.842 Y41.608 E98.42440
G1 X158.892 Y43.682 E98.55966
G1 X159.907 Y45.773 E98.69493
G1 X160.888 Y47.881 E98.83019
G1 X161.870 Y50.086 E98.97071
G1 X162.780 Y52.225 E99.10598
G1 X163.621 Y54.295 E99.23598
G1 X164.493 Y56.547 E99.37651
G1 X165.266 Y58.643 E99.50652
G1 X166.034 Y60.836 E99.64178
G1 X166.795 Y63.128 E99.78230
G1 X167.463 Y65.260 E99.91231
G1 X168.123 Y67.488 E100.04757
G1 X168.769 Y69.815 E100.18810
G1 X169.354 Y72.065 E100.32336
G1 X169.902 Y74.323 E100.45863
G1 X170.412 Y76.591 E100.59389
G1 X170.868 Y78.778 E100.72389
G1 X171.305 Y81.061 E100.85916
G1 X171.705 Y83.351 E100.99443
G1 X172.067 Y85.647 E101.12969
G1 X172.391 Y87.948 E101.26495
G1 X172.688 Y90.345 E101.40548
G1 X172.935 Y92.656 E101.54074
G1 X173.136 Y94.881 E101.67076
G1 X173.309 Y97.199 E101.80603
G1 X173.443 Y99.519 E101.94128
G1 X173.542 Y101.932 E102.08180
G1 X173.597 Y104.165 E102.21181
G1 X173.617 Y106.489 E102.34707
G1 X173.237 Y108.543 E102.46859
G1 X171.933 Y110.495 E102.60524
G1 X89.933 Y189.495 E109.23155
G1 X88.182 Y190.632 E109.35306
G1 X86.117 Y191.034 E109.47546
G1 X70.117 Y191.034 E110.40658
G1 X68.067 Y190.638 E110.52810
G1 X66.312 Y189.506 E110.64961
G1 X64.830 Y187.050 E110.81653
G1 X46.596 Y123.460 E114.66630
G1 X46.383 Y121.944 E114.75539
G1 X46.383 Y42.944 E119.35279
G1 X46.779 Y40.894 E119.47430
G1 X47.879 Y39.190 E119.59232
G1 F6240
G1 X48.968 Y38.280 E119.26814
G1 F6240
G1 X55.944 Y33.921 E117.38983
G1 F6240
G1 X55.944 Y33.921 E117.38983
G1 F6240
G1 X62.389 Y29.894 E115.65425
G1 F6240
G1 X62.389 Y29.894 E115.65425
G1 F6240
G1 X62.537 Y29.801 E115.61428
G1 F6240
G1 X65.452 Y28.966 E114.92189
G1 F6240
G1 X69.960 Y28.966 E113.89232
G1 E113.59232 F1500.00000
G92 E0
G1 X74.088 Y72.261 F7800.000
G1 E6.00000 F1500.00000
G1 F675
G1 X74.034 Y72.674 E6.02424
G1 X73.934 Y73.078 E6.04847
G1 X73.787 Y73.468 E6.07271
G1 X73.596 Y73.838 E6.09694
G1 X73.363 Y74.183 E6.12118
G1 X73.091 Y74.499 E6.14542
G1 X72.785 Y74.781 E6.16965
G1 X72.448 Y75.026 E6.19389
G1 X72.085 Y75.230 E6.21812
G1 X71.701 Y75.390 E6.24236
G1 X71.300 Y75.505 E6.26660
G1 X70.889 Y75.573 E6.29083
G1 X70.473 Y75.592 E6.31507
G1 X70.058 Y75.563 E6.33930
G1 X69.649 Y75.486 E6.36354
G1 X69.251 Y75.362 E6.38777
G1 X68.871 Y75.192 E6.41201
G1 X68.513 Y74.980 E6.43625
G1 X68.181 Y74.727 E6.46048
G1 X67.906 Y74.462 E6.48272
G1 X67.620 Y74.119 E6.50872
G1 X67.393 Y73.765 E6.53318
G1 X67.211 Y73.391 E6.55741
G1 X67.073 Y72.998 E6.58165
G1 X66.981 Y72.592 E6.60589
G1 X66.938 Y72.178 E6.63012
G1 X66.943 Y71.761 E6.65436
G1 X66.996 Y71.348 E6.67859
G1 X67.097 Y70.944 E6.70283
G1 X67.244 Y70.554 E6.72707
G1 X67.435 Y70.184 E6.75130
G1 X67.668 Y69.839 E6.77554
G1 X67.939 Y69.523 E6.79977
G1 X68.245 Y69.241 E6.82401
G1 X68.582 Y68.996 E6.84825
G1 X68.945 Y68.792 E6.87248
G1 X69.330 Y68.632 E6.89672
G1 X69.730 Y68.517 E6.92095
G1 X70.141 Y68.449 E6.94519
G1 X70.523 Y68.432 E6.96743
G1 X70.968 Y68.458 E6.99342
G1 X71.382 Y68.536 E7.01789
G1 X71.779 Y68.660 E7.04212
G1 X72.160 Y68.830 E7.06636
G1 X72.518 Y69.042 E7.09059
G1 X72.849 Y69.295 E7.11483
G1 X73.148 Y69.584 E7.13907
G1 X73.412 Y69.906 E7.16330
G1 X73.637 Y70.257 E7.18754
G1 X73.805 Y70.600 E7.20978
G1 X73.957 Y71.020 E7.23577
G1 X74.057 Y71.466 E7.26238
G1 X74.092 Y71.849 E7.28477
G1 X74.088 Y72.201 E7.30523
G1 X73.588 Y72.226 F7800.000
G1 F675
G1 X73.542 Y72.581 E7.32608
G1 X73.456 Y72.929 E7.34692
G1 X73.329 Y73.264 E7.36777
G1 X73.165 Y73.582 E7.38862
G1 X72.964 Y73.879 E7.40946
G1 X72.731 Y74.151 E7.43031
G1 X72.468 Y74.394 E7.45116
G1 X72.178 Y74.604 E7.47200
G1 X71.866 Y74.780 E7.49285
G1 X71.535 Y74.918 E7.51370
G1 X71.191 Y75.016 E7.53455
G1 X70.837 Y75.075 E7.55539
G1 X70.479 Y75.091 E7.57624
G1 X70.122 Y75.066 E7.59709
G1 X69.770 Y75.000 E7.61793
G1 X69.428 Y74.893 E7.63878
G1 X69.101 Y74.747 E7.65963
G1 X68.793 Y74.565 E7.68048
G1 X68.508 Y74.348 E7.70132
G1 X68.273 Y74.121 E7.72032
G1 X68.024 Y73.823 E7.74292
G1 X67.830 Y73.520 E7.76385
G1 X67.673 Y73.198 E7.78470
G1 X67.554 Y72.860 E7.80555
G1 X67.475 Y72.511 E7.82639
G1 X67.438 Y72.154 E7.84724
G1 X67.442 Y71.796 E7.86809
G1 X67.488 Y71.441 E7.88893
G1 X67.575 Y71.093 E7.90978
G1 X67.701 Y70.758 E7.93063
G1 X67.865 Y70.440 E7.95148
G1 X68.066 Y70.143 E7.97232
G1 X68.299 Y69.871 E7.99317
G1 X68.563 Y69.628 E8.01402
G1 X68.852 Y69.418 E8.03486
G1 X69.165 Y69.242 E8.05571
G1 X69.495 Y69.104 E8.07656
G1 X69.840 Y69.005 E8.09740
G1 X70.193 Y68.947 E8.11825
G1 X70.519 Y68.932 E8.13725
G1 X70.907 Y68.955 E8.15985
G1 X71.260 Y69.022 E8.18078
G1 X71.602 Y69.129 E8.20163
G1 X71.930 Y69.274 E8.22248
G1 X72.238 Y69.457 E8.24332
G1 X72.523 Y69.674 E8.26417
G1 X72.780 Y69.923 E8.28502
G1 X73.007 Y70.200 E8.30586
G1 X73.201 Y70.502 E8.32671
G1 X73.344 Y70.795 E8.34571
G1 X73.476 Y71.160 E8.36831
G1 X73.562 Y71.544 E8.39120
G1 X73.592 Y71.869 E8.41021
G1 X73.589 Y72.166 E8.42746
G1 X73.588 Y72.226 F7800.000
G1 F6240
G1 X73.588 Y72.226 E8.41376
G1 F6240
G1 X73.542 Y72.581 E8.33195
G1 F6240
G1 X73.456 Y72.929 E8.25014
G1 F6240
G1 X73.329 Y73.264 E8.16833
G1 F6240
G1 X73.165 Y73.582 E8.08653
G1 F6240
G1 X72.964 Y73.879 E8.00472
G1 F6240
G1 X72.731 Y74.151 E7.92291
G1 F6240
G1 X72.468 Y74.394 E7.84111
G1 F6240
G1 X72.178 Y74.604 E7.75930
G1 F6240
G1 X71.866 Y74.780 E7.67749
G1 F6240
G1 X71.535 Y74.918 E7.59569
G1 F6240
G1 X71.191 Y75.016 E7.51388
G1 F6240
G1 X70.837 Y75.075 E7.43207
G1 F6240
G1 X70.479 Y75.091 E7.35027
G1 F6240
G1 X70.122 Y75.066 E7.26846
G1 F6240
G1 X69.770 Y75.000 E7.18665
G1 F6240
G1 X69.428 Y74.893 E7.10485
G1 F6240
G1 X69.101 Y74.747 E7.02304
G1 F6240
G1 X68.793 Y74.565 E6.94123
G1 F6240
G1 X68.508 Y74.348 E6.85943
G1 F6240
G1 X68.273 Y74.121 E6.78488
G1 F6240
G1 X68.024 Y73.823 E6.69617
G1 F6240
G1 X67.830 Y73.520 E6.61405
G1 F6240
G1 X67.673 Y73.198 E6.53224
G1 F6240
G1 X67.554 Y72.860 E6.45043
G1 F6240
G1 X67.475 Y72.511 E6.36863
G1 F6240
G1 X67.438 Y72.154 E6.28682
G1 F6240
G1 X67.442 Y71.796 E6.20502
G1 F6240
G1 X67.488 Y71.441 E6.12321
G1 F6240
G1 X67.575 Y71.093 E6.04140
G1 F6240
G1 X67.701 Y70.758 E5.95960
G1 F6240
G1 X67.865 Y70.440 E5.87779
G1 F6240
G1 X68.066 Y70.143 E5.79598
G1 F6240
G1 X68.299 Y69.871 E5.71418
G1 F6240
G1 X68.563 Y69.628 E5.63237
G1 F6240
G1 X68.852 Y69.418 E5.55056
G1 F6240
G1 X69.165 Y69.242 E5.46875
G1 F6240
G1 X69.495 Y69.104 E5.38695
G1 F6240
G1 X69.840 Y69.005 E5.30514
G1 F6240
G1 X70.193 Y68.947 E5.22334
G1 F6240
G1 X70.519 Y68.932 E5.14879
G1 F6240
G1 X70.907 Y68.955 E5.06008
G1 F6240
G1 X71.260 Y69.022 E4.97796
G1 F6240
G1 X71.602 Y69.129 E4.89615
G1 F6240
G1 X71.930 Y69.274 E4.81434
G1 F6240
G1 X72.238 Y69.457 E4.73254
G1 F6240
G1 X72.523 Y69.674 E4.65073
G1 F6240
G1 X72.780 Y69.923 E4.56892
G1 F6240
G1 X73.007 Y70.200 E4.48712
G1 F6240
G1 X73.201 Y70.502 E4.40531
G1 F6240
G1 X73.344 Y70.795 E4.33076
G1 F6240
G1 X73.476 Y71.160 E4.24206
G1 F6240
G1 X73.562 Y71.544 E4.15223
G1 F6240
G1 X73.592 Y71.869 E4.07767
G1 F6240
G1 X73.589 Y72.166 E4.00997
G1 E2.42746 F1500.00000
G92 E0
G1 X74.327 Y71.830 F7800.000
G1 X77.430 Y72.229 F7800.000
G1 X77.529 Y74.470 F7800.000
G1 X77.161 Y76.978 F7800.000
G1 X76.413 Y79.574 F7800.000
G1 X75.620 Y81.498 F7800.000
G1 X73.127 Y80.217 F7800.000
G1 X70.042 Y78.101 F7800.000
G1 X68.486 Y76.556 F7800.000
G1 X67.456 Y75.090 F7800.000
G1 X67.353 Y74.579 F7800.000
G1 E6.00000 F1500.00000
G1 F1800
G1 X67.540 Y74.803 E6.01696
G1 X67.855 Y75.107 E6.04245
G1 X68.233 Y75.395 E6.07007
G1 X68.641 Y75.637 E6.09770
G1 X69.074 Y75.830 E6.12532
G1 X69.528 Y75.972 E6.15295
G1 X69.994 Y76.060 E6.18057
G1 X70.468 Y76.093 E6.20819
G1 X70.942 Y76.071 E6.23582
G1 X71.410 Y75.994 E6.26344
G1 X71.867 Y75.863 E6.29107
G1 X72.305 Y75.680 E6.31869
G1 X72.718 Y75.447 E6.34632
G1 X73.102 Y75.168 E6.37394
G1 X73.451 Y74.847 E6.40157
G1 X73.761 Y74.486 E6.42919
G1 X74.026 Y74.093 E6.45682
G1 X74.244 Y73.671 E6.48444
G1 X74.412 Y73.227 E6.51207
G1 X74.527 Y72.766 E6.53969
G1 X74.587 Y72.296 E6.56732
G1 X74.593 Y71.829 E6.59447
G1 X74.552 Y71.388 E6.62025
G1 X74.438 Y70.880 E6.65057
G1 X74.266 Y70.405 E6.67996
G1 X74.074 Y70.011 E6.70545
G1 X73.818 Y69.612 E6.73307
G1 X73.517 Y69.244 E6.76069
G1 X73.175 Y68.915 E6.78832
G1 X72.798 Y68.627 E6.81594
G1 X72.389 Y68.385 E6.84357
G1 X71.956 Y68.192 E6.87119
G1 X71.503 Y68.050 E6.89882
G1 X71.030 Y67.961 E6.92681
G1 X70.526 Y67.931 E6.95620
G1 X70.088 Y67.951 E6.98168
G1 X69.620 Y68.028 E7.00931
G1 X69.164 Y68.159 E7.03693
G1 X68.726 Y68.342 E7.06455
G1 X68.312 Y68.575 E7.09218
G1 X67.928 Y68.854 E7.11980
G1 X67.579 Y69.175 E7.14743
G1 X67.269 Y69.535 E7.17505
G1 X67.004 Y69.929 E7.20268
G1 X66.786 Y70.351 E7.23030
G1 X66.619 Y70.795 E7.25793
G1 X66.504 Y71.255 E7.28555
G1 X66.472 Y71.502 E7.30000
G1 X66.230 Y71.521 E7.31415
G1 X65.461 Y69.057 E7.46436
G1 X64.789 Y67.050 E7.58754
G1 X64.083 Y65.054 E7.71072
G1 X63.342 Y63.072 E7.83390
G1 X62.566 Y61.102 E7.95708
G1 X61.756 Y59.147 E8.08026
G1 X60.912 Y57.206 E8.20345
G1 X60.034 Y55.279 E8.32663
G1 X59.123 Y53.369 E8.44981
G1 X58.178 Y51.475 E8.57299
G1 X57.201 Y49.597 E8.69617
G1 X56.191 Y47.737 E8.81935
G1 X55.149 Y45.895 E8.94254
G1 X53.637 Y43.357 E9.11441
G1 X65.036 Y36.235 E9.89660
G1 X66.650 Y38.935 E10.07970
G1 X67.744 Y40.858 E10.20847
