; generated by Slic3r 1.3.1-dev on 2020-07-25 at 22:59:05

; external perimeters extrusion width = 0.44mm (2.13mm^3/s)
; perimeters extrusion width = 0.51mm (5.03mm^3/s)
; infill extrusion width = 0.50mm (6.16mm^3/s)
; solid infill extrusion width = 0.51mm (2.51mm^3/s)
; top infill extrusion width = 0.51mm (1.88mm^3/s)
; support material extrusion width = 0.44mm (5.32mm^3/s)

M190 S70 ; set bed temperature and wait for it to be reached
; Ender 3 Custom Start G-code
G92 E0 ; Reset Extruder
G28 ; Home all axes
;G29 ; perform auto level
;M500; store mesh
M155 S30
M420 L0 S1 T1 V1 Z1 ; enable mesh
M155 S3
G1 Z2.0 F3000 ; Move Z Axis up little to prevent scratching of Heat Bed
G1 X0.1 Y20 Z0.3 F5000.0 ; Move to start position
M109 S216
G1 X0.1 Y200.0 Z0.3 F1500.0 E15 ; Draw the first line
G1 X0.4 Y200.0 Z0.3 F5000.0 ; Move to side a little
G1 X0.4 Y20 Z0.3 F1500.0 E30 ; Draw the second line
G92 E0 ; Reset Extruder
G1 Z2.0 F3000 ; Move Z Axis up little to prevent scratching of Heat Bed
G1 X5 Y20 Z0.3 F5000.0 ; Move over to prevent blob squish

; Filament gcode

G21 ; set units to millimeters
G90 ; use absolute coordinates
M82 ; use absolute distances for extrusion
G92 E0
G92 E0
M106 S204
G1 E-6.00000 F1500.00000
G92 E0
G1 Z0.280 F7800.000
G1 X44.802 Y49.550 F7800.000
G1 E6.00000 F1500.00000
G1 F2250
G1 X46.727 Y48.187 E6.13790
G1 X49.751 Y47.500 E6.31927
G1 X114.717 Y47.502 E10.11887
G1 X173.120 Y48.920 E13.53562
G1 X175.434 Y49.374 E13.67352
G1 X177.466 Y50.570 E13.81143
G1 X178.985 Y52.372 E13.94933
G1 X179.820 Y54.578 E14.08724
G1 X179.950 Y55.918 E14.16597
G1 X179.950 Y107.083 E17.15844
G1 X179.552 Y109.408 E17.29635
G1 X177.900 Y112.032 E17.47774
G1 X122.000 Y167.945 E22.10185
G1 X119.305 Y170.542 E22.32072
G1 X117.356 Y171.868 E22.45862
G1 X114.450 Y172.500 E22.63254
G1 X49.650 Y172.500 E26.42243
G1 X47.326 Y172.103 E26.56033
G1 X44.700 Y170.449 E26.74178
G1 X42.100 Y167.849 E26.95683
G1 X40.738 Y165.925 E27.09473
G1 X40.050 Y162.900 E27.27617
G1 X40.050 Y57.200 E33.45813
G1 X40.447 Y54.876 E33.59604
G1 X42.101 Y52.250 E33.77755
G1 X44.760 Y49.592 E33.99741
G1 X45.156 Y49.903 F7800.000
G1 F2250
G1 X47.018 Y48.603 E34.13026
G1 X49.751 Y48.000 E34.29392
G1 X114.705 Y48.002 E38.09281
G1 X173.108 Y49.420 E41.50956
G1 X175.334 Y49.871 E41.64241
G1 X177.269 Y51.061 E41.77526
G1 X178.677 Y52.843 E41.90812
G1 X179.450 Y55.918 E42.09352
G1 X179.450 Y107.083 E45.08599
G1 X179.053 Y109.320 E45.21884
G1 X177.547 Y111.679 E45.38253
G1 X121.647 Y167.592 E50.00664
G1 X118.959 Y170.182 E50.22495
G1 X117.072 Y171.447 E50.35780
G1 X114.450 Y172.000 E50.51453
G1 X49.650 Y172.000 E54.30442
G1 X47.413 Y171.603 E54.43728
G1 X45.054 Y170.096 E54.60101
G1 X42.454 Y167.496 E54.81606
G1 X41.153 Y165.634 E54.94891
G1 X40.550 Y162.900 E55.11264
G1 X40.550 Y57.200 E61.29460
G1 X40.947 Y54.963 E61.42746
G1 X42.455 Y52.603 E61.59126
G1 X45.113 Y49.946 E61.81111
G1 X45.509 Y50.257 F7800.000
G1 F2250
G1 X47.307 Y49.021 E61.93871
G1 X49.751 Y48.500 E62.08486
G1 X114.547 Y48.500 E65.87451
G1 X173.096 Y49.920 E69.29978
G1 X175.231 Y50.368 E69.42738
G1 X177.064 Y51.551 E69.55498
G1 X178.354 Y53.310 E69.68258
G1 X178.950 Y55.918 E69.83900
G1 X178.950 Y107.083 E72.83147
G1 X178.553 Y109.229 E72.95907
G1 X177.193 Y111.325 E73.10524
G1 X121.293 Y167.238 E77.72935
G1 X118.612 Y169.822 E77.94710
G1 X116.792 Y171.024 E78.07470
G1 X114.450 Y171.500 E78.21444
G1 X49.650 Y171.500 E82.00433
G1 X47.505 Y171.103 E82.13193
G1 X45.407 Y169.743 E82.27814
G1 X42.807 Y167.143 E82.49319
G1 X41.571 Y165.345 E82.62079
G1 X41.050 Y162.900 E82.76700
G1 X41.050 Y57.200 E88.94896
G1 X41.447 Y55.055 E89.07656
G1 X42.808 Y52.957 E89.22283
G1 X45.467 Y50.299 E89.44268
G1 X45.863 Y50.610 F7800.000
G1 F2250
G1 X47.593 Y49.441 E89.56480
G1 X49.751 Y49.000 E89.69364
G1 X114.547 Y49.000 E93.48329
G1 X173.083 Y50.419 E96.90785
G1 X175.123 Y50.865 E97.02998
G1 X176.850 Y52.040 E97.15210
G1 X178.014 Y53.773 E97.27422
G1 X178.450 Y55.918 E97.40222
G1 X178.450 Y107.083 E100.39469
G1 X178.054 Y109.133 E100.51681
G1 X176.839 Y110.972 E100.64567
G1 X120.939 Y166.885 E105.26978
G1 X118.265 Y169.462 E105.48698
G1 X116.514 Y170.598 E105.60910
G1 X114.450 Y171.000 E105.73205
G1 X49.650 Y171.000 E109.52194
G1 X47.600 Y170.604 E109.64406
G1 X45.761 Y169.389 E109.77296
G1 X43.161 Y166.789 E109.98801
G1 X41.992 Y165.059 E110.11013
G1 X41.550 Y162.900 E110.23902
G1 X41.550 Y57.200 E116.42098
G1 X41.946 Y55.150 E116.54310
G1 X43.162 Y53.310 E116.67205
G1 X45.820 Y50.653 E116.89190
G1 F6240
G1 X47.593 Y49.441 E116.40161
G1 F6240
G1 X49.751 Y49.000 E115.89856
G1 F6240
G1 X70.361 Y49.000 E111.19190
G1 E110.89190 F1500.00000
G92 E0
G1 X168.051 Y96.539 F7800.000
G1 E6.00000 F1500.00000
G1 F2250
G1 X168.076 Y96.797 E6.01520
G1 X168.129 Y96.926 E6.02334
G1 X168.202 Y97.039 E6.03122
G1 X168.365 Y97.187 E6.04406
G1 X168.488 Y97.251 E6.05219
G1 X168.619 Y97.290 E6.06022
G1 X168.812 Y97.305 E6.07151
G1 X172.002 Y97.305 E6.25810
G1 X172.206 Y97.490 E6.27421
G1 X172.451 Y97.569 E6.28923
G1 X173.330 Y98.017 E6.34695
G1 X173.622 Y98.230 E6.36809
G1 X174.320 Y98.928 E6.42587
G1 X174.533 Y99.220 E6.44700
G1 X174.981 Y100.100 E6.50473
G1 X175.093 Y100.444 E6.52589
G1 X175.248 Y101.510 E6.58890
G1 X175.248 Y108.035 E6.97062
G1 X173.902 Y109.381 E7.08196
G1 X139.738 Y109.381 E9.08042
G1 X138.821 Y108.958 E9.13949
G1 X120.763 Y87.746 E10.76902
G1 X120.742 Y86.114 E10.86451
G1 X122.353 Y84.079 E11.01634
G1 X123.301 Y83.620 E11.07794
G1 X173.902 Y83.620 E14.03789
G1 X175.248 Y84.966 E14.14923
G1 X175.246 Y91.688 E14.54242
G1 X175.221 Y92.080 E14.56544
G1 X175.155 Y92.487 E14.58954
G1 X175.047 Y92.901 E14.61458
G1 X174.899 Y93.296 E14.63922
G1 X174.713 Y93.677 E14.66406
G1 X174.554 Y93.942 E14.68214
G1 X174.308 Y94.283 E14.70671
G1 X174.027 Y94.601 E14.73153
G1 X173.723 Y94.884 E14.75585
G1 X173.384 Y95.142 E14.78074
G1 X173.027 Y95.363 E14.80529
G1 X172.644 Y95.550 E14.83021
G1 X172.211 Y95.708 E14.85720
G1 X172.002 Y95.896 E14.87364
G1 X168.808 Y95.896 E15.06047
G1 X168.619 Y95.910 E15.07152
G1 X168.427 Y95.977 E15.08344
G1 X168.249 Y96.108 E15.09635
G1 X168.129 Y96.274 E15.10834
G1 X168.059 Y96.479 E15.12103
G1 X167.551 Y96.513 F7800.000
G1 F2250
G1 X167.554 Y96.723 E15.13331
G1 X167.597 Y96.943 E15.14641
G1 X167.642 Y97.066 E15.15406
G1 X167.754 Y97.274 E15.16792
G1 X167.895 Y97.446 E15.18091
G1 X168.076 Y97.596 E15.19464
G1 X168.395 Y97.749 E15.21536
G1 X168.627 Y97.796 E15.22920
G1 X168.799 Y97.805 E15.23929
G1 X171.795 Y97.805 E15.41451
G1 X171.893 Y97.903 E15.42262
G1 X171.967 Y97.941 E15.42748
G1 X172.258 Y98.032 E15.44536
G1 X173.067 Y98.445 E15.49848
G1 X173.296 Y98.611 E15.51502
G1 X173.939 Y99.254 E15.56820
G1 X174.105 Y99.483 E15.58474
G1 X174.518 Y100.292 E15.63786
G1 X174.605 Y100.561 E15.65442
G1 X174.748 Y101.529 E15.71168
G1 X174.748 Y107.828 E16.08013
G1 X173.695 Y108.881 E16.16724
G1 X139.848 Y108.881 E18.14716
G1 X139.130 Y108.550 E18.19337
G1 X121.261 Y87.562 E19.80580
G1 X121.244 Y86.285 E19.88050
G1 X122.674 Y84.479 E20.01524
G1 X123.416 Y84.120 E20.06344
G1 X173.695 Y84.120 E23.00457
G1 X174.748 Y85.173 E23.09168
G1 X174.748 Y91.623 E23.46897
G1 X174.733 Y91.931 E23.48703
G1 X174.683 Y92.297 E23.50863
G1 X174.598 Y92.656 E23.53018
G1 X174.475 Y93.013 E23.55227
G1 X174.320 Y93.351 E23.57403
G1 X174.131 Y93.674 E23.59594
G1 X173.914 Y93.975 E23.61767
G1 X173.665 Y94.255 E23.63958
G1 X173.325 Y94.564 E23.66641
G1 X173.096 Y94.733 E23.68308
G1 X172.780 Y94.928 E23.70478
G1 X172.361 Y95.126 E23.73194
G1 X171.957 Y95.260 E23.75684
G1 X171.895 Y95.295 E23.76100
G1 X171.795 Y95.396 E23.76929
G1 X168.796 Y95.396 E23.94470
G1 X168.509 Y95.422 E23.96156
G1 X168.179 Y95.542 E23.98209
G1 X167.895 Y95.754 E24.00282
G1 X167.687 Y96.038 E24.02342
G1 X167.601 Y96.246 E24.03658
G1 X167.557 Y96.454 E24.04899
G1 X167.052 Y96.488 F7800.000
G1 F2250
G1 X167.054 Y96.760 E24.06491
G1 X167.081 Y96.939 E24.07549
G1 X167.174 Y97.246 E24.09424
G1 X167.251 Y97.409 E24.10480
G1 X167.429 Y97.675 E24.12351
G1 X167.550 Y97.809 E24.13409
G1 X167.798 Y98.012 E24.15284
G1 X167.952 Y98.105 E24.16337
G1 X168.262 Y98.232 E24.18293
G1 X168.590 Y98.296 E24.20250
G1 X171.587 Y98.305 E24.37784
G1 X171.654 Y98.372 E24.38333
G1 X171.728 Y98.410 E24.38819
G1 X171.872 Y98.432 E24.39673
G1 X172.066 Y98.496 E24.40868
G1 X172.805 Y98.872 E24.45720
G1 X172.970 Y98.992 E24.46914
G1 X173.558 Y99.580 E24.51772
G1 X173.678 Y99.745 E24.52966
G1 X174.054 Y100.484 E24.57818
G1 X174.118 Y100.678 E24.59013
G1 X174.248 Y101.549 E24.64164
G1 X174.248 Y107.621 E24.99682
G1 X173.487 Y108.381 E25.05971
G1 X139.957 Y108.381 E27.02109
G1 X139.440 Y108.142 E27.05445
G1 X121.759 Y87.378 E28.64977
G1 X121.747 Y86.456 E28.70369
G1 X122.995 Y84.879 E28.82134
G1 X123.530 Y84.620 E28.85613
G1 X173.487 Y84.620 E31.77844
G1 X174.248 Y85.380 E31.84132
G1 X174.248 Y91.617 E32.20612
G1 X174.234 Y91.894 E32.22235
G1 X174.178 Y92.271 E32.24465
G1 X174.097 Y92.588 E32.26380
G1 X173.985 Y92.891 E32.28269
G1 X173.843 Y93.184 E32.30173
G1 X173.674 Y93.458 E32.32058
G1 X173.478 Y93.718 E32.33964
G1 X173.260 Y93.953 E32.35838
G1 X173.018 Y94.169 E32.37738
G1 X172.756 Y94.359 E32.39626
G1 X172.476 Y94.524 E32.41528
G1 X172.181 Y94.659 E32.43428
G1 X171.700 Y94.809 E32.46372
G1 X171.587 Y94.896 E32.47204
G1 X168.588 Y94.905 E32.64749
G1 X168.262 Y94.968 E32.66694
G1 X167.954 Y95.094 E32.68639
G1 X167.664 Y95.288 E32.70681
G1 X167.437 Y95.515 E32.72558
G1 X167.338 Y95.648 E32.73527
G1 X167.174 Y95.954 E32.75556
G1 X167.081 Y96.262 E32.77438
G1 X167.056 Y96.428 E32.78421
G1 X166.553 Y96.462 F7800.000
G1 F2250
G1 X166.556 Y96.809 E32.80451
G1 X166.590 Y97.037 E32.81795
G1 X166.712 Y97.437 E32.84244
G1 X166.810 Y97.644 E32.85586
G1 X167.042 Y97.993 E32.88035
G1 X167.196 Y98.163 E32.89377
G1 X167.520 Y98.429 E32.91829
G1 X167.717 Y98.546 E32.93169
G1 X168.116 Y98.711 E32.95696
G1 X168.541 Y98.794 E32.98227
G1 X171.380 Y98.805 E33.14837
G1 X171.489 Y98.878 E33.15603
G1 X171.755 Y98.920 E33.17176
G1 X171.874 Y98.959 E33.17911
G1 X172.543 Y99.300 E33.22302
G1 X172.645 Y99.374 E33.23036
G1 X173.176 Y99.905 E33.27434
G1 X173.250 Y100.007 E33.28168
G1 X173.591 Y100.676 E33.32560
G1 X173.630 Y100.795 E33.33294
G1 X173.748 Y101.569 E33.37871
G1 X173.748 Y107.414 E33.72063
G1 X173.280 Y107.881 E33.75928
G1 X140.067 Y107.881 E35.70212
G1 X139.749 Y107.734 E35.72262
G1 X122.503 Y87.489 E37.27829
G1 X122.256 Y87.194 E37.30084
G1 X122.249 Y86.627 E37.33398
G1 X123.316 Y85.279 E37.43454
G1 X123.645 Y85.120 E37.45592
G1 X173.280 Y85.120 E40.35941
G1 X173.748 Y85.587 E40.39806
G1 X173.747 Y91.630 E40.75156
G1 X173.732 Y91.895 E40.76705
G1 X173.634 Y92.392 E40.79668
G1 X173.542 Y92.652 E40.81284
G1 X173.408 Y92.937 E40.83124
G1 X173.265 Y93.170 E40.84724
G1 X173.099 Y93.391 E40.86339
G1 X172.741 Y93.749 E40.89305
G1 X172.520 Y93.915 E40.90920
G1 X172.287 Y94.058 E40.92520
G1 X172.038 Y94.178 E40.94137
G1 X171.744 Y94.283 E40.95963
G1 X171.456 Y94.352 E40.97695
G1 X171.380 Y94.396 E40.98205
G1 X168.540 Y94.407 E41.14821
G1 X168.116 Y94.489 E41.17346
G1 X167.718 Y94.653 E41.19865
G1 X167.346 Y94.901 E41.22477
G1 X167.050 Y95.197 E41.24928
G1 X166.914 Y95.381 E41.26266
G1 X166.717 Y95.750 E41.28715
G1 X166.643 Y95.955 E41.29988
G1 X166.556 Y96.402 E41.32653
G1 F6240
G1 X166.546 Y96.593 E41.28286
G1 F6240
G1 X166.546 Y96.607 E41.27980
G1 F6240
G1 X166.556 Y96.809 E41.23351
G1 F6240
G1 X166.558 Y96.822 E41.23065
G1 F6240
G1 X166.587 Y97.024 E41.18402
G1 F6240
G1 X166.590 Y97.037 E41.18101
G1 F6240
G1 X166.639 Y97.234 E41.13458
G1 F6240
G1 X166.643 Y97.246 E41.13168
G1 F6240
G1 X166.712 Y97.437 E41.08528
G1 F6240
G1 X166.717 Y97.449 E41.08231
G1 F6240
G1 X166.804 Y97.633 E41.03578
G1 F6240
G1 X166.810 Y97.644 E41.03291
G1 F6240
G1 X166.914 Y97.819 E40.98646
G1 F6240
G1 X166.921 Y97.830 E40.98345
G1 F6240
G1 X167.042 Y97.993 E40.93718
G1 F6240
G1 X167.050 Y98.003 E40.93423
G1 F6240
G1 X167.187 Y98.154 E40.88764
G1 F6240
G1 X167.196 Y98.163 E40.88476
G1 F6240
G1 X167.347 Y98.300 E40.83817
G1 F6240
G1 X167.357 Y98.308 E40.83522
G1 F6240
G1 X167.520 Y98.429 E40.78896
G1 F6240
G1 X167.531 Y98.436 E40.78594
G1 F6240
G1 X167.706 Y98.540 E40.73950
G1 F6240
G1 X167.717 Y98.546 E40.73663
G1 F6240
G1 X167.901 Y98.633 E40.69010
G1 F6240
G1 X167.913 Y98.638 E40.68713
G1 F6240
G1 X168.104 Y98.707 E40.64073
G1 F6240
G1 X168.116 Y98.711 E40.63784
G1 F6240
G1 X168.313 Y98.760 E40.59140
G1 F6240
G1 X168.326 Y98.763 E40.58839
G1 F6240
G1 X168.528 Y98.792 E40.54176
G1 F6240
G1 X168.541 Y98.794 E40.53890
G1 F6240
G1 X168.767 Y98.805 E40.48719
G1 F6240
G1 X168.774 Y98.805 E40.48566
G1 F6240
G1 X171.380 Y98.805 E39.89038
G1 F6240
G1 X171.415 Y98.840 E39.87915
G1 F6240
G1 X171.489 Y98.878 E39.86016
G1 F6240
G1 X171.755 Y98.920 E39.79873
G1 F6240
G1 X171.874 Y98.959 E39.77005
G1 F6240
G1 X171.952 Y98.998 E39.75016
G1 F6240
G1 X171.952 Y98.998 E39.75016
G1 F6240
G1 X172.543 Y99.300 E39.59861
G1 F6240
G1 X172.645 Y99.374 E39.56996
G1 F6240
G1 X173.115 Y99.844 E39.41814
G1 F6240
G1 X173.115 Y99.844 E39.41814
G1 F6240
G1 X173.176 Y99.905 E39.39826
G1 F6240
G1 X173.250 Y100.007 E39.36961
G1 F6240
G1 X173.552 Y100.598 E39.21806
G1 F6240
G1 X173.552 Y100.598 E39.21806
G1 F6240
G1 X173.591 Y100.676 E39.19816
G1 F6240
G1 X173.630 Y100.795 E39.16949
G1 F6240
G1 X173.734 Y101.451 E39.01782
G1 F6240
G1 X173.734 Y101.451 E39.01782
G1 F6240
G1 X173.743 Y101.506 E39.00510
G1 F6240
G1 X173.748 Y101.569 E38.99077
G1 F6240
G1 X173.748 Y107.414 E37.65595
G1 F6240
G1 X173.280 Y107.881 E37.50506
G1 F6240
G1 X165.054 Y107.881 E35.62653
G1 E35.32653 F1500.00000
G92 E0
G1 X168.332 Y96.727 F7800.000
G1 X168.750 Y96.600 F7800.000
G1 X174.645 Y96.613 F7800.000
G1 X175.622 Y94.258 F7800.000
G1 X175.928 Y92.193 F7800.000
G1 X175.950 Y82.500 F7800.000
G1 X174.950 Y82.500 F7800.000
G1 X173.248 Y85.794 F7800.000
G1 E6.00000 F1500.00000
G1 F2250
G1 X173.237 Y91.818 E6.35238
G1 X173.147 Y92.274 E6.37956
G1 X172.980 Y92.677 E6.40505
G1 X172.864 Y92.870 E6.41824
G1 X172.579 Y93.219 E6.44460
G1 X172.232 Y93.506 E6.47094
G1 X171.835 Y93.720 E6.49732
G1 X171.405 Y93.852 E6.52363
G1 X171.195 Y93.896 E6.53622
G1 X168.491 Y93.908 E6.69435
G1 X168.229 Y93.946 E6.70987
G1 X167.971 Y94.011 E6.72542
G1 X167.709 Y94.104 E6.74167
G1 X167.470 Y94.218 E6.75716
G1 X167.039 Y94.505 E6.78746
G1 X166.842 Y94.683 E6.80299
G1 X166.655 Y94.889 E6.81926
G1 X166.497 Y95.103 E6.83480
G1 X166.254 Y95.559 E6.86503
G1 X166.161 Y95.822 E6.88134
G1 X166.096 Y96.079 E6.89685
G1 X166.045 Y96.593 E6.92709
G1 X166.059 Y96.871 E6.94335
G1 X166.099 Y97.134 E6.95893
G1 X166.249 Y97.629 E6.98917
G1 X166.368 Y97.880 E7.00543
G1 X166.505 Y98.108 E7.02097
G1 X166.833 Y98.508 E7.05124
G1 X167.039 Y98.695 E7.06752
G1 X167.242 Y98.845 E7.08228
G1 X167.470 Y98.982 E7.09783
G1 X167.709 Y99.096 E7.11333
G1 X167.959 Y99.186 E7.12884
G1 X168.216 Y99.251 E7.14436
G1 X168.479 Y99.291 E7.15994
G1 X168.761 Y99.305 E7.17645
G1 X171.173 Y99.305 E7.31756
G1 X171.251 Y99.346 E7.32267
G1 X171.638 Y99.408 E7.34561
G1 X172.319 Y99.755 E7.39033
G1 X172.822 Y100.269 E7.43242
G1 X173.142 Y100.912 E7.47445
G1 X173.248 Y101.588 E7.51447
G1 X173.248 Y107.207 E7.84312
G1 X173.073 Y107.381 E7.85754
G1 X140.177 Y107.381 E9.78183
G1 X140.058 Y107.326 E9.78948
G1 X122.754 Y87.010 E11.35059
G1 X122.751 Y86.798 E11.36296
G1 X123.637 Y85.679 E11.44642
G1 X123.759 Y85.620 E11.45440
G1 X173.073 Y85.620 E14.33907
G1 X173.205 Y85.752 E14.34998
G1 F6240
G1 X173.248 Y91.604 E13.01360
G1 F6240
G1 X173.247 Y91.611 E13.01187
G1 F6240
G1 X173.247 Y91.623 E13.00927
G1 F6240
G1 X173.247 Y91.623 E13.00926
G1 F6240
G1 X173.237 Y91.818 E12.96453
G1 F6240
G1 X173.235 Y91.833 E12.96122
G1 F6240
G1 X173.206 Y92.026 E12.91651
G1 F6240
G1 X173.206 Y92.026 E12.91651
G1 F6240
G1 X173.204 Y92.041 E12.91319
G1 F6240
G1 X173.202 Y92.054 E12.91003
G1 F6240
G1 X173.155 Y92.245 E12.86528
G1 F6240
G1 X173.155 Y92.245 E12.86528
G1 F6240
G1 X173.151 Y92.260 E12.86177
G1 F6240
G1 X173.147 Y92.274 E12.85827
G1 F6240
G1 X173.142 Y92.289 E12.85479
G1 F6240
G1 X173.142 Y92.289 E12.85478
G1 F6240
G1 X173.076 Y92.472 E12.81024
G1 F6240
