; generated by Slic3r 1.3.1-dev on 2020-07-28 at 11:28:37

; external perimeters extrusion width = 0.44mm (2.83mm^3/s)
; perimeters extrusion width = 0.42mm (5.35mm^3/s)
; infill extrusion width = 0.42mm (6.68mm^3/s)
; solid infill extrusion width = 0.42mm (2.67mm^3/s)
; top infill extrusion width = 0.42mm (2.00mm^3/s)
; support material extrusion width = 0.44mm (7.08mm^3/s)

M190 S70 ; set bed temperature and wait for it to be reached
; Ender 3 Custom Start G-code
G92 E0 ; Reset Extruder
G28 ; Home all axes
;G29 ; perform auto level
;M500; store mesh
M155 S30
M420 L0 S1 T1 V1 Z1 ; enable mesh
M155 S3
G1 Z2.0 F3000 ; Move Z Axis up little to prevent scratching of Heat Bed
G1 X0.1 Y20 Z0.3 F5000.0 ; Move to start position
M109 S216
G1 X0.1 Y200.0 Z0.3 F1500.0 E15 ; Draw the first line
G1 X0.4 Y200.0 Z0.3 F5000.0 ; Move to side a little
G1 X0.4 Y20 Z0.3 F1500.0 E30 ; Draw the second line
G92 E0 ; Reset Extruder
G1 Z2.0 F3000 ; Move Z Axis up little to prevent scratching of Heat Bed
G1 X5 Y20 Z0.3 F5000.0 ; Move over to prevent blob squish

; Filament gcode

G21 ; set units to millimeters
G90 ; use absolute coordinates
M82 ; use absolute distances for extrusion
G92 E0
G92 E0
M106 S204
G1 E-6.00000 F1500.00000
G92 E0
G1 Z0.400 F7800.000
G1 X4.963 Y6.042 F7800.000
G1 E6.00000 F1500.00000
G1 F2250
G1 X6.984 Y5.034 E6.26962
G1 X8.800 Y4.772 E6.48861
G1 X195.200 Y4.772 E28.73713
G1 X197.424 Y5.169 E29.00675
G1 X199.373 Y6.310 E29.27637
G1 X200.807 Y8.056 E29.54599
G1 X201.467 Y9.768 E29.76498
G1 X203.067 Y16.768 E30.62204
G1 X219.103 Y96.939 E40.38082
G1 X219.228 Y98.200 E40.53203
G1 X219.228 Y164.800 E48.48134
G1 X218.831 Y167.024 E48.75096
G1 X217.690 Y168.973 E49.02058
G1 X215.944 Y170.407 E49.29020
G1 X214.295 Y171.052 E49.50158
G1 X30.295 Y215.052 E72.08284
G1 X28.800 Y215.228 E72.26253
G1 X7.200 Y215.228 E74.84068
G1 X4.976 Y214.831 E75.11030
G1 X3.027 Y213.690 E75.37992
G1 X1.593 Y211.944 E75.64954
G1 X0.772 Y208.800 E76.03744
G1 X0.772 Y18.200 E98.78727
G1 X0.933 Y16.768 E98.95932
G1 X2.533 Y9.768 E99.81638
G1 X3.416 Y7.688 E100.08600
G1 X4.922 Y6.086 E100.34846
G1 X5.589 Y6.473 F7800.000
G1 F2250
G1 X7.542 Y5.626 E100.60254
G1 X8.800 Y5.486 E100.75360
G1 X195.200 Y5.486 E123.00211
G1 X197.291 Y5.882 E123.25619
G1 X199.093 Y7.017 E123.51027
G1 X200.354 Y8.732 E123.76435
G1 X200.770 Y9.927 E123.91541
G1 X202.370 Y16.927 E124.77247
G1 X218.403 Y97.079 E134.52892
G1 X218.514 Y98.200 E134.66333
G1 X218.514 Y164.800 E142.61264
G1 X218.118 Y166.891 E142.86672
G1 X216.983 Y168.693 E143.12080
G1 X215.268 Y169.954 E143.37487
G1 X214.129 Y170.357 E143.51914
G1 X30.129 Y214.357 E166.10040
G1 X28.800 Y214.514 E166.26012
G1 X7.200 Y214.514 E168.83828
G1 X5.109 Y214.118 E169.09236
G1 X3.307 Y212.983 E169.34644
G1 X2.046 Y211.268 E169.60051
G1 X1.486 Y208.800 E169.90262
G1 X1.486 Y18.200 E192.65244
G1 X1.630 Y16.927 E192.80538
G1 X3.230 Y9.927 E193.66244
G1 X4.082 Y7.976 E193.91652
G1 X5.547 Y6.515 E194.16344
G1 F6240
G1 X7.542 Y5.626 E193.66454
G1 F6240
G1 X8.800 Y5.486 E193.37553
G1 F6240
G1 X30.310 Y5.486 E188.46344
G1 E188.16344 F1500.00000
G92 E0
G1 X10.628 Y20.028 F7800.000
G1 E6.00000 F1500.00000
G1 F1800
G1 X10.628 Y13.028 E6.83551
G1 X25.372 Y13.028 E8.59527
G1 X25.372 Y20.028 E9.43078
G1 X26.972 Y20.028 E9.62175
G1 X26.972 Y82.972 E17.13461
G1 X9.028 Y82.972 E19.27631
G1 X9.028 Y20.028 E26.78917
G1 X10.568 Y20.028 E26.97298
G1 X9.914 Y19.314 F7800.000
G1 F1800
G1 X9.914 Y12.314 E27.80850
G1 X26.086 Y12.314 E29.73873
G1 X26.086 Y19.314 E30.57425
G1 X27.686 Y19.314 E30.76522
G1 X27.686 Y83.686 E38.44856
G1 X8.314 Y83.686 E40.76075
G1 X8.314 Y19.314 E48.44409
G1 X9.854 Y19.314 E48.62790
G1 X9.200 Y18.600 F7800.000
G1 F900
G1 X9.200 Y11.600 E49.46341
G1 X26.800 Y11.600 E51.56413
G1 X26.800 Y18.600 E52.39964
G1 X28.400 Y18.600 E52.59062
G1 X28.400 Y84.400 E60.44444
G1 X7.600 Y84.400 E62.92711
G1 X7.600 Y18.600 E70.78093
G1 X9.140 Y18.600 E70.96475
G1 X9.548 Y18.403 F7800.000
G1 F6240
G1 X9.200 Y11.600 E69.36613
G1 F6240
G1 X26.800 Y11.600 E65.34690
G1 F6240
G1 X26.800 Y11.960 E65.26475
G1 E64.96475 F1500.00000
G92 E0
G1 X11.343 Y13.742 F7800.000
G1 E6.00000 F1500.00000
G1 F900
G1 X11.342 Y14.760 E6.12238
G1 X12.360 Y13.742 E6.29544
G1 X13.378 Y13.742 E6.41778
G1 X11.342 Y15.778 E6.76385
G1 X11.342 Y16.795 E6.88619
G1 X14.395 Y13.742 E7.40528
G1 X15.412 Y13.742 E7.52762
G1 X11.342 Y17.812 E8.21972
G1 X11.342 Y18.830 E8.34206
G1 X16.430 Y13.742 E9.20717
G1 X17.447 Y13.742 E9.32951
G1 X11.343 Y19.847 E10.36761
G1 X11.343 Y20.742 E10.47525
G1 X10.447 Y20.742 E10.58289
G1 X9.742 Y21.447 E10.70276
G1 X9.742 Y22.465 E10.82510
G1 X18.465 Y13.742 E12.30831
G1 X19.482 Y13.742 E12.43064
G1 X9.742 Y23.482 E14.08687
G1 X9.742 Y24.500 E14.20920
G1 X20.500 Y13.742 E16.03844
G1 X21.517 Y13.742 E16.16077
G1 X9.742 Y25.517 E18.16302
G1 X9.742 Y26.535 E18.28536
G1 X22.535 Y13.742 E20.46061
G1 X23.552 Y13.742 E20.58295
G1 X9.742 Y27.552 E22.93122
G1 X9.742 Y28.569 E23.05356
G1 X24.569 Y13.742 E25.57484
G1 X24.658 Y13.742 E25.58545
G1 X24.658 Y14.672 E25.69718
G1 X9.742 Y29.587 E28.23346
G1 X9.742 Y30.604 E28.35580
G1 X24.658 Y15.689 E30.89208
G1 X24.658 Y16.706 E31.01442
G1 X9.742 Y31.622 E33.55070
G1 X9.742 Y32.639 E33.67304
G1 X24.658 Y17.724 E36.20932
G1 X24.658 Y18.741 E36.33166
G1 X9.742 Y33.657 E38.86795
G1 X9.742 Y34.674 E38.99028
G1 X24.658 Y19.759 E41.52657
G1 X24.658 Y20.742 E41.64484
G1 X24.691 Y20.742 E41.64890
G1 X9.742 Y35.691 E44.19094
G1 X9.742 Y36.709 E44.31328
G1 X25.709 Y20.742 E47.02833
G1 X26.258 Y20.742 E47.09431
G1 X26.258 Y21.211 E47.15066
G1 X9.742 Y37.726 E49.95902
G1 X9.742 Y38.744 E50.08136
G1 X26.258 Y22.229 E52.88972
G1 X26.258 Y23.246 E53.01205
G1 X9.742 Y39.761 E55.82041
G1 X9.742 Y40.779 E55.94275
G1 X26.258 Y24.263 E58.75111
G1 X26.258 Y25.281 E58.87344
G1 X9.742 Y41.796 E61.68180
G1 X9.742 Y42.814 E61.80414
G1 X26.258 Y26.298 E64.61250
G1 X26.258 Y27.316 E64.73483
G1 X9.742 Y43.831 E67.54319
G1 X9.742 Y44.848 E67.66553
G1 X26.258 Y28.333 E70.47389
G1 X26.258 Y29.351 E70.59622
G1 X9.742 Y45.866 E73.40458
G1 X9.742 Y46.883 E73.52692
G1 X26.258 Y30.368 E76.33528
G1 X26.258 Y31.385 E76.45761
G1 X9.742 Y47.901 E79.26597
G1 X9.742 Y48.918 E79.38831
G1 X26.258 Y32.403 E82.19667
G1 X26.258 Y33.420 E82.31900
G1 X9.742 Y49.936 E85.12736
G1 X9.742 Y50.953 E85.24970
G1 X26.258 Y34.438 E88.05806
G1 X26.258 Y35.455 E88.18040
G1 X9.742 Y51.970 E90.98875
G1 X9.742 Y52.988 E91.11109
G1 X26.258 Y36.473 E93.91945
G1 X26.258 Y37.490 E94.04179
G1 X9.742 Y54.005 E96.85014
G1 X9.742 Y55.023 E96.97248
G1 X26.258 Y38.508 E99.78084
G1 X26.258 Y39.525 E99.90318
G1 X9.742 Y56.040 E102.71153
G1 X9.742 Y57.058 E102.83387
G1 X26.258 Y40.542 E105.64223
G1 X26.258 Y41.560 E105.76457
G1 X9.742 Y58.075 E108.57292
G1 X9.742 Y59.093 E108.69526
G1 X26.258 Y42.577 E111.50362
G1 X26.258 Y43.595 E111.62596
G1 X9.742 Y60.110 E114.43431
G1 X9.742 Y61.127 E114.55665
G1 X26.258 Y44.612 E117.36501
G1 X26.258 Y45.630 E117.48735
G1 X9.742 Y62.145 E120.29570
G1 X9.742 Y63.162 E120.41804
G1 X26.258 Y46.647 E123.22640
G1 X26.258 Y47.664 E123.34874
G1 X9.742 Y64.180 E126.15709
G1 X9.742 Y65.197 E126.27943
G1 X26.258 Y48.682 E129.08779
G1 X26.258 Y49.699 E129.21013
G1 X9.742 Y66.215 E132.01848
G1 X9.742 Y67.232 E132.14082
G1 X26.258 Y50.717 E134.94918
G1 X26.258 Y51.734 E135.07152
G1 X9.742 Y68.249 E137.87987
G1 X9.742 Y69.267 E138.00221
G1 X26.258 Y52.752 E140.81057
G1 X26.258 Y53.769 E140.93291
G1 X9.742 Y70.284 E143.74127
G1 X9.742 Y71.302 E143.86360
G1 X26.258 Y54.787 E146.67196
G1 X26.258 Y55.804 E146.79430
G1 X9.742 Y72.319 E149.60266
G1 X9.742 Y73.337 E149.72499
G1 X26.258 Y56.821 E152.53335
G1 X26.258 Y57.839 E152.65569
G1 X9.742 Y74.354 E155.46405
G1 X9.742 Y75.372 E155.58638
G1 X26.258 Y58.856 E158.39474
G1 X26.258 Y59.874 E158.51708
G1 X9.742 Y76.389 E161.32544
G1 X9.742 Y77.406 E161.44777
G1 X26.258 Y60.891 E164.25613
G1 X26.258 Y61.909 E164.37847
G1 X9.742 Y78.424 E167.18683
G1 X9.742 Y79.441 E167.30916
G1 X26.258 Y62.926 E170.11752
G1 X26.258 Y63.943 E170.23986
G1 X9.742 Y80.459 E173.04822
G1 X9.742 Y81.476 E173.17055
G1 X26.258 Y64.961 E175.97891
G1 X26.258 Y65.978 E176.10125
G1 X9.978 Y82.258 E178.86949
G1 X10.996 Y82.258 E178.99182
G1 X26.258 Y66.996 E181.58705
G1 X26.258 Y68.013 E181.70939
G1 X12.013 Y82.258 E184.13160
G1 X13.031 Y82.258 E184.25394
G1 X26.258 Y69.031 E186.50314
G1 X26.258 Y70.048 E186.62547
G1 X14.048 Y82.258 E188.70166
G1 X15.066 Y82.258 E188.82400
G1 X26.258 Y71.066 E190.72718
G1 X26.258 Y72.083 E190.84952
G1 X16.083 Y82.258 E192.57968
G1 X17.100 Y82.258 E192.70202
G1 X26.258 Y73.100 E194.25917
G1 X26.258 Y74.118 E194.38151
G1 X18.118 Y82.258 E195.76565
G1 X19.135 Y82.258 E195.88799
G1 X26.258 Y75.135 E197.09912
G1 X26.258 Y76.153 E197.22146
G1 X20.153 Y82.258 E198.25958
G1 X21.170 Y82.258 E198.38192
G1 X26.258 Y77.170 E199.24702
G1 X26.258 Y78.188 E199.36936
G1 X22.188 Y82.258 E200.06146
G1 X23.205 Y82.258 E200.18379
G1 X26.258 Y79.205 E200.70288
G1 X26.258 Y80.222 E200.82522
G1 X24.222 Y82.258 E201.17129
G1 X25.240 Y82.258 E201.29362
G1 X26.258 Y81.240 E201.46668
G1 X26.257 Y82.258 E201.58906
G1 F6240
G1 X26.258 Y81.240 E201.35664
G1 F6240
G1 X25.240 Y82.258 E201.02796
G1 F6240
G1 X24.222 Y82.258 E200.79562
G1 F6240
G1 X26.258 Y80.222 E200.13835
G1 F6240
G1 X26.258 Y79.205 E199.90600
G1 F6240
G1 X23.205 Y82.258 E198.92014
G1 F6240
G1 X22.188 Y82.258 E198.68779
G1 F6240
G1 X26.258 Y78.188 E197.37335
G1 F6240
G1 X26.258 Y77.170 E197.14100
G1 F6240
G1 X22.381 Y81.047 E195.88906
G1 E195.58906 F1500.00000
G92 E0
G1 Z0.400 F7800.000
G1 Z0.400 F7800.000
G1 X30.800 Y16.200 F7800.000
G1 X33.200 Y16.200 F7800.000
G1 X33.200 Y14.600 F7800.000
G1 X38.628 Y20.028 F7800.000
G1 E6.00000 F1500.00000
G1 F1800
G1 X38.628 Y13.028 E6.83551
G1 X53.372 Y13.028 E8.59527
G1 X53.372 Y20.028 E9.43078
G1 X54.972 Y20.028 E9.62175
G1 X54.972 Y82.972 E17.13461
G1 X37.028 Y82.972 E19.27631
G1 X37.028 Y20.028 E26.78917
G1 X38.568 Y20.028 E26.97298
G1 X37.914 Y19.314 F7800.000
G1 F1800
G1 X37.914 Y12.314 E27.80850
G1 X54.086 Y12.314 E29.73873
G1 X54.086 Y19.314 E30.57425
G1 X55.686 Y19.314 E30.76522
G1 X55.686 Y83.686 E38.44856
G1 X36.314 Y83.686 E40.76075
G1 X36.314 Y19.314 E48.44409
G1 X37.854 Y19.314 E48.62790
G1 X37.200 Y18.600 F7800.000
G1 F900
G1 X37.200 Y11.600 E49.46341
G1 X54.800 Y11.600 E51.56413
G1 X54.800 Y18.600 E52.39964
G1 X56.400 Y18.600 E52.59062
G1 X56.400 Y84.400 E60.44444
G1 X35.600 Y84.400 E62.92711
G1 X35.600 Y18.600 E70.78093
G1 X37.140 Y18.600 E70.96474
G1 X37.548 Y18.403 F7800.000
G1 F6240
G1 X37.200 Y11.600 E69.36613
G1 F6240
G1 X54.800 Y11.600 E65.34690
G1 F6240
G1 X54.800 Y11.960 E65.26474
G1 E64.96474 F1500.00000
G92 E0
G1 X39.343 Y13.742 F7800.000
G1 E6.00000 F1500.00000
G1 F900
G1 X39.342 Y14.760 E6.12238
G1 X40.360 Y13.742 E6.29544
G1 X41.378 Y13.742 E6.41778
G1 X39.342 Y15.778 E6.76385
G1 X39.342 Y16.795 E6.88619
G1 X42.395 Y13.742 E7.40528
G1 X43.412 Y13.742 E7.52762
G1 X39.342 Y17.812 E8.21972
G1 X39.342 Y18.830 E8.34206
G1 X44.430 Y13.742 E9.20717
G1 X45.447 Y13.742 E9.32951
G1 X39.343 Y19.847 E10.36761
G1 X39.343 Y20.742 E10.47525
G1 X38.447 Y20.742 E10.58289
G1 X37.742 Y21.447 E10.70276
G1 X37.742 Y22.465 E10.82510
G1 X46.465 Y13.742 E12.30831
G1 X47.482 Y13.742 E12.43064
G1 X37.742 Y23.482 E14.08686
G1 X37.742 Y24.500 E14.20920
G1 X48.500 Y13.742 E16.03843
G1 X49.517 Y13.742 E16.16077
G1 X37.742 Y25.517 E18.16302
G1 X37.742 Y26.535 E18.28536
G1 X50.535 Y13.742 E20.46061
G1 X51.552 Y13.742 E20.58295
G1 X37.742 Y27.552 E22.93122
G1 X37.742 Y28.569 E23.05356
G1 X52.569 Y13.742 E25.57484
G1 X52.658 Y13.742 E25.58544
G1 X52.658 Y14.672 E25.69717
G1 X37.742 Y29.587 E28.23346
G1 X37.742 Y30.604 E28.35579
G1 X52.658 Y15.689 E30.89208
G1 X52.658 Y16.706 E31.01441
G1 X37.742 Y31.622 E33.55070
G1 X37.742 Y32.639 E33.67303
G1 X52.658 Y17.724 E36.20932
G1 X52.658 Y18.741 E36.33166
G1 X37.742 Y33.657 E38.86794
G1 X37.742 Y34.674 E38.99028
G1 X52.658 Y19.759 E41.52656
G1 X52.658 Y20.742 E41.64483
G1 X52.691 Y20.742 E41.64890
G1 X37.742 Y35.691 E44.19093
G1 X37.742 Y36.709 E44.31327
G1 X53.709 Y20.742 E47.02832
G1 X54.258 Y20.742 E47.09430
G1 X54.258 Y21.211 E47.15066
G1 X37.742 Y37.726 E49.95901
G1 X37.742 Y38.744 E50.08135
G1 X54.258 Y22.229 E52.88971
G1 X54.258 Y23.246 E53.01205
G1 X37.742 Y39.761 E55.82040
G1 X37.742 Y40.779 E55.94274
G1 X54.258 Y24.263 E58.75110
G1 X54.258 Y25.281 E58.87344
G1 X37.742 Y41.796 E61.68179
G1 X37.742 Y42.814 E61.80413
G1 X54.258 Y26.298 E64.61249
G1 X54.258 Y27.316 E64.73482
G1 X37.742 Y43.831 E67.54318
G1 X37.742 Y44.848 E67.66552
G1 X54.258 Y28.333 E70.47388
G1 X54.258 Y29.351 E70.59621
G1 X37.742 Y45.866 E73.40457
G1 X37.742 Y46.883 E73.52691
G1 X54.258 Y30.368 E76.33527
G1 X54.258 Y31.385 E76.45760
G1 X37.742 Y47.901 E79.26596
G1 X37.742 Y48.918 E79.38830
G1 X54.258 Y32.403 E82.19666
G1 X54.258 Y33.420 E82.31899
G1 X37.742 Y49.936 E85.12735
G1 X37.742 Y50.953 E85.24969
G1 X54.258 Y34.438 E88.05805
G1 X54.258 Y35.455 E88.18038
G1 X37.742 Y51.970 E90.98874
G1 X37.742 Y52.988 E91.11108
G1 X54.258 Y36.473 E93.91944
G1 X54.258 Y37.490 E94.04177
G1 X37.742 Y54.005 E96.85013
G1 X37.742 Y55.023 E96.97247
G1 X54.258 Y38.508 E99.78083
G1 X54.258 Y39.525 E99.90316
G1 X37.742 Y56.040 E102.71152
G1 X37.742 Y57.058 E102.83386
G1 X54.258 Y40.542 E105.64222
G1 X54.258 Y41.560 E105.76455
G1 X37.742 Y58.075 E108.57291
G1 X37.742 Y59.093 E108.69525
G1 X54.258 Y42.577 E111.50360
G1 X54.258 Y43.595 E111.62594
G1 X37.742 Y60.110 E114.43430
G1 X37.742 Y61.127 E114.55664
G1 X54.258 Y44.612 E117.36499
G1 X54.258 Y45.630 E117.48733
G1 X37.742 Y62.145 E120.29569
G1 X37.742 Y63.162 E120.41803
G1 X54.258 Y46.647 E123.22638
G1 X54.258 Y47.664 E123.34872
G1 X37.742 Y64.180 E126.15708
G1 X37.742 Y65.197 E126.27942
G1 X54.258 Y48.682 E129.08777
G1 X54.258 Y49.699 E129.21011
G1 X37.742 Y66.215 E132.01847
G1 X37.742 Y67.232 E132.14081
G1 X54.258 Y50.717 E134.94916
G1 X54.258 Y51.734 E135.07150
G1 X37.742 Y68.249 E137.87986
G1 X37.742 Y69.267 E138.00220
G1 X54.258 Y52.752 E140.81055
G1 X54.258 Y53.769 E140.93289
G1 X37.742 Y70.284 E143.74125
G1 X37.742 Y71.302 E143.86359
G1 X54.258 Y54.787 E146.67194
G1 X54.258 Y55.804 E146.79428
G1 X37.742 Y72.319 E149.60264
G1 X37.742 Y73.337 E149.72498
G1 X54.258 Y56.821 E152.53333
G1 X54.258 Y57.839 E152.65567
G1 X37.742 Y74.354 E155.46403
G1 X37.742 Y75.371 E155.58637
G1 X54.258 Y58.856 E158.39472
G1 X54.258 Y59.874 E158.51706
G1 X37.742 Y76.389 E161.32542
G1 X37.742 Y77.406 E161.44776
G1 X54.258 Y60.891 E164.25611
G1 X54.258 Y61.909 E164.37845
G1 X37.742 Y78.424 E167.18681
G1 X37.742 Y79.441 E167.30915
G1 X54.258 Y62.926 E170.11750
G1 X54.258 Y63.943 E170.23984
G1 X37.742 Y80.459 E173.04820
G1 X37.742 Y81.476 E173.17053
G1 X54.258 Y64.961 E175.97889
G1 X54.258 Y65.978 E176.10123
G1 X37.978 Y82.258 E178.86947
G1 X38.996 Y82.258 E178.99180
G1 X54.258 Y66.996 E181.58703
G1 X54.258 Y68.013 E181.70937
G1 X40.013 Y82.258 E184.13158
G1 X41.031 Y82.258 E184.25392
G1 X54.258 Y69.031 E186.50312
G1 X54.258 Y70.048 E186.62545
G1 X42.048 Y82.258 E188.70164
G1 X43.066 Y82.258 E188.82398
G1 X54.258 Y71.066 E190.72716
G1 X54.258 Y72.083 E190.84950
G1 X44.083 Y82.258 E192.57966
G1 X45.100 Y82.258 E192.70200
G1 X54.258 Y73.100 E194.25915
G1 X54.258 Y74.118 E194.38149
G1 X46.118 Y82.258 E195.76563
G1 X47.135 Y82.258 E195.88797
G1 X54.258 Y75.135 E197.09910
G1 X54.258 Y76.153 E197.22144
G1 X48.153 Y82.258 E198.25956
G1 X49.170 Y82.258 E198.38190
G1 X54.258 Y77.170 E199.24700
G1 X54.258 Y78.188 E199.36934
G1 X50.188 Y82.258 E200.06144
G1 X51.205 Y82.258 E200.18377
G1 X54.258 Y79.205 E200.70286
G1 X54.258 Y80.222 E200.82519
G1 X52.222 Y82.258 E201.17127
G1 X53.240 Y82.258 E201.29360
G1 X54.258 Y81.240 E201.46666
G1 X54.257 Y82.258 E201.58904
G1 F6240
G1 X54.258 Y81.240 E201.35662
G1 F6240
G1 X53.240 Y82.258 E201.02794
G1 F6240
G1 X52.222 Y82.258 E200.79560
G1 F6240
G1 X54.258 Y80.222 E200.13833
G1 F6240
G1 X54.258 Y79.205 E199.90598
G1 F6240
G1 X51.205 Y82.258 E198.92012
G1 F6240
G1 X50.188 Y82.258 E198.68777
G1 F6240
G1 X54.258 Y78.188 E197.37332
G1 F6240
G1 X54.258 Y77.170 E197.14098
