; generated by Slic3r 1.3.1-dev on 2020-07-27 at 16:07:00

; external perimeters extrusion width = 0.44mm (2.13mm^3/s)
; perimeters extrusion width = 0.51mm (5.03mm^3/s)
; infill extrusion width = 0.50mm (6.16mm^3/s)
; solid infill extrusion width = 0.51mm (2.51mm^3/s)
; top infill extrusion width = 0.51mm (1.88mm^3/s)
; support material extrusion width = 0.44mm (5.32mm^3/s)

M190 S70 ; set bed temperature and wait for it to be reached
; Ender 3 Custom Start G-code
G92 E0 ; Reset Extruder
G28 ; Home all axes
;G29 ; perform auto level
;M500; store mesh
M155 S30
M420 L0 S1 T1 V1 Z1 ; enable mesh
M155 S3
G1 Z2.0 F3000 ; Move Z Axis up little to prevent scratching of Heat Bed
G1 X0.1 Y20 Z0.3 F5000.0 ; Move to start position
M109 S216
G1 X0.1 Y200.0 Z0.3 F1500.0 E15 ; Draw the first line
G1 X0.4 Y200.0 Z0.3 F5000.0 ; Move to side a little
G1 X0.4 Y20 Z0.3 F1500.0 E30 ; Draw the second line
G92 E0 ; Reset Extruder
G1 Z2.0 F3000 ; Move Z Axis up little to prevent scratching of Heat Bed
G1 X5 Y20 Z0.3 F5000.0 ; Move over to prevent blob squish

; Filament gcode

G21 ; set units to millimeters
G90 ; use absolute coordinates
M82 ; use absolute distances for extrusion
G92 E0
G92 E0
M106 S204
G1 E-6.00000 F1500.00000
G92 E0
G1 Z0.280 F7800.000
G1 X75.373 Y87.164 F7800.000
G1 E6.00000 F1500.00000
G1 F2250
G1 X76.501 Y86.393 E6.07988
G1 X82.886 Y82.707 E6.51110
G1 X85.376 Y81.728 E6.66759
G1 X87.386 Y81.501 E6.78585
G1 X119.542 Y81.501 E8.66654
G1 X120.388 Y81.537 E8.71607
G1 X121.281 Y81.646 E8.76870
G1 X122.202 Y81.838 E8.82371
G1 X131.165 Y84.239 E9.36637
G1 X132.124 Y84.550 E9.42534
G1 X132.887 Y84.871 E9.47375
G1 X133.382 Y85.116 E9.50606
G1 X134.109 Y85.536 E9.55517
G1 X134.561 Y85.837 E9.58695
G1 X135.231 Y86.345 E9.63613
G1 X135.636 Y86.694 E9.66740
G1 X136.042 Y87.082 E9.70023
G1 X142.418 Y93.458 E10.22759
G1 X142.806 Y93.865 E10.26049
G1 X143.155 Y94.269 E10.29174
G1 X143.664 Y94.939 E10.34092
G1 X144.208 Y95.798 E10.40038
G1 X144.593 Y96.535 E10.44903
G1 X144.811 Y97.026 E10.48041
G1 X145.102 Y97.808 E10.52923
G1 X145.239 Y98.255 E10.55656
G1 X147.619 Y107.133 E11.09415
G1 X147.750 Y107.674 E11.12673
G1 X147.853 Y108.214 E11.15888
G1 X147.956 Y109.028 E11.20687
G1 X147.991 Y109.581 E11.23924
G1 X147.991 Y110.419 E11.28827
G1 X147.907 Y111.420 E11.34700
G1 X147.768 Y112.244 E11.39587
G1 X147.662 Y112.702 E11.42335
G1 X145.285 Y121.577 E11.96071
G1 X145.129 Y122.110 E11.99321
G1 X144.950 Y122.624 E12.02504
G1 X144.628 Y123.389 E12.07357
G1 X144.383 Y123.884 E12.10588
G1 X143.964 Y124.608 E12.15483
G1 X143.663 Y125.062 E12.18665
G1 X143.157 Y125.729 E12.23562
G1 X142.801 Y126.140 E12.26745
G1 X136.042 Y132.918 E12.82728
G1 X135.636 Y133.306 E12.86011
G1 X135.231 Y133.655 E12.89139
G1 X134.561 Y134.164 E12.94059
G1 X133.715 Y134.701 E12.99923
G1 X132.965 Y135.093 E13.04869
G1 X132.477 Y135.310 E13.07991
G1 X131.699 Y135.600 E13.12850
G1 X131.245 Y135.739 E13.15626
G1 X121.831 Y138.249 E13.72609
G1 X121.286 Y138.353 E13.75855
G1 X120.471 Y138.456 E13.80656
G1 X119.919 Y138.491 E13.83892
G1 X119.081 Y138.491 E13.88795
G1 X118.528 Y138.456 E13.92032
G1 X117.714 Y138.353 E13.96830
G1 X117.174 Y138.250 E14.00046
G1 X116.633 Y138.119 E14.03304
G1 X107.755 Y135.739 E14.57063
G1 X106.956 Y135.479 E14.61975
G1 X106.522 Y135.309 E14.64699
G1 X105.618 Y134.884 E14.70545
G1 X104.901 Y134.470 E14.75385
G1 X104.508 Y134.211 E14.78138
G1 X104.064 Y133.889 E14.81348
G1 X103.487 Y133.416 E14.85709
G1 X75.045 Y108.306 E17.07607
G1 X73.324 Y106.257 E17.23256
G1 X72.282 Y103.792 E17.38906
G1 X72.001 Y101.560 E17.52066
G1 X72.001 Y94.187 E17.95188
G1 X72.399 Y91.541 E18.10837
G1 X73.557 Y89.129 E18.26486
G1 X75.332 Y87.208 E18.41784
G1 X76.751 Y86.826 F7800.000
G1 F2250
G1 X83.136 Y83.140 E18.84906
G1 X85.560 Y82.199 E19.00112
G1 X87.386 Y82.001 E19.10853
G1 X119.542 Y82.001 E20.98922
G1 X120.346 Y82.035 E21.03627
G1 X121.199 Y82.139 E21.08652
G1 X122.077 Y82.322 E21.13902
G1 X131.111 Y84.743 E21.68600
G1 X131.535 Y84.873 E21.71194
G1 X132.283 Y85.151 E21.75863
G1 X132.753 Y85.360 E21.78868
G1 X133.465 Y85.732 E21.83566
G1 X133.912 Y86.003 E21.86623
G1 X134.567 Y86.458 E21.91289
G1 X134.977 Y86.784 E21.94351
G1 X135.567 Y87.315 E21.98998
G1 X142.065 Y93.811 E22.52733
G1 X142.491 Y94.261 E22.56357
G1 X142.989 Y94.864 E22.60933
G1 X143.300 Y95.292 E22.64025
G1 X143.545 Y95.663 E22.66626
G1 X143.940 Y96.348 E22.71249
G1 X144.176 Y96.824 E22.74355
G1 X144.481 Y97.550 E22.78963
G1 X144.654 Y98.048 E22.82048
G1 X144.802 Y98.553 E22.85123
G1 X147.261 Y107.778 E23.40963
G1 X147.360 Y108.297 E23.44054
G1 X147.458 Y109.071 E23.48613
G1 X147.492 Y109.602 E23.51725
G1 X147.492 Y110.398 E23.56382
G1 X147.411 Y111.357 E23.62011
G1 X147.279 Y112.140 E23.66653
G1 X147.178 Y112.577 E23.69276
G1 X144.780 Y121.531 E24.23490
G1 X144.627 Y122.035 E24.26570
G1 X144.349 Y122.784 E24.31243
G1 X144.140 Y123.252 E24.34242
G1 X143.768 Y123.964 E24.38942
G1 X143.497 Y124.411 E24.41998
G1 X143.041 Y125.067 E24.46670
G1 X142.716 Y125.478 E24.49733
G1 X142.187 Y126.065 E24.54356
G1 X135.689 Y132.565 E25.08110
G1 X135.239 Y132.990 E25.11728
G1 X134.633 Y133.491 E25.16327
G1 X134.207 Y133.801 E25.19410
G1 X133.547 Y134.221 E25.23987
G1 X133.150 Y134.441 E25.26639
G1 X132.677 Y134.676 E25.29730
G1 X131.952 Y134.980 E25.34326
G1 X131.456 Y135.153 E25.37398
G1 X130.947 Y135.302 E25.40501
G1 X121.727 Y137.760 E25.96310
G1 X121.203 Y137.860 E25.99430
G1 X120.429 Y137.958 E26.03992
G1 X119.898 Y137.992 E26.07102
G1 X119.102 Y137.992 E26.11760
G1 X118.143 Y137.911 E26.17390
G1 X117.360 Y137.779 E26.22031
G1 X116.923 Y137.678 E26.24656
G1 X107.976 Y135.281 E26.78827
G1 X107.464 Y135.127 E26.81954
G1 X106.716 Y134.849 E26.86621
G1 X106.248 Y134.640 E26.89619
G1 X105.542 Y134.272 E26.94277
G1 X104.724 Y133.753 E26.99939
G1 X104.366 Y133.491 E27.02536
G1 X103.818 Y133.041 E27.06681
G1 X75.375 Y107.932 E29.28580
G1 X73.712 Y105.933 E29.43785
G1 X72.731 Y103.525 E29.58991
G1 X72.501 Y101.560 E29.70565
G1 X72.501 Y94.187 E30.13687
G1 X72.899 Y91.618 E30.28893
G1 X74.054 Y89.289 E30.44098
G1 X76.706 Y86.867 E30.65104
G1 X77.001 Y87.259 F7800.000
G1 F2250
G1 X83.386 Y83.573 E31.08226
G1 X85.741 Y82.672 E31.22975
G1 X87.386 Y82.501 E31.32643
G1 X119.542 Y82.501 E33.20712
G1 X120.303 Y82.533 E33.25170
G1 X121.116 Y82.632 E33.29957
G1 X121.953 Y82.806 E33.34955
G1 X130.896 Y85.202 E33.89106
G1 X131.775 Y85.487 E33.94511
G1 X132.462 Y85.776 E33.98869
G1 X132.919 Y86.002 E34.01850
G1 X133.573 Y86.380 E34.06269
G1 X133.991 Y86.658 E34.09203
G1 X134.594 Y87.115 E34.13629
G1 X134.967 Y87.438 E34.16517
G1 X142.063 Y94.533 E34.75204
G1 X142.385 Y94.907 E34.78090
G1 X142.843 Y95.510 E34.82516
G1 X143.341 Y96.297 E34.87965
G1 X143.688 Y96.960 E34.92343
G1 X143.889 Y97.413 E34.95242
G1 X144.151 Y98.117 E34.99636
G1 X144.276 Y98.523 E35.02120
G1 X146.772 Y107.882 E35.58769
G1 X146.867 Y108.380 E35.61736
G1 X146.960 Y109.113 E35.66056
G1 X146.992 Y109.623 E35.69043
G1 X146.992 Y110.377 E35.73455
G1 X146.915 Y111.294 E35.78839
G1 X146.790 Y112.036 E35.83237
G1 X146.694 Y112.452 E35.85734
G1 X144.320 Y121.318 E36.39413
G1 X144.178 Y121.801 E36.42357
G1 X144.013 Y122.275 E36.45295
G1 X143.723 Y122.964 E36.49664
G1 X143.497 Y123.420 E36.52644
G1 X143.120 Y124.073 E36.57050
G1 X142.842 Y124.491 E36.59987
G1 X142.387 Y125.091 E36.64395
G1 X142.058 Y125.472 E36.67332
G1 X134.967 Y132.562 E37.25981
G1 X134.593 Y132.885 E37.28870
G1 X133.990 Y133.343 E37.33298
G1 X133.214 Y133.835 E37.38674
G1 X132.540 Y134.188 E37.43125
G1 X132.089 Y134.388 E37.46009
G1 X131.389 Y134.649 E37.50383
G1 X130.976 Y134.776 E37.52905
G1 X121.623 Y137.271 E38.09524
G1 X121.120 Y137.367 E38.12518
G1 X120.387 Y137.460 E38.16841
G1 X119.877 Y137.492 E38.19826
G1 X119.123 Y137.492 E38.24238
G1 X118.613 Y137.460 E38.27225
G1 X117.880 Y137.367 E38.31545
G1 X117.382 Y137.272 E38.34511
G1 X116.892 Y137.153 E38.37462
G1 X108.023 Y134.776 E38.91162
G1 X107.304 Y134.542 E38.95582
G1 X106.910 Y134.388 E38.98058
G1 X106.081 Y133.998 E39.03418
G1 X105.436 Y133.625 E39.07775
G1 X105.078 Y133.390 E39.10277
G1 X104.669 Y133.093 E39.13239
G1 X104.149 Y132.666 E39.17170
G1 X75.706 Y107.557 E41.39068
G1 X74.102 Y105.611 E41.53817
G1 X73.184 Y103.262 E41.68566
G1 X73.001 Y101.560 E41.78579
G1 X73.001 Y94.187 E42.21701
G1 X73.398 Y91.697 E42.36450
G1 X74.551 Y89.454 E42.51199
G1 X76.956 Y87.299 E42.70082
G1 X77.251 Y87.692 F7800.000
G1 F2250
G1 X83.636 Y84.006 E43.13204
G1 X85.921 Y83.145 E43.27482
G1 X87.386 Y83.001 E43.36092
G1 X119.542 Y83.001 E45.24161
G1 X120.261 Y83.031 E45.28370
G1 X121.033 Y83.125 E45.32919
G1 X121.828 Y83.290 E45.37667
G1 X130.762 Y85.683 E45.91759
G1 X131.601 Y85.956 E45.96919
G1 X132.250 Y86.228 E46.01035
G1 X132.687 Y86.445 E46.03891
G1 X133.305 Y86.802 E46.08064
G1 X133.706 Y87.068 E46.10876
G1 X134.275 Y87.500 E46.15056
G1 X134.633 Y87.810 E46.17825
G1 X141.691 Y94.867 E46.76201
G1 X142.000 Y95.226 E46.78968
G1 X142.432 Y95.795 E46.83148
G1 X142.908 Y96.546 E46.88348
G1 X143.235 Y97.173 E46.92484
G1 X143.428 Y97.607 E46.95262
G1 X143.676 Y98.272 E46.99413
G1 X143.794 Y98.658 E47.01772
G1 X146.283 Y107.986 E47.58238
G1 X146.374 Y108.463 E47.61080
G1 X146.462 Y109.156 E47.65161
G1 X146.493 Y109.644 E47.68022
G1 X146.493 Y110.356 E47.72189
G1 X146.419 Y111.232 E47.77328
G1 X146.301 Y111.932 E47.81482
G1 X146.210 Y112.327 E47.83854
G1 X143.837 Y121.188 E48.37505
G1 X143.544 Y122.101 E48.43109
G1 X143.271 Y122.751 E48.47235
G1 X143.054 Y123.189 E48.50091
G1 X142.698 Y123.805 E48.54252
G1 X142.432 Y124.206 E48.57067
G1 X142.001 Y124.773 E48.61230
G1 X141.687 Y125.137 E48.64045
G1 X134.633 Y132.190 E49.22386
G1 X134.275 Y132.500 E49.25155
G1 X133.705 Y132.932 E49.29337
G1 X132.964 Y133.402 E49.34468
G1 X132.327 Y133.735 E49.38672
G1 X131.895 Y133.927 E49.41437
G1 X131.234 Y134.174 E49.45568
G1 X130.842 Y134.294 E49.47963
G1 X121.519 Y136.782 E50.04401
G1 X121.037 Y136.874 E50.07269
G1 X120.344 Y136.962 E50.11352
G1 X119.856 Y136.993 E50.14212
G1 X119.144 Y136.993 E50.18379
G1 X118.656 Y136.962 E50.21240
G1 X117.963 Y136.874 E50.25321
G1 X117.021 Y136.670 E50.30959
G1 X108.158 Y134.294 E50.84629
G1 X107.479 Y134.074 E50.88804
G1 X107.104 Y133.927 E50.91156
G1 X106.313 Y133.555 E50.96272
G1 X105.703 Y133.203 E51.00388
G1 X105.364 Y132.980 E51.02763
G1 X104.971 Y132.695 E51.05602
G1 X104.480 Y132.292 E51.09317
G1 X76.037 Y107.182 E53.31216
G1 X74.494 Y105.290 E53.45493
G1 X73.641 Y103.003 E53.59771
G1 X73.501 Y101.560 E53.68250
G1 X73.501 Y94.187 E54.11372
G1 X73.898 Y91.778 E54.25650
G1 X75.048 Y89.625 E54.39928
G1 X77.206 Y87.732 E54.56715
G1 X77.501 Y88.125 F7800.000
G1 F2250
G1 X83.886 Y84.439 E54.99837
G1 X86.097 Y83.620 E55.13627
G1 X87.386 Y83.501 E55.21195
G1 X119.542 Y83.501 E57.09263
G1 X120.219 Y83.529 E57.13225
G1 X120.950 Y83.618 E57.17536
G1 X121.703 Y83.775 E57.22032
G1 X130.627 Y86.165 E57.76067
G1 X131.426 Y86.424 E57.80981
G1 X132.037 Y86.681 E57.84855
G1 X132.456 Y86.888 E57.87586
G1 X133.037 Y87.224 E57.91514
G1 X133.420 Y87.479 E57.94203
G1 X133.956 Y87.885 E57.98138
G1 X134.299 Y88.181 E58.00787
G1 X141.319 Y95.202 E58.58852
G1 X141.615 Y95.544 E58.61500
G1 X142.022 Y96.080 E58.65434
G1 X142.475 Y96.795 E58.70386
G1 X142.783 Y97.385 E58.74278
G1 X142.967 Y97.801 E58.76937
G1 X143.200 Y98.427 E58.80843
G1 X143.313 Y98.792 E58.83078
G1 X145.794 Y108.090 E59.39360
G1 X145.881 Y108.546 E59.42079
G1 X145.963 Y109.198 E59.45920
G1 X145.993 Y109.665 E59.48656
G1 X145.993 Y110.335 E59.52578
G1 X145.923 Y111.169 E59.57472
G1 X145.812 Y111.828 E59.61382
G1 X145.726 Y112.203 E59.63629
G1 X143.354 Y121.059 E60.17251
G1 X143.075 Y121.927 E60.22580
G1 X142.818 Y122.539 E60.26463
G1 X142.611 Y122.957 E60.29194
G1 X142.276 Y123.537 E60.33110
G1 X142.021 Y123.920 E60.35803
G1 X141.616 Y124.454 E60.39721
G1 X141.315 Y124.803 E60.42413
G1 X134.299 Y131.819 E61.00446
G1 X133.956 Y132.115 E61.03096
G1 X133.420 Y132.522 E61.07032
G1 X132.714 Y132.969 E61.11919
G1 X132.115 Y133.283 E61.15875
G1 X131.702 Y133.467 E61.18521
G1 X131.079 Y133.699 E61.22409
G1 X130.708 Y133.813 E61.24678
G1 X121.414 Y136.293 E61.80934
G1 X120.954 Y136.381 E61.83676
G1 X120.302 Y136.463 E61.87520
G1 X119.835 Y136.493 E61.90254
G1 X119.165 Y136.493 E61.94177
G1 X118.698 Y136.463 E61.96912
G1 X118.046 Y136.381 E62.00753
G1 X117.151 Y136.187 E62.06113
G1 X108.292 Y133.813 E62.59754
G1 X107.653 Y133.605 E62.63683
G1 X107.298 Y133.466 E62.65911
G1 X106.544 Y133.111 E62.70784
G1 X105.970 Y132.781 E62.74658
G1 X105.649 Y132.569 E62.76908
G1 X105.273 Y132.296 E62.79622
G1 X104.811 Y131.917 E62.83123
G1 X76.368 Y106.807 E65.05021
G1 X74.888 Y104.971 E65.18812
G1 X74.102 Y102.748 E65.32602
G1 X74.001 Y101.560 E65.39578
G1 X74.001 Y94.187 E65.82700
G1 X74.398 Y91.863 E65.96490
G1 X75.544 Y89.802 E66.10281
G1 X77.455 Y88.164 E66.25001
G1 X77.751 Y88.558 F7800.000
G1 F2250
G1 X84.136 Y84.871 E66.68123
G1 X87.386 Y84.001 E66.87800
G1 X119.542 Y84.001 E68.75869
G1 X120.176 Y84.028 E68.79583
G1 X120.868 Y84.111 E68.83656
G1 X121.578 Y84.259 E68.87901
G1 X130.493 Y86.647 E69.41878
G1 X131.252 Y86.893 E69.46545
G1 X131.825 Y87.134 E69.50178
G1 X132.224 Y87.331 E69.52784
G1 X132.769 Y87.646 E69.56466
G1 X133.135 Y87.889 E69.59034
G1 X133.637 Y88.271 E69.62722
G1 X134.168 Y88.744 E69.66880
G1 X140.947 Y95.536 E70.23007
G1 X141.230 Y95.863 E70.25536
G1 X141.611 Y96.365 E70.29223
G1 X142.042 Y97.045 E70.33926
G1 X142.330 Y97.598 E70.37576
G1 X142.507 Y97.994 E70.40114
G1 X142.725 Y98.581 E70.43777
G1 X142.831 Y98.926 E70.45887
G1 X145.305 Y108.193 E71.01986
G1 X145.388 Y108.629 E71.04580
G1 X145.465 Y109.240 E71.08182
G1 X145.494 Y109.686 E71.10792
G1 X145.494 Y110.314 E71.14469
G1 X145.427 Y111.107 E71.19119
G1 X145.323 Y111.725 E71.22785
G1 X145.241 Y112.078 E71.24906
G1 X142.871 Y120.930 E71.78500
G1 X142.607 Y121.752 E71.83553
G1 X142.366 Y122.326 E71.87194
G1 X142.168 Y122.725 E71.89799
G1 X141.854 Y123.269 E71.93471
G1 X141.611 Y123.635 E71.96041
G1 X141.231 Y124.135 E71.99714
G1 X140.758 Y124.666 E72.03872
G1 X133.965 Y131.447 E72.60009
G1 X133.637 Y131.730 E72.62540
G1 X133.135 Y132.111 E72.66230
G1 X132.464 Y132.536 E72.70873
G1 X131.902 Y132.830 E72.74581
G1 X131.508 Y133.006 E72.77108
G1 X130.924 Y133.223 E72.80754
G1 X130.574 Y133.331 E72.82895
G1 X121.310 Y135.804 E73.38970
G1 X120.871 Y135.888 E73.41586
G1 X120.260 Y135.965 E73.45190
G1 X119.814 Y135.994 E73.47799
G1 X119.186 Y135.994 E73.51477
G1 X118.740 Y135.965 E73.54087
G1 X118.129 Y135.888 E73.57689
G1 X117.280 Y135.705 E73.62771
G1 X108.426 Y133.331 E74.16381
G1 X107.827 Y133.136 E74.20065
G1 X107.492 Y133.006 E74.22169
G1 X106.776 Y132.668 E74.26799
G1 X106.238 Y132.358 E74.30431
G1 X105.934 Y132.159 E74.32555
G1 X105.576 Y131.898 E74.35146
G1 X105.142 Y131.542 E74.38431
G1 X76.699 Y106.433 E76.60330
G1 X75.285 Y104.655 E76.73615
G1 X74.501 Y101.560 E76.92288
G1 X74.501 Y94.187 E77.35409
G1 X74.898 Y91.950 E77.48694
G1 X76.040 Y89.987 E77.61980
G1 X77.704 Y88.596 E77.74665
G1 X78.000 Y88.991 F7800.000
G1 F2250
G1 X84.386 Y85.304 E78.17787
G1 X87.386 Y84.501 E78.35951
G1 X119.542 Y84.501 E80.24020
G1 X120.134 Y84.526 E80.27485
G1 X120.785 Y84.604 E80.31321
G1 X121.454 Y84.743 E80.35315
G1 X130.359 Y87.128 E80.89234
G1 X131.078 Y87.362 E80.93655
G1 X131.612 Y87.586 E80.97046
G1 X131.992 Y87.774 E80.99527
G1 X132.501 Y88.068 E81.02964
G1 X132.850 Y88.300 E81.05409
G1 X133.318 Y88.656 E81.08851
G1 X133.818 Y89.101 E81.12765
G1 X140.576 Y95.870 E81.68706
G1 X140.845 Y96.182 E81.71116
G1 X141.201 Y96.651 E81.74558
G1 X141.608 Y97.294 E81.79012
G1 X141.878 Y97.810 E81.82418
G1 X142.046 Y98.188 E81.84837
G1 X142.349 Y99.060 E81.90239
G1 X144.757 Y108.046 E82.44648
G1 X144.881 Y108.630 E82.48135
G1 X144.943 Y109.049 E82.50614
G1 X144.994 Y109.707 E82.54472
G1 X144.994 Y110.293 E82.57904
G1 X144.931 Y111.044 E82.62309
G1 X144.834 Y111.621 E82.65730
G1 X144.757 Y111.953 E82.67726
G1 X142.388 Y120.800 E83.21291
G1 X142.138 Y121.578 E83.26069
G1 X141.913 Y122.114 E83.29468
G1 X141.725 Y122.494 E83.31948
G1 X141.432 Y123.001 E83.35375
G1 X141.200 Y123.350 E83.37823
G1 X140.846 Y123.817 E83.41251
