; generated by Slic3r 1.3.1-dev on 2020-07-29 at 09:00:12

; external perimeters extrusion width = 0.44mm (2.13mm^3/s)
; perimeters extrusion width = 0.51mm (5.03mm^3/s)
; infill extrusion width = 0.50mm (6.16mm^3/s)
; solid infill extrusion width = 0.51mm (2.51mm^3/s)
; top infill extrusion width = 0.51mm (1.88mm^3/s)

M190 S70 ; set bed temperature and wait for it to be reached
; Ender 3 Custom Start G-code
G92 E0 ; Reset Extruder
G28 ; Home all axes
;G29 ; perform auto level
;M500; store mesh
M155 S30
M420 L0 S1 T1 V1 Z1 ; enable mesh
M155 S3
G1 Z2.0 F3000 ; Move Z Axis up little to prevent scratching of Heat Bed
G1 X0.1 Y20 Z0.3 F5000.0 ; Move to start position
M109 S216
G1 X0.1 Y200.0 Z0.3 F1500.0 E15 ; Draw the first line
G1 X0.4 Y200.0 Z0.3 F5000.0 ; Move to side a little
G1 X0.4 Y20 Z0.3 F1500.0 E30 ; Draw the second line
G92 E0 ; Reset Extruder
G1 Z2.0 F3000 ; Move Z Axis up little to prevent scratching of Heat Bed
G1 X5 Y20 Z0.3 F5000.0 ; Move over to prevent blob squish

; Filament gcode

G21 ; set units to millimeters
G90 ; use absolute coordinates
M82 ; use absolute distances for extrusion
G92 E0
G92 E0
M106 S204
G1 Z0.280 F7800.000
G1 E-6.00000 F1500.00000
G92 E0
G1 X81.376 Y77.362 F7800.000
G1 E6.00000 F1500.00000
G1 F990
G1 X83.103 Y76.291 E6.11881
G1 X101.022 Y68.123 E7.27061
G1 X103.453 Y67.451 E7.41810
G1 X105.484 Y67.484 E7.53691
G1 X124.976 Y70.300 E8.68871
G1 X127.384 Y71.050 E8.83620
G1 X129.075 Y72.175 E8.95501
G1 X143.949 Y85.082 E10.10681
G1 X145.570 Y87.014 E10.25431
G1 X146.384 Y88.876 E10.37311
G1 X151.919 Y107.775 E11.52492
G1 X152.238 Y110.277 E11.67241
G1 X151.916 Y112.283 E11.79122
G1 X146.355 Y131.175 E12.94302
G1 X145.270 Y133.452 E13.09051
G1 X143.915 Y134.965 E13.20932
G1 X129.023 Y147.852 E14.36112
G1 X126.880 Y149.180 E14.50861
G1 X124.922 Y149.721 E14.62742
G1 X105.427 Y152.511 E15.77922
G1 X102.905 Y152.470 E15.92671
G1 X100.966 Y151.866 E16.04552
G1 X83.057 Y143.673 E17.19733
G1 X80.958 Y142.275 E17.34482
G1 X79.653 Y140.719 E17.46363
G1 X69.017 Y124.144 E18.61543
G1 X68.006 Y121.834 E18.76292
G1 X67.750 Y119.819 E18.88173
G1 X67.763 Y100.125 E20.03353
G1 X68.162 Y97.635 E20.18102
G1 X69.036 Y95.801 E20.29983
G1 X79.694 Y79.241 E21.45163
G1 X81.336 Y77.407 E21.59561
G1 X81.712 Y77.746 F7800.000
G1 F990
G1 X81.752 Y77.701 E21.59917
G1 X83.310 Y76.746 E21.70603
G1 X101.230 Y68.577 E22.85783
G1 X103.586 Y67.940 E23.00061
G1 X105.413 Y67.979 E23.10746
G1 X124.904 Y70.795 E24.25927
G1 X127.231 Y71.532 E24.40204
G1 X128.747 Y72.553 E24.50890
G1 X143.622 Y85.460 E25.66070
G1 X145.181 Y87.338 E25.80348
G1 X145.904 Y89.016 E25.91034
G1 X151.439 Y107.916 E27.06214
G1 X151.735 Y110.339 E27.20492
G1 X151.436 Y112.141 E27.31177
G1 X145.875 Y131.034 E28.46357
G1 X144.814 Y133.232 E28.60635
G1 X143.588 Y134.587 E28.71321
G1 X128.696 Y147.474 E29.86501
G1 X126.615 Y148.749 E30.00779
G1 X124.851 Y149.226 E30.11465
G1 X105.356 Y152.016 E31.26645
G1 X102.915 Y151.964 E31.40923
G1 X101.174 Y151.412 E31.51608
G1 X83.265 Y143.218 E32.66789
G1 X81.240 Y141.855 E32.81066
G1 X80.073 Y140.449 E32.91752
G1 X69.437 Y123.874 E34.06932
G1 X68.471 Y121.633 E34.21210
G1 X68.250 Y119.819 E34.31896
G1 X68.263 Y100.125 E35.47076
G1 X68.662 Y97.717 E35.61354
G1 X69.456 Y96.072 E35.72039
G1 X80.115 Y79.511 E36.87219
G1 X81.671 Y77.791 E37.00791
G1 X82.045 Y78.132 F7800.000
G1 F990
G1 X82.127 Y78.042 E37.01503
G1 X83.518 Y77.201 E37.11008
G1 X101.437 Y69.032 E38.26189
G1 X103.717 Y68.430 E38.39979
G1 X105.341 Y68.474 E38.49485
G1 X124.833 Y71.290 E39.64665
G1 X127.076 Y72.015 E39.78456
G1 X128.419 Y72.930 E39.87961
G1 X143.294 Y85.837 E41.03142
G1 X144.789 Y87.660 E41.16932
G1 X145.424 Y89.157 E41.26438
G1 X150.960 Y108.056 E42.41618
G1 X151.232 Y110.398 E42.55408
G1 X150.957 Y112.000 E42.64914
G1 X145.396 Y130.892 E43.80094
G1 X144.358 Y133.010 E43.93885
G1 X143.261 Y134.209 E44.03391
G1 X128.369 Y147.095 E45.18571
G1 X126.351 Y148.316 E45.32361
G1 X124.780 Y148.731 E45.41867
G1 X105.285 Y151.521 E46.57047
G1 X102.928 Y151.457 E46.70838
G1 X101.382 Y150.957 E46.80344
G1 X83.473 Y142.764 E47.95524
G1 X81.525 Y141.436 E48.09314
G1 X80.494 Y140.179 E48.18820
G1 X69.858 Y123.604 E49.34000
G1 X68.937 Y121.434 E49.47791
G1 X68.750 Y119.819 E49.57297
G1 X68.763 Y100.126 E50.72477
G1 X69.162 Y97.802 E50.86267
G1 X69.877 Y96.342 E50.95773
G1 X80.535 Y79.782 E52.10953
G1 X82.004 Y78.177 E52.23681
G1 X82.375 Y78.521 F7800.000
G1 F990
G1 X82.500 Y78.387 E52.24750
G1 X83.725 Y77.656 E52.33093
G1 X101.645 Y69.487 E53.48273
G1 X103.844 Y68.921 E53.61558
G1 X105.270 Y68.968 E53.69901
G1 X124.761 Y71.784 E54.85082
G1 X126.918 Y72.497 E54.98367
G1 X128.092 Y73.308 E55.06710
G1 X142.966 Y86.215 E56.21890
G1 X144.396 Y87.980 E56.35175
G1 X144.944 Y89.297 E56.43519
G1 X150.480 Y108.197 E57.58699
G1 X150.728 Y110.455 E57.71984
G1 X150.477 Y111.859 E57.80327
G1 X144.916 Y130.751 E58.95507
G1 X143.904 Y132.785 E59.08792
G1 X142.934 Y133.831 E59.17136
G1 X128.042 Y146.717 E60.32316
G1 X126.091 Y147.881 E60.45601
G1 X124.709 Y148.237 E60.53944
G1 X105.214 Y151.026 E61.69124
G1 X102.944 Y150.950 E61.82410
G1 X101.589 Y150.502 E61.90753
G1 X83.681 Y142.309 E63.05933
G1 X81.812 Y141.018 E63.19218
G1 X80.915 Y139.909 E63.27561
G1 X70.279 Y123.334 E64.42742
G1 X69.405 Y121.238 E64.56027
G1 X69.249 Y119.820 E64.64370
G1 X69.263 Y100.126 E65.79550
G1 X69.661 Y97.890 E65.92835
G1 X70.297 Y96.613 E66.01178
G1 X80.955 Y80.053 E67.16359
G1 X82.335 Y78.565 E67.28224
G1 X82.703 Y78.911 F7800.000
G1 F990
G1 X82.870 Y78.734 E67.29651
G1 X83.932 Y78.111 E67.36850
G1 X101.852 Y69.942 E68.52030
G1 X103.968 Y69.413 E68.64790
G1 X105.198 Y69.463 E68.71990
G1 X124.690 Y72.279 E69.87170
G1 X126.756 Y72.978 E69.99930
G1 X127.764 Y73.686 E70.07130
G1 X142.639 Y86.592 E71.22310
G1 X143.999 Y88.298 E71.35070
G1 X144.465 Y89.438 E71.42270
G1 X150.000 Y108.337 E72.57450
G1 X150.222 Y110.508 E72.70210
G1 X149.998 Y111.718 E72.77410
G1 X144.437 Y130.610 E73.92590
G1 X143.450 Y132.556 E74.05350
G1 X142.607 Y133.453 E74.12549
G1 X127.715 Y146.339 E75.27730
G1 X125.833 Y147.443 E75.40490
G1 X124.639 Y147.742 E75.47689
G1 X105.143 Y150.531 E76.62869
G1 X102.964 Y150.442 E76.75629
G1 X101.797 Y150.048 E76.82829
G1 X83.889 Y141.855 E77.98009
G1 X82.103 Y140.601 E78.10769
G1 X81.336 Y139.639 E78.17969
G1 X70.700 Y123.064 E79.33149
G1 X69.875 Y121.045 E79.45909
G1 X69.749 Y119.820 E79.53109
G1 X69.763 Y100.126 E80.68289
G1 X70.161 Y97.981 E80.81049
G1 X70.717 Y96.883 E80.88249
G1 X81.376 Y80.323 E82.03429
G1 X82.662 Y78.955 E82.14412
G1 X83.102 Y79.464 F7800.000
G1 F990
G1 X84.140 Y78.566 E82.22435
G1 X102.059 Y70.397 E83.37616
G1 X105.127 Y69.958 E83.55740
G1 X124.618 Y72.774 E84.70921
G1 X127.436 Y74.063 E84.89045
G1 X142.311 Y86.970 E86.04226
G1 X143.985 Y89.578 E86.22350
G1 X149.520 Y108.478 E87.37531
G1 X149.518 Y111.577 E87.55656
G1 X143.957 Y130.469 E88.70836
G1 X142.280 Y133.075 E88.88961
G1 X127.388 Y145.961 E90.04141
G1 X124.568 Y147.247 E90.22266
G1 X105.073 Y150.036 E91.37446
G1 X102.005 Y149.593 E91.55571
G1 X84.097 Y141.400 E92.70751
G1 X81.756 Y139.369 E92.88876
G1 X71.120 Y122.794 E94.04056
G1 X70.249 Y119.820 E94.22181
G1 X70.263 Y100.127 E95.37361
G1 X71.138 Y97.154 E95.55486
G1 X81.796 Y80.594 E96.70666
G1 X83.057 Y79.503 E96.80416
G1 F6240
G1 X84.140 Y78.566 E96.47716
G1 F6240
G1 X102.059 Y70.397 E91.97981
G1 F6240
G1 X105.127 Y69.958 E91.27210
G1 F6240
G1 X105.855 Y70.063 E91.10416
G1 E90.80416 F1500.00000
G92 E0
G1 X85.225 Y81.181 F7800.000
G1 E6.00000 F1500.00000
G1 F990
G1 X85.994 Y81.236 E6.04508
G1 X86.059 Y81.225 E6.04894
G1 X104.626 Y72.745 E7.24296
G1 X105.243 Y73.207 E7.28804
G1 X105.304 Y73.232 E7.29190
G1 X125.508 Y76.137 E8.48592
G1 X125.778 Y76.859 E8.53100
G1 X125.815 Y76.913 E8.53486
G1 X141.241 Y90.280 E9.72888
G1 X141.078 Y91.033 E9.77396
G1 X141.080 Y91.099 E9.77782
G1 X146.831 Y110.685 E10.97185
G1 X146.286 Y111.229 E11.01693
G1 X146.252 Y111.286 E11.02079
G1 X140.501 Y130.871 E12.21481
G1 X139.748 Y131.035 E12.25989
G1 X139.689 Y131.065 E12.26374
G1 X124.263 Y144.432 E13.45778
G1 X123.541 Y144.162 E13.50286
G1 X123.475 Y144.155 E13.50672
G1 X103.271 Y147.060 E14.70073
G1 X102.809 Y146.443 E14.74581
G1 X102.758 Y146.402 E14.74967
G1 X84.191 Y137.922 E15.94370
G1 X84.136 Y137.154 E15.98878
G1 X84.115 Y137.091 E15.99264
G1 X73.079 Y119.919 E17.18666
G1 X73.449 Y119.243 E17.23174
G1 X73.465 Y119.179 E17.23560
G1 X73.465 Y98.767 E18.42962
G1 X74.141 Y98.398 E18.47470
G1 X74.190 Y98.353 E18.47856
G1 X85.193 Y81.232 E19.66907
G1 X85.485 Y81.701 F7800.000
G1 F990
G1 X86.086 Y81.744 E19.70427
G1 X86.150 Y81.732 E19.70812
G1 X104.564 Y73.323 E20.89226
G1 X105.046 Y73.684 E20.92745
G1 X105.107 Y73.709 E20.93131
G1 X125.143 Y76.590 E22.11544
G1 X125.354 Y77.153 E22.15063
G1 X125.391 Y77.208 E22.15449
G1 X140.690 Y90.464 E23.33862
G1 X140.562 Y91.052 E23.37381
G1 X140.564 Y91.118 E23.37767
G1 X146.267 Y110.541 E24.56181
G1 X145.842 Y110.966 E24.59701
G1 X145.808 Y111.023 E24.60087
G1 X140.105 Y130.446 E25.78499
G1 X139.517 Y130.574 E25.82019
G1 X139.458 Y130.603 E25.82404
G1 X124.160 Y143.859 E27.00819
G1 X123.596 Y143.649 E27.04338
G1 X123.530 Y143.642 E27.04724
G1 X103.494 Y146.523 E28.23136
G1 X103.133 Y146.041 E28.26656
G1 X103.082 Y146.000 E28.27041
G1 X84.668 Y137.591 E29.45456
G1 X84.625 Y136.991 E29.48975
G1 X84.604 Y136.928 E29.49361
G1 X73.660 Y119.899 E30.67774
G1 X73.949 Y119.371 E30.71293
G1 X73.965 Y119.307 E30.71679
G1 X73.965 Y99.064 E31.90092
G1 X74.493 Y98.776 E31.93611
G1 X74.541 Y98.731 E31.93997
G1 X85.453 Y81.752 E33.12060
G1 X85.746 Y82.221 F7800.000
G1 F990
G1 X86.177 Y82.252 E33.14590
G1 X86.242 Y82.240 E33.14976
G1 X104.502 Y73.901 E34.32400
G1 X104.848 Y74.160 E34.34931
G1 X104.909 Y74.186 E34.35316
G1 X124.779 Y77.042 E35.52741
G1 X124.930 Y77.448 E35.55271
G1 X124.967 Y77.502 E35.55657
G1 X140.138 Y90.648 E36.73082
G1 X140.046 Y91.070 E36.75612
G1 X140.049 Y91.136 E36.75998
G1 X145.704 Y110.397 E37.93423
G1 X145.398 Y110.703 E37.95953
G1 X145.365 Y110.760 E37.96339
G1 X139.709 Y130.020 E39.13763
G1 X139.286 Y130.112 E39.16294
G1 X139.227 Y130.142 E39.16679
G1 X124.057 Y143.287 E40.34104
G1 X123.651 Y143.136 E40.36635
G1 X123.586 Y143.129 E40.37021
G1 X103.716 Y145.986 E41.54445
G1 X103.457 Y145.640 E41.56975
G1 X103.406 Y145.598 E41.57361
G1 X85.146 Y137.259 E42.74786
G1 X85.115 Y136.828 E42.77316
G1 X85.094 Y136.765 E42.77702
G1 X74.241 Y119.878 E43.95126
G1 X74.449 Y119.498 E43.97657
G1 X74.465 Y119.434 E43.98043
G1 X74.465 Y99.361 E45.15467
G1 X74.845 Y99.153 E45.17997
G1 X74.893 Y99.108 E45.18383
G1 X85.713 Y82.272 E46.35457
G1 X86.006 Y82.741 F7800.000
G1 F990
G1 X86.269 Y82.760 E46.36998
G1 X86.334 Y82.748 E46.37384
G1 X104.440 Y74.479 E47.53820
G1 X104.651 Y74.637 E47.55361
G1 X104.712 Y74.662 E47.55747
G1 X124.414 Y77.495 E48.72183
G1 X124.506 Y77.742 E48.73724
G1 X124.543 Y77.796 E48.74110
G1 X139.587 Y90.831 E49.90546
G1 X139.531 Y91.089 E49.92087
G1 X139.533 Y91.155 E49.92473
G1 X145.141 Y110.253 E51.08909
G1 X144.954 Y110.439 E51.10451
G1 X144.921 Y110.496 E51.10836
G1 X139.313 Y129.595 E52.27272
G1 X139.055 Y129.651 E52.28813
G1 X138.996 Y129.680 E52.29199
G1 X123.953 Y142.715 E53.45635
G1 X123.706 Y142.623 E53.47177
G1 X123.641 Y142.616 E53.47563
G1 X103.939 Y145.449 E54.63998
G1 X103.781 Y145.238 E54.65540
G1 X103.729 Y145.196 E54.65925
G1 X85.623 Y136.928 E55.82361
G1 X85.605 Y136.665 E55.83903
G1 X85.584 Y136.602 E55.84289
G1 X74.822 Y119.857 E57.00724
G1 X74.949 Y119.626 E57.02266
G1 X74.965 Y119.562 E57.02651
G1 X74.965 Y99.657 E58.19087
G1 X75.196 Y99.531 E58.20629
G1 X75.245 Y99.486 E58.21014
G1 X85.973 Y82.791 E59.37099
G1 X86.266 Y83.261 F7800.000
G1 F990
G1 X86.425 Y83.256 E59.38031
G1 X104.378 Y75.057 E60.53477
G1 X104.514 Y75.139 E60.54409
G1 X124.049 Y77.948 E61.69856
G1 X124.120 Y78.091 E61.70787
G1 X139.035 Y91.015 E62.86234
G1 X139.017 Y91.173 E62.87165
G1 X144.577 Y110.109 E64.02612
G1 X144.477 Y110.233 E64.03543
G1 X138.917 Y129.169 E65.18990
G1 X138.765 Y129.219 E65.19921
G1 X123.850 Y142.143 E66.35369
G1 X123.696 Y142.103 E66.36300
G1 X104.161 Y144.912 E67.51747
G1 X104.053 Y144.795 E67.52678
G1 X86.101 Y136.596 E68.68125
G1 X86.073 Y136.439 E68.69056
G1 X75.403 Y119.836 E69.84503
G1 X75.465 Y119.690 E69.85434
G1 X75.465 Y99.954 E71.00881
G1 X75.596 Y99.864 E71.01813
G1 X86.234 Y83.311 E72.16909
G1 X86.599 Y83.812 F7800.000
G1 F396
G1 X104.360 Y75.700 E73.31104
G1 X123.686 Y78.479 E74.45300
G1 X138.442 Y91.266 E75.59495
G1 X143.943 Y110.000 E76.73691
G1 X138.442 Y128.734 E77.87886
G1 X123.686 Y141.521 E79.02082
G1 X104.360 Y144.299 E80.16278
G1 X86.599 Y136.188 E81.30473
G1 X76.043 Y119.763 E82.44669
G1 X76.043 Y100.237 E83.58864
G1 X86.566 Y83.862 E84.72709
G1 X87.488 Y83.657 F7800.000
G1 F396
G1 X86.392 Y84.754 E84.81836
G1 X85.112 Y86.745 E84.95759
G1 X88.798 Y83.059 E85.26425
G1 X90.107 Y82.461 E85.34893
G1 X83.833 Y88.735 E85.87098
G1 X82.554 Y90.725 E86.01021
G1 X91.416 Y81.864 E86.74764
G1 X92.725 Y81.266 E86.83233
G1 X81.275 Y92.716 E87.78515
G1 X79.995 Y94.706 E87.92437
G1 X94.034 Y80.668 E89.09259
G1 X95.343 Y80.070 E89.17727
G1 X78.716 Y96.697 E90.56087
G1 X77.437 Y98.687 E90.70009
G1 X96.652 Y79.472 E92.29908
G1 X97.962 Y78.874 E92.38376
G1 X76.158 Y100.678 E94.19813
G1 X75.995 Y100.932 E94.21590
G1 X75.995 Y101.552 E94.25241
G1 X99.271 Y78.276 E96.18931
G1 X100.580 Y77.679 E96.27400
G1 X75.995 Y102.264 E98.31984
G1 X75.995 Y102.975 E98.36169
G1 X101.889 Y77.081 E100.51647
G1 X103.198 Y76.483 E100.60115
G1 X75.995 Y103.686 E102.86487
G1 X75.995 Y104.398 E102.90672
G1 X104.507 Y75.885 E105.27938
G1 X104.982 Y75.668 E105.31007
G1 X105.378 Y75.725 E105.33364
G1 X75.995 Y105.109 E107.77877
G1 X75.995 Y105.820 E107.82063
G1 X106.000 Y75.815 E110.31750
G1 X106.622 Y75.904 E110.35447
G1 X75.995 Y106.531 E112.90310
G1 X75.995 Y107.243 E112.94495
G1 X107.244 Y75.994 E115.54533
G1 X107.866 Y76.083 E115.58230
G1 X75.995 Y107.954 E118.23442
G1 X75.995 Y108.665 E118.27627
G1 X108.487 Y76.172 E120.98014
G1 X109.109 Y76.262 E121.01711
G1 X75.995 Y109.377 E123.77273
G1 X75.995 Y110.088 E123.81458
G1 X109.731 Y76.351 E126.62195
G1 X110.353 Y76.441 E126.65892
G1 X75.995 Y110.799 E129.51803
G1 X75.995 Y111.510 E129.55989
G1 X110.975 Y76.530 E132.47075
G1 X111.597 Y76.619 E132.50772
G1 X75.995 Y112.222 E135.47033
G1 X75.995 Y112.933 E135.51218
G1 X112.219 Y76.709 E138.52654
G1 X112.841 Y76.798 E138.56351
G1 X75.995 Y113.644 E141.62962
G1 X75.995 Y114.355 E141.67147
G1 X113.462 Y76.888 E144.78933
G1 X114.084 Y76.977 E144.82630
G1 X75.995 Y115.067 E147.99590
G1 X75.995 Y115.778 E148.03775
G1 X114.706 Y77.066 E151.25911
G1 X115.328 Y77.156 E151.29607
G1 X75.995 Y116.489 E154.56917
G1 X75.995 Y117.201 E154.61103
G1 X115.950 Y77.245 E157.93587
G1 X116.572 Y77.335 E157.97284
G1 X75.995 Y117.912 E161.34944
G1 X75.995 Y118.623 E161.39129
G1 X117.194 Y77.424 E164.81964
G1 X117.815 Y77.513 E164.85660
G1 X75.995 Y119.334 E168.33670
G1 X75.995 Y120.046 E168.37855
G1 X118.437 Y77.603 E171.91039
G1 X119.059 Y77.692 E171.94736
G1 X76.227 Y120.525 E175.51163
G1 X76.505 Y120.958 E175.54192
G1 X119.681 Y77.782 E179.13479
G1 X120.303 Y77.871 E179.17176
G1 X76.783 Y121.391 E182.79322
G1 X77.061 Y121.824 E182.82350
G1 X120.925 Y77.961 E186.47355
G1 X121.547 Y78.050 E186.51052
G1 X77.340 Y122.257 E190.18917
G1 X77.618 Y122.690 E190.21945
G1 X122.169 Y78.139 E193.92669
G1 X122.790 Y78.229 E193.96365
G1 X77.896 Y123.123 E197.69948
G1 X78.175 Y123.556 E197.72977
G1 X123.412 Y78.318 E201.49419
G1 X124.028 Y78.414 E201.53084
G1 X78.453 Y123.989 E205.32332
G1 X78.731 Y124.422 E205.35360
G1 X124.409 Y78.744 E209.15464
G1 X124.790 Y79.074 E209.18431
G1 X79.009 Y124.855 E212.99389
G1 X79.288 Y125.288 E213.02418
G1 X125.171 Y79.405 E216.84232
G1 X125.552 Y79.735 E216.87199
G1 X79.566 Y125.721 E220.69869
G1 X79.844 Y126.154 E220.72897
G1 X125.933 Y80.065 E224.56423
G1 X126.314 Y80.395 E224.59390
G1 X80.122 Y126.587 E228.43770
G1 X80.401 Y127.020 E228.46799
G1 X126.695 Y80.725 E232.32035
G1 X127.076 Y81.056 E232.35002
G1 X80.679 Y127.453 E236.21093
G1 X80.957 Y127.886 E236.24122
