; generated by Slic3r 1.3.1-dev on 2020-07-28 at 08:41:10

; external perimeters extrusion width = 0.44mm (2.13mm^3/s)
; perimeters extrusion width = 0.51mm (5.03mm^3/s)
; infill extrusion width = 0.50mm (6.16mm^3/s)
; solid infill extrusion width = 0.51mm (2.51mm^3/s)
; top infill extrusion width = 0.51mm (1.88mm^3/s)
; support material extrusion width = 0.44mm (5.32mm^3/s)

M190 S70 ; set bed temperature and wait for it to be reached
; Ender 3 Custom Start G-code
G92 E0 ; Reset Extruder
G28 ; Home all axes
;G29 ; perform auto level
;M500; store mesh
M155 S30
M420 L0 S1 T1 V1 Z1 ; enable mesh
M155 S3
G1 Z2.0 F3000 ; Move Z Axis up little to prevent scratching of Heat Bed
G1 X0.1 Y20 Z0.3 F5000.0 ; Move to start position
M109 S216
G1 X0.1 Y200.0 Z0.3 F1500.0 E15 ; Draw the first line
G1 X0.4 Y200.0 Z0.3 F5000.0 ; Move to side a little
G1 X0.4 Y20 Z0.3 F1500.0 E30 ; Draw the second line
G92 E0 ; Reset Extruder
G1 Z2.0 F3000 ; Move Z Axis up little to prevent scratching of Heat Bed
G1 X5 Y20 Z0.3 F5000.0 ; Move over to prevent blob squish

; Filament gcode

G21 ; set units to millimeters
G90 ; use absolute coordinates
M82 ; use absolute distances for extrusion
G92 E0
G92 E0
M106 S204
G1 E-6.00000 F1500.00000
G92 E0
G1 Z0.280 F7800.000
G1 X61.616 Y42.906 F7800.000
G1 E6.00000 F1500.00000
G1 F2250
G1 X62.329 Y41.951 E6.06972
G1 X63.155 Y41.094 E6.13934
G1 X64.084 Y40.346 E6.20910
G1 X65.101 Y39.720 E6.27891
G1 X66.186 Y39.226 E6.34865
G1 X67.083 Y38.935 E6.40382
G1 X68.250 Y38.696 E6.47345
G1 X68.500 Y38.665 E6.48822
G1 X69.439 Y38.606 E6.54326
G1 X133.736 Y38.609 E10.30369
G1 X134.696 Y38.654 E10.35989
G1 X135.650 Y38.759 E10.41605
G1 X136.596 Y38.924 E10.47223
G1 X137.531 Y39.148 E10.52842
G1 X138.448 Y39.430 E10.58454
G1 X139.348 Y39.770 E10.64080
G1 X139.797 Y39.964 E10.66946
G1 X140.660 Y40.387 E10.72562
G1 X141.493 Y40.863 E10.78176
G1 X142.296 Y41.391 E10.83796
G1 X142.678 Y41.668 E10.86553
G1 X143.428 Y42.268 E10.92171
G1 X144.138 Y42.914 E10.97786
G1 X144.807 Y43.604 E11.03407
G1 X145.431 Y44.334 E11.09021
G1 X146.008 Y45.103 E11.14646
G1 X146.535 Y45.905 E11.20260
G1 X147.012 Y46.740 E11.25882
G1 X147.435 Y47.602 E11.31498
G1 X147.803 Y48.489 E11.37117
G1 X148.114 Y49.398 E11.42732
G1 X148.368 Y50.325 E11.48353
G1 X148.563 Y51.265 E11.53973
G1 X148.699 Y52.216 E11.59590
G1 X159.904 Y171.176 E18.58418
G1 X159.920 Y172.371 E18.65404
G1 X159.786 Y173.553 E18.72363
G1 X159.505 Y174.714 E18.79349
G1 X159.080 Y175.829 E18.86330
G1 X158.519 Y176.882 E18.93310
G1 X158.384 Y177.094 E18.94779
G1 X157.672 Y178.047 E19.01734
G1 X157.026 Y178.736 E19.07258
G1 X156.841 Y178.910 E19.08744
G1 X155.916 Y179.654 E19.15688
G1 X155.120 Y180.159 E19.21202
G1 X154.898 Y180.281 E19.22684
G1 X153.814 Y180.774 E19.29645
G1 X152.917 Y181.065 E19.35161
G1 X152.671 Y181.128 E19.36645
G1 X151.506 Y181.335 E19.43564
G1 X150.561 Y181.394 E19.49107
G1 X116.439 Y181.394 E21.48668
G1 X115.250 Y181.304 E21.55644
G1 X114.083 Y181.065 E21.62611
G1 X113.186 Y180.774 E21.68128
G1 X112.100 Y180.280 E21.75101
G1 X111.880 Y180.159 E21.76570
G1 X110.881 Y179.507 E21.83549
G1 X110.157 Y178.908 E21.89046
G1 X109.486 Y178.233 E21.94612
G1 X75.929 Y140.240 E24.91083
G1 X75.316 Y139.474 E24.96820
G1 X75.039 Y139.092 E24.99579
G1 X74.500 Y138.273 E25.05310
G1 X74.013 Y137.421 E25.11049
G1 X73.581 Y136.540 E25.16791
G1 X73.378 Y136.071 E25.19780
G1 X73.031 Y135.152 E25.25524
G1 X72.744 Y134.214 E25.31260
G1 X72.626 Y133.757 E25.34019
G1 X72.427 Y132.798 E25.39753
G1 X60.161 Y49.443 E30.32509
G1 X60.080 Y48.573 E30.37619
G1 X60.080 Y47.629 E30.43138
G1 X60.096 Y47.379 E30.44607
G1 X60.261 Y46.200 E30.51566
G1 X60.571 Y45.053 E30.58515
G1 X60.920 Y44.171 E30.64067
G1 X61.028 Y43.942 E30.65545
G1 X61.584 Y42.957 E30.72162
G1 X62.038 Y43.174 F7800.000
G1 F2250
G1 X62.714 Y42.270 E30.78767
G1 X63.498 Y41.458 E30.85363
G1 X64.378 Y40.750 E30.91972
G1 X65.341 Y40.158 E30.98585
G1 X66.370 Y39.691 E31.05191
G1 X67.207 Y39.419 E31.10341
G1 X68.312 Y39.192 E31.16938
G1 X69.439 Y39.105 E31.23549
G1 X133.720 Y39.109 E34.99500
G1 X134.648 Y39.152 E35.04936
G1 X135.572 Y39.253 E35.10369
G1 X136.487 Y39.412 E35.15803
G1 X137.391 Y39.628 E35.21238
G1 X138.279 Y39.900 E35.26667
G1 X139.149 Y40.229 E35.32110
G1 X139.599 Y40.423 E35.34975
G1 X140.433 Y40.833 E35.40407
G1 X141.239 Y41.293 E35.45838
G1 X142.015 Y41.804 E35.51275
G1 X142.371 Y42.063 E35.53847
G1 X143.097 Y42.643 E35.59282
G1 X143.784 Y43.268 E35.64714
G1 X144.432 Y43.935 E35.70150
G1 X145.036 Y44.640 E35.75582
G1 X145.595 Y45.384 E35.81022
G1 X146.105 Y46.159 E35.86453
G1 X146.567 Y46.967 E35.91891
G1 X146.976 Y47.800 E35.97324
G1 X147.332 Y48.659 E36.02759
G1 X147.634 Y49.537 E36.08191
G1 X147.880 Y50.434 E36.13627
G1 X148.069 Y51.344 E36.19064
G1 X148.201 Y52.263 E36.24497
G1 X159.405 Y171.208 E43.23234
G1 X159.421 Y172.339 E43.29852
G1 X159.295 Y173.459 E43.36445
G1 X159.029 Y174.559 E43.43063
G1 X158.628 Y175.616 E43.49676
G1 X158.097 Y176.614 E43.56289
G1 X157.962 Y176.826 E43.57758
G1 X157.287 Y177.729 E43.64347
G1 X156.499 Y178.545 E43.70985
G1 X155.622 Y179.250 E43.77565
G1 X154.657 Y179.843 E43.84190
G1 X153.630 Y180.309 E43.90785
G1 X152.547 Y180.644 E43.97413
G1 X151.439 Y180.839 E44.03993
G1 X150.561 Y180.895 E44.09143
G1 X116.439 Y180.895 E46.08703
G1 X115.313 Y180.808 E46.15313
G1 X114.207 Y180.581 E46.21913
G1 X113.370 Y180.309 E46.27062
G1 X112.341 Y179.842 E46.33668
G1 X112.121 Y179.721 E46.35137
G1 X111.175 Y179.102 E46.41749
G1 X110.499 Y178.543 E46.46879
G1 X109.861 Y177.902 E46.52172
G1 X76.304 Y139.909 E49.48640
G1 X75.711 Y139.167 E49.54193
G1 X75.452 Y138.811 E49.56769
G1 X74.930 Y138.019 E49.62317
G1 X74.459 Y137.194 E49.67872
G1 X74.040 Y136.341 E49.73430
G1 X73.837 Y135.872 E49.76419
G1 X73.502 Y134.983 E49.81979
G1 X73.224 Y134.075 E49.87531
G1 X73.114 Y133.648 E49.90107
G1 X72.921 Y132.719 E49.95657
G1 X60.656 Y49.370 E54.88381
G1 X60.579 Y48.542 E54.93248
G1 X60.579 Y47.661 E54.98399
G1 X60.595 Y47.410 E54.99868
G1 X60.752 Y46.294 E55.06461
G1 X61.047 Y45.206 E55.13054
G1 X61.372 Y44.384 E55.18227
G1 X61.480 Y44.155 E55.19704
G1 X62.006 Y43.225 E55.25955
G1 X62.460 Y43.442 F7800.000
G1 F2250
G1 X63.099 Y42.588 E55.32193
G1 X63.840 Y41.823 E55.38422
G1 X64.672 Y41.155 E55.44664
G1 X65.582 Y40.596 E55.50910
G1 X66.554 Y40.156 E55.57149
G1 X67.332 Y39.903 E55.61931
G1 X68.375 Y39.688 E55.68161
G1 X69.439 Y39.605 E55.74405
G1 X133.704 Y39.609 E59.50264
G1 X134.601 Y39.650 E59.55517
G1 X135.494 Y39.747 E59.60766
G1 X136.378 Y39.900 E59.66016
G1 X137.252 Y40.108 E59.71268
G1 X138.109 Y40.371 E59.76514
G1 X138.951 Y40.687 E59.81772
G1 X139.400 Y40.882 E59.84637
G1 X140.206 Y41.278 E59.89886
G1 X140.984 Y41.724 E59.95133
G1 X141.734 Y42.218 E60.00386
G1 X142.065 Y42.458 E60.02775
G1 X142.766 Y43.018 E60.08026
G1 X143.431 Y43.621 E60.13274
G1 X144.057 Y44.265 E60.18527
G1 X144.641 Y44.947 E60.23775
G1 X145.181 Y45.665 E60.29032
G1 X145.675 Y46.414 E60.34279
G1 X146.121 Y47.194 E60.39533
G1 X146.517 Y47.999 E60.44782
G1 X146.862 Y48.828 E60.50033
G1 X147.154 Y49.677 E60.55282
G1 X147.392 Y50.543 E60.60535
G1 X147.575 Y51.422 E60.65788
G1 X147.703 Y52.310 E60.71037
G1 X158.906 Y171.239 E67.69683
G1 X158.922 Y172.308 E67.75933
G1 X158.804 Y173.366 E67.82160
G1 X158.554 Y174.405 E67.88410
G1 X158.175 Y175.403 E67.94656
G1 X157.675 Y176.346 E68.00901
G1 X157.540 Y176.559 E68.02370
G1 X156.902 Y177.410 E68.08593
G1 X156.157 Y178.180 E68.14862
G1 X155.328 Y178.845 E68.21076
G1 X154.416 Y179.405 E68.27333
G1 X153.446 Y179.844 E68.33562
G1 X152.423 Y180.160 E68.39822
G1 X151.381 Y180.343 E68.46010
G1 X150.561 Y180.395 E68.50818
G1 X116.439 Y180.395 E70.50379
G1 X115.375 Y180.312 E70.56621
G1 X114.331 Y180.097 E70.62855
G1 X113.554 Y179.844 E70.67636
G1 X112.582 Y179.404 E70.73875
G1 X112.362 Y179.283 E70.75344
G1 X111.469 Y178.698 E70.81588
G1 X110.842 Y178.179 E70.86352
G1 X110.236 Y177.571 E70.91372
G1 X76.679 Y139.578 E73.87837
G1 X76.106 Y138.861 E73.93207
G1 X75.866 Y138.530 E73.95599
G1 X75.361 Y137.764 E74.00964
G1 X74.904 Y136.967 E74.06335
G1 X74.498 Y136.143 E74.11710
G1 X74.295 Y135.674 E74.14698
G1 X73.972 Y134.813 E74.20074
G1 X73.704 Y133.935 E74.25443
G1 X73.602 Y133.539 E74.27835
G1 X73.414 Y132.641 E74.33202
G1 X61.150 Y49.298 E79.25893
G1 X61.078 Y48.510 E79.30518
G1 X61.078 Y47.692 E79.35301
G1 X61.094 Y47.442 E79.36770
G1 X61.243 Y46.387 E79.42997
G1 X61.522 Y45.362 E79.49210
G1 X61.825 Y44.597 E79.54026
G1 X61.932 Y44.368 E79.55503
G1 X62.428 Y43.492 E79.61387
G1 X62.882 Y43.710 F7800.000
G1 F2250
G1 X63.485 Y42.907 E79.67258
G1 X64.182 Y42.187 E79.73121
G1 X64.966 Y41.559 E79.78996
G1 X65.823 Y41.034 E79.84874
G1 X66.738 Y40.621 E79.90747
G1 X67.456 Y40.387 E79.95160
G1 X68.438 Y40.184 E80.01025
G1 X69.439 Y40.105 E80.06901
G1 X133.689 Y40.108 E83.82669
G1 X134.554 Y40.147 E83.87737
G1 X135.415 Y40.241 E83.92803
G1 X136.269 Y40.388 E83.97869
G1 X137.112 Y40.588 E84.02938
G1 X137.940 Y40.841 E84.08000
G1 X138.752 Y41.146 E84.13074
G1 X139.202 Y41.341 E84.15939
G1 X139.979 Y41.723 E84.21004
G1 X140.730 Y42.154 E84.26068
G1 X141.453 Y42.631 E84.31137
G1 X142.436 Y43.393 E84.38409
G1 X143.077 Y43.975 E84.43473
G1 X143.682 Y44.596 E84.48542
G1 X144.246 Y45.253 E84.53607
G1 X144.768 Y45.946 E84.58679
G1 X145.245 Y46.668 E84.63744
G1 X145.676 Y47.421 E84.68813
G1 X146.058 Y48.198 E84.73879
G1 X146.392 Y48.997 E84.78947
G1 X146.674 Y49.816 E84.84012
G1 X146.904 Y50.652 E84.89081
G1 X147.082 Y51.500 E84.94150
G1 X147.205 Y52.357 E84.99216
G1 X158.407 Y171.271 E91.97770
G1 X158.423 Y172.276 E92.03652
G1 X158.313 Y173.272 E92.09513
G1 X158.078 Y174.250 E92.15395
G1 X157.723 Y175.190 E92.21274
G1 X157.253 Y176.078 E92.27151
G1 X157.118 Y176.291 E92.28620
G1 X156.517 Y177.091 E92.34478
G1 X155.815 Y177.816 E92.40378
G1 X155.034 Y178.441 E92.46227
G1 X154.176 Y178.967 E92.52115
G1 X153.262 Y179.379 E92.57978
G1 X152.299 Y179.675 E92.63869
G1 X151.318 Y179.847 E92.69692
G1 X150.561 Y179.895 E92.74132
G1 X116.439 Y179.895 E94.73693
G1 X115.438 Y179.816 E94.79568
G1 X114.456 Y179.613 E94.85435
G1 X113.738 Y179.379 E94.89849
G1 X112.823 Y178.966 E94.95720
G1 X112.603 Y178.845 E94.97189
G1 X111.763 Y178.293 E95.03067
G1 X111.184 Y177.814 E95.07464
G1 X110.610 Y177.240 E95.12210
G1 X77.054 Y139.248 E98.08673
G1 X76.279 Y138.249 E98.16066
G1 X75.791 Y137.510 E98.21247
G1 X75.350 Y136.740 E98.26435
G1 X74.957 Y135.944 E98.31626
G1 X74.754 Y135.475 E98.34615
G1 X74.442 Y134.644 E98.39806
G1 X74.184 Y133.796 E98.44992
G1 X73.908 Y132.563 E98.52382
G1 X61.645 Y49.225 E103.45041
G1 X61.577 Y48.479 E103.49422
G1 X61.577 Y47.724 E103.53838
G1 X61.593 Y47.473 E103.55307
G1 X61.734 Y46.481 E103.61168
G1 X61.997 Y45.517 E103.67014
G1 X62.277 Y44.809 E103.71462
G1 X62.385 Y44.581 E103.72938
G1 X62.850 Y43.760 E103.78455
G1 X63.304 Y43.978 F7800.000
G1 F2250
G1 X63.870 Y43.226 E103.83959
G1 X64.525 Y42.552 E103.89456
G1 X65.260 Y41.963 E103.94964
G1 X66.064 Y41.472 E104.00475
G1 X66.922 Y41.085 E104.05980
G1 X67.580 Y40.872 E104.10026
G1 X68.500 Y40.680 E104.15524
G1 X69.439 Y40.605 E104.21033
G1 X133.673 Y40.608 E107.96708
G1 X134.507 Y40.645 E108.01593
G1 X135.337 Y40.734 E108.06476
G1 X136.160 Y40.876 E108.11358
G1 X136.973 Y41.068 E108.16243
G1 X137.771 Y41.312 E108.21122
G1 X138.554 Y41.605 E108.26012
G1 X139.003 Y41.800 E108.28876
G1 X139.752 Y42.169 E108.33758
G1 X140.476 Y42.584 E108.38639
G1 X141.172 Y43.045 E108.43525
G1 X142.105 Y43.768 E108.50429
G1 X142.724 Y44.328 E108.55310
G1 X143.307 Y44.926 E108.60195
G1 X143.851 Y45.560 E108.65076
G1 X144.354 Y46.227 E108.69964
G1 X144.814 Y46.923 E108.74845
G1 X145.230 Y47.647 E108.79731
G1 X145.600 Y48.396 E108.84614
G1 X145.921 Y49.167 E108.89497
G1 X146.194 Y49.956 E108.94379
G1 X146.416 Y50.761 E108.99265
G1 X146.588 Y51.578 E109.04150
G1 X146.708 Y52.404 E109.09032
G1 X157.895 Y171.132 E116.06499
G1 X157.924 Y171.553 E116.08966
G1 X157.924 Y172.245 E116.13011
G1 X157.822 Y173.179 E116.18506
G1 X157.603 Y174.096 E116.24020
G1 X157.271 Y174.978 E116.29531
G1 X156.831 Y175.811 E116.35041
G1 X156.696 Y176.023 E116.36510
G1 X156.131 Y176.773 E116.42002
G1 X155.473 Y177.451 E116.47533
G1 X154.740 Y178.037 E116.53017
G1 X153.935 Y178.529 E116.58537
G1 X153.078 Y178.915 E116.64033
G1 X152.175 Y179.191 E116.69555
G1 X151.256 Y179.351 E116.75013
G1 X150.561 Y179.395 E116.79086
G1 X116.439 Y179.395 E118.78647
G1 X115.501 Y179.320 E118.84154
G1 X114.580 Y179.128 E118.89655
G1 X113.922 Y178.915 E118.93701
G1 X113.064 Y178.528 E118.99206
G1 X112.844 Y178.407 E119.00675
G1 X112.057 Y177.889 E119.06184
G1 X111.526 Y177.450 E119.10215
G1 X110.985 Y176.909 E119.14689
G1 X77.429 Y138.917 E122.11148
G1 X76.693 Y137.968 E122.18174
G1 X76.221 Y137.255 E122.23173
G1 X75.795 Y136.513 E122.28177
G1 X75.416 Y135.746 E122.33184
G1 X75.213 Y135.277 E122.36172
G1 X74.913 Y134.475 E122.41180
G1 X74.664 Y133.656 E122.46182
G1 X74.402 Y132.485 E122.53206
G1 X62.139 Y49.152 E127.45831
G1 X62.076 Y48.447 E127.49970
G1 X62.076 Y47.755 E127.54018
G1 X62.092 Y47.505 E127.55487
G1 X62.225 Y46.575 E127.60982
G1 X62.473 Y45.671 E127.66460
G1 X62.729 Y45.022 E127.70540
G1 X62.837 Y44.794 E127.72016
G1 X63.272 Y44.028 E127.77166
G1 F6240
G1 X63.710 Y43.419 E127.60039
G1 F6240
G1 X63.866 Y43.230 E127.54431
G1 F6240
G1 X63.866 Y43.230 E127.54426
G1 F6240
G1 X63.870 Y43.226 E127.54299
G1 F6240
G1 X64.341 Y42.724 E127.38564
G1 F6240
G1 X64.525 Y42.552 E127.32827
G1 F6240
G1 X65.057 Y42.111 E127.17048
G1 F6240
G1 X65.260 Y41.963 E127.11314
G1 F6240
G1 X65.844 Y41.593 E126.95524
G1 F6240
G1 X66.064 Y41.472 E126.89788
G1 F6240
G1 X66.689 Y41.178 E126.74022
G1 F6240
G1 X66.922 Y41.085 E126.68284
G1 F6240
G1 X67.580 Y40.872 E126.52486
G1 F6240
G1 X67.818 Y40.811 E126.46880
G1 F6240
G1 X67.819 Y40.810 E126.46861
G1 F6240
G1 X67.824 Y40.809 E126.46734
G1 F6240
G1 X68.500 Y40.680 E126.31010
G1 F6240
G1 X68.744 Y40.649 E126.25401
G1 F6240
G1 X68.745 Y40.649 E126.25380
G1 F6240
G1 X68.751 Y40.648 E126.25253
G1 F6240
G1 X69.439 Y40.605 E126.09491
G1 F6240
G1 X87.057 Y40.605 E122.07166
G1 E121.77166 F1500.00000
G92 E0
G1 X91.910 Y126.669 F7800.000
G1 E6.00000 F1500.00000
G1 F675
G1 X92.150 Y126.977 E6.02280
G1 X92.499 Y127.526 E6.06087
G1 X92.785 Y128.134 E6.10013
G1 X92.986 Y128.753 E6.13821
G1 X93.119 Y129.451 E6.17981
G1 X93.160 Y130.101 E6.21788
G1 X93.119 Y130.751 E6.25596
G1 X93.060 Y131.122 E6.27794
G1 X92.903 Y131.735 E6.31493
G1 X92.771 Y132.099 E6.33758
G1 X92.498 Y132.676 E6.37493
G1 X92.150 Y133.226 E6.41298
G1 X91.920 Y133.523 E6.43496
G1 X91.488 Y133.983 E6.47186
G1 X91.206 Y134.231 E6.49385
G1 X90.679 Y134.614 E6.53193
G1 X90.109 Y134.928 E6.57000
G1 X89.763 Y135.077 E6.59199
G1 X89.163 Y135.272 E6.62889
G1 X88.465 Y135.405 E6.67049
G1 X87.815 Y135.446 E6.70856
G1 X87.165 Y135.405 E6.74663
G1 X86.467 Y135.272 E6.78824
G1 X85.867 Y135.077 E6.82514
G1 X85.521 Y134.928 E6.84713
G1 X84.951 Y134.614 E6.88519
G1 X84.423 Y134.230 E6.92337
G1 X84.133 Y133.974 E6.94601
G1 X83.696 Y133.508 E6.98336
G1 X83.314 Y132.981 E7.02141
G1 X83.123 Y132.658 E7.04339
G1 X82.845 Y132.069 E7.08147
G1 X82.644 Y131.450 E7.11955
G1 X82.511 Y130.751 E7.16115
G1 X82.470 Y130.101 E7.19922
G1 X82.511 Y129.451 E7.23730
G1 X82.644 Y128.753 E7.27890
G1 X82.845 Y128.134 E7.31698
G1 X83.123 Y127.544 E7.35506
G1 X83.314 Y127.221 E7.37704
G1 X83.685 Y126.710 E7.41394
G1 X83.933 Y126.429 E7.43590
G1 X84.384 Y126.005 E7.47207
G1 X84.969 Y125.579 E7.51442
G1 X85.521 Y125.275 E7.55131
G1 X85.867 Y125.125 E7.57330
G1 X86.486 Y124.924 E7.61138
G1 X87.145 Y124.799 E7.65060
G1 X87.782 Y124.758 E7.68796
G1 X88.169 Y124.769 E7.71061
G1 X88.797 Y124.848 E7.74759
G1 X89.163 Y124.930 E7.76958
G1 X89.763 Y125.125 E7.80648
G1 X90.109 Y125.275 E7.82847
G1 X90.679 Y125.588 E7.86654
G1 X91.206 Y125.971 E7.90462
G1 X91.488 Y126.220 E7.92661
G1 X91.869 Y126.626 E7.95918
G1 X91.539 Y127.005 F7800.000
G1 F675
G1 X91.740 Y127.264 E7.97841
G1 X92.060 Y127.768 E8.01326
G1 X92.319 Y128.318 E8.04884
G1 X92.503 Y128.885 E8.08370
G1 X92.622 Y129.506 E8.12071
G1 X92.659 Y130.101 E8.15557
G1 X92.622 Y130.696 E8.19042
