; generated by Slic3r 1.3.1-dev on 2020-07-28 at 21:02:17

; external perimeters extrusion width = 0.44mm (2.13mm^3/s)
; perimeters extrusion width = 0.51mm (5.03mm^3/s)
; infill extrusion width = 0.50mm (6.16mm^3/s)
; solid infill extrusion width = 0.51mm (2.51mm^3/s)
; top infill extrusion width = 0.51mm (1.88mm^3/s)
; support material extrusion width = 0.44mm (5.32mm^3/s)

M190 S70 ; set bed temperature and wait for it to be reached
; Ender 3 Custom Start G-code
G92 E0 ; Reset Extruder
G28 ; Home all axes
;G29 ; perform auto level
;M500; store mesh
M155 S30
M420 L0 S1 T1 V1 Z1 ; enable mesh
M155 S3
G1 Z2.0 F3000 ; Move Z Axis up little to prevent scratching of Heat Bed
G1 X0.1 Y20 Z0.3 F5000.0 ; Move to start position
M109 S216
G1 X0.1 Y200.0 Z0.3 F1500.0 E15 ; Draw the first line
G1 X0.4 Y200.0 Z0.3 F5000.0 ; Move to side a little
G1 X0.4 Y20 Z0.3 F1500.0 E30 ; Draw the second line
G92 E0 ; Reset Extruder
G1 Z2.0 F3000 ; Move Z Axis up little to prevent scratching of Heat Bed
G1 X5 Y20 Z0.3 F5000.0 ; Move over to prevent blob squish

; Filament gcode

G21 ; set units to millimeters
G90 ; use absolute coordinates
M82 ; use absolute distances for extrusion
G92 E0
G92 E0
M106 S204
G1 E-6.00000 F1500.00000
G92 E0
G1 Z0.280 F7800.000
G1 X92.414 Y92.036 F7800.000
G1 E6.00000 F1500.00000
G1 F2250
G1 X94.812 Y90.302 E6.17223
G1 X97.586 Y89.269 E6.34447
G1 X100.000 Y89.001 E6.48583
G1 X120.000 Y89.001 E7.64973
G1 X122.933 Y89.399 E7.82196
G1 X125.653 Y90.565 E7.99420
G1 X127.964 Y92.414 E8.16643
G1 X129.698 Y94.812 E8.33866
G1 X130.731 Y97.586 E8.51090
G1 X130.999 Y100.000 E8.65226
G1 X130.999 Y120.000 E9.81616
G1 X130.601 Y122.933 E9.98839
G1 X129.435 Y125.653 E10.16063
G1 X127.586 Y127.964 E10.33286
G1 X125.188 Y129.698 E10.50509
G1 X122.414 Y130.731 E10.67732
G1 X120.000 Y130.999 E10.81869
G1 X100.000 Y130.999 E11.98259
G1 X97.067 Y130.601 E12.15482
G1 X94.347 Y129.435 E12.32706
G1 X92.036 Y127.586 E12.49929
G1 X90.302 Y125.188 E12.67152
G1 X89.269 Y122.414 E12.84375
G1 X89.001 Y120.000 E12.98512
G1 X89.001 Y100.000 E14.14902
G1 X89.399 Y97.067 E14.32125
G1 X90.565 Y94.347 E14.49349
G1 X92.376 Y92.083 E14.66223
G1 X92.905 Y92.261 F7800.000
G1 F2250
G1 X95.285 Y90.619 E14.83048
G1 X98.022 Y89.689 E14.99874
G1 X100.000 Y89.501 E15.11435
G1 X120.000 Y89.501 E16.27825
G1 X122.864 Y89.899 E16.44650
G1 X125.510 Y91.063 E16.61476
G1 X127.739 Y92.905 E16.78301
G1 X129.381 Y95.285 E16.95127
G1 X130.311 Y98.022 E17.11952
G1 X130.499 Y100.000 E17.23513
G1 X130.499 Y120.000 E18.39903
G1 X130.101 Y122.864 E18.56729
G1 X128.937 Y125.510 E18.73554
G1 X127.095 Y127.739 E18.90380
G1 X124.715 Y129.381 E19.07205
G1 X121.978 Y130.311 E19.24031
G1 X120.000 Y130.499 E19.35592
G1 X100.000 Y130.499 E20.51982
G1 X97.136 Y130.101 E20.68807
G1 X94.490 Y128.937 E20.85633
G1 X92.261 Y127.095 E21.02458
G1 X90.619 Y124.715 E21.19284
G1 X89.689 Y121.978 E21.36109
G1 X89.501 Y120.000 E21.47670
G1 X89.501 Y100.000 E22.64060
G1 X89.899 Y97.136 E22.80886
G1 X91.063 Y94.490 E22.97711
G1 X92.867 Y92.307 E23.14188
G1 X93.395 Y92.493 F7800.000
G1 F2250
G1 X95.755 Y90.947 E23.30606
G1 X98.453 Y90.121 E23.47024
G1 X100.000 Y90.001 E23.56054
G1 X120.000 Y90.001 E24.72444
G1 X122.793 Y90.399 E24.88862
G1 X125.364 Y91.561 E25.05280
G1 X127.507 Y93.395 E25.21698
G1 X129.053 Y95.755 E25.38116
G1 X129.879 Y98.453 E25.54534
G1 X129.999 Y100.000 E25.63564
G1 X129.999 Y120.000 E26.79954
G1 X129.601 Y122.793 E26.96372
G1 X128.439 Y125.364 E27.12790
G1 X126.605 Y127.507 E27.29208
G1 X124.245 Y129.053 E27.45626
G1 X121.547 Y129.879 E27.62044
G1 X120.000 Y129.999 E27.71074
G1 X100.000 Y129.999 E28.87464
G1 X97.207 Y129.601 E29.03882
G1 X94.636 Y128.439 E29.20300
G1 X92.493 Y126.605 E29.36719
G1 X90.947 Y124.245 E29.53137
G1 X90.121 Y121.547 E29.69555
G1 X90.001 Y120.000 E29.78585
G1 X90.001 Y100.000 E30.94975
G1 X90.399 Y97.207 E31.11393
G1 X91.561 Y94.636 E31.27811
G1 X93.356 Y92.538 E31.43880
G1 X93.885 Y92.731 F7800.000
G1 F2250
G1 X96.223 Y91.284 E31.59880
G1 X100.000 Y90.501 E31.82331
G1 X120.000 Y90.501 E32.98720
G1 X122.720 Y90.899 E33.14721
G1 X125.213 Y92.059 E33.30721
G1 X127.269 Y93.885 E33.46721
G1 X128.716 Y96.223 E33.62722
G1 X129.499 Y100.000 E33.85172
G1 X129.499 Y120.000 E35.01562
G1 X129.101 Y122.720 E35.17562
G1 X127.941 Y125.213 E35.33563
G1 X126.115 Y127.269 E35.49563
G1 X123.777 Y128.716 E35.65563
G1 X120.000 Y129.499 E35.88014
G1 X100.000 Y129.499 E37.04404
G1 X97.280 Y129.101 E37.20404
G1 X94.787 Y127.941 E37.36404
G1 X92.731 Y126.115 E37.52405
G1 X91.284 Y123.777 E37.68405
G1 X90.501 Y120.000 E37.90855
G1 X90.501 Y100.000 E39.07245
G1 X90.899 Y97.280 E39.23246
G1 X92.059 Y94.787 E39.39246
G1 X93.845 Y92.776 E39.54897
G1 X94.373 Y92.977 F7800.000
G1 F2250
G1 X96.686 Y91.633 E39.70468
G1 X100.000 Y91.001 E39.90099
G1 X120.000 Y91.001 E41.06489
G1 X122.646 Y91.398 E41.22060
G1 X125.058 Y92.557 E41.37632
G1 X127.023 Y94.373 E41.53203
G1 X128.367 Y96.686 E41.68774
G1 X128.999 Y100.000 E41.88405
G1 X128.999 Y120.000 E43.04795
G1 X128.602 Y122.646 E43.20366
G1 X127.443 Y125.058 E43.35938
G1 X125.627 Y127.023 E43.51509
G1 X123.314 Y128.367 E43.67080
G1 X120.000 Y128.999 E43.86711
G1 X100.000 Y128.999 E45.03101
G1 X97.354 Y128.602 E45.18672
G1 X94.942 Y127.443 E45.34244
G1 X92.977 Y125.627 E45.49815
G1 X91.633 Y123.314 E45.65386
G1 X91.001 Y120.000 E45.85017
G1 X91.001 Y100.000 E47.01407
G1 X91.398 Y97.354 E47.16978
G1 X92.557 Y94.942 E47.32550
G1 X94.332 Y93.021 E47.47772
G1 X94.860 Y93.231 F7800.000
G1 F2250
G1 X97.146 Y91.994 E47.62902
G1 X100.000 Y91.501 E47.79755
G1 X120.000 Y91.501 E48.96145
G1 X122.569 Y91.898 E49.11275
G1 X124.898 Y93.054 E49.26405
G1 X126.769 Y94.860 E49.41535
G1 X128.006 Y97.146 E49.56666
G1 X128.499 Y100.000 E49.73519
G1 X128.499 Y120.000 E50.89909
G1 X128.102 Y122.569 E51.05039
G1 X126.946 Y124.898 E51.20169
G1 X125.140 Y126.769 E51.35299
G1 X122.854 Y128.006 E51.50429
G1 X120.000 Y128.499 E51.67283
G1 X100.000 Y128.499 E52.83672
G1 X97.431 Y128.102 E52.98803
G1 X95.102 Y126.946 E53.13933
G1 X93.231 Y125.140 E53.29063
G1 X91.994 Y122.854 E53.44193
G1 X91.501 Y120.000 E53.61046
G1 X91.501 Y100.000 E54.77436
G1 X91.898 Y97.431 E54.92566
G1 X93.054 Y95.102 E55.07696
G1 X94.818 Y93.274 E55.22477
G1 X95.345 Y93.494 F7800.000
G1 F2250
G1 X97.601 Y92.369 E55.37153
G1 X100.000 Y92.001 E55.51275
G1 X120.000 Y92.001 E56.67664
G1 X122.490 Y92.398 E56.82340
G1 X124.733 Y93.551 E56.97016
G1 X126.506 Y95.345 E57.11692
G1 X127.631 Y97.601 E57.26367
G1 X127.999 Y100.000 E57.40489
G1 X127.999 Y120.000 E58.56879
G1 X127.602 Y122.490 E58.71555
G1 X126.449 Y124.733 E58.86230
G1 X124.655 Y126.506 E59.00906
G1 X122.399 Y127.631 E59.15582
G1 X120.000 Y127.999 E59.29703
G1 X100.000 Y127.999 E60.46093
G1 X97.510 Y127.602 E60.60769
G1 X95.267 Y126.449 E60.75445
G1 X93.494 Y124.655 E60.90120
G1 X92.369 Y122.399 E61.04796
G1 X92.001 Y120.000 E61.18918
G1 X92.001 Y100.000 E62.35308
G1 X92.398 Y97.510 E62.49983
G1 X93.551 Y95.267 E62.64659
G1 X95.302 Y93.537 E62.78986
G1 X95.828 Y93.768 F7800.000
G1 F2250
G1 X98.051 Y92.758 E62.93192
G1 X100.000 Y92.500 E63.04634
G1 X120.000 Y92.500 E64.21023
G1 X122.409 Y92.898 E64.35230
G1 X124.562 Y94.048 E64.49437
G1 X126.232 Y95.828 E64.63644
G1 X127.242 Y98.051 E64.77850
G1 X127.500 Y100.000 E64.89292
G1 X127.500 Y120.000 E66.05682
G1 X127.102 Y122.409 E66.19888
G1 X125.952 Y124.562 E66.34095
G1 X124.172 Y126.232 E66.48302
G1 X121.949 Y127.242 E66.62509
G1 X120.000 Y127.500 E66.73950
G1 X100.000 Y127.500 E67.90340
G1 X97.591 Y127.102 E68.04546
G1 X95.438 Y125.952 E68.18753
G1 X93.768 Y124.172 E68.32960
G1 X92.758 Y121.949 E68.47167
G1 X92.500 Y120.000 E68.58608
G1 X92.500 Y100.000 E69.74998
G1 X92.898 Y97.591 E69.89205
G1 X94.048 Y95.438 E70.03411
G1 X95.785 Y93.809 E70.17269
G1 X96.309 Y94.052 F7800.000
G1 F2250
G1 X98.494 Y93.164 E70.30991
G1 X100.000 Y93.000 E70.39809
G1 X120.000 Y93.000 E71.56199
G1 X122.324 Y93.397 E71.69921
G1 X124.385 Y94.544 E71.83642
G1 X125.948 Y96.309 E71.97364
G1 X126.836 Y98.494 E72.11086
G1 X127.000 Y100.000 E72.19904
G1 X127.000 Y120.000 E73.36294
G1 X126.603 Y122.324 E73.50016
G1 X125.456 Y124.385 E73.63737
G1 X123.691 Y125.948 E73.77459
G1 X121.506 Y126.836 E73.91181
G1 X120.000 Y127.000 E73.99999
G1 X100.000 Y127.000 E75.16389
G1 X97.676 Y126.603 E75.30111
G1 X95.615 Y125.456 E75.43833
G1 X94.052 Y123.691 E75.57554
G1 X93.164 Y121.506 E75.71276
G1 X93.000 Y120.000 E75.80094
G1 X93.000 Y100.000 E76.96484
G1 X93.397 Y97.676 E77.10206
G1 X94.544 Y95.615 E77.23928
G1 X96.264 Y94.092 E77.37300
G1 X96.788 Y94.350 F7800.000
G1 F2250
G1 X100.000 Y93.500 E77.56637
G1 X120.000 Y93.500 E78.73027
G1 X122.237 Y93.897 E78.86246
G1 X124.200 Y95.039 E78.99465
G1 X125.650 Y96.788 E79.12684
G1 X126.500 Y100.000 E79.32021
G1 X126.500 Y120.000 E80.48411
G1 X126.103 Y122.237 E80.61630
G1 X124.961 Y124.200 E80.74849
G1 X123.212 Y125.650 E80.88068
G1 X120.000 Y126.500 E81.07405
G1 X100.000 Y126.500 E82.23795
G1 X97.763 Y126.103 E82.37014
G1 X95.800 Y124.961 E82.50233
G1 X94.350 Y123.212 E82.63452
G1 X93.500 Y120.000 E82.82789
G1 X93.500 Y100.000 E83.99178
G1 X93.897 Y97.763 E84.12398
G1 X95.039 Y95.800 E84.25617
G1 X96.741 Y94.388 E84.38487
G1 X97.262 Y94.661 F7800.000
G1 F2250
G1 X100.000 Y94.000 E84.54876
G1 X120.000 Y94.000 E85.71266
G1 X122.145 Y94.397 E85.83962
G1 X124.007 Y95.534 E85.96658
G1 X125.339 Y97.262 E86.09355
G1 X126.000 Y100.000 E86.25744
G1 X126.000 Y120.000 E87.42134
G1 X125.603 Y122.145 E87.54830
G1 X124.466 Y124.007 E87.67527
G1 X122.738 Y125.339 E87.80223
G1 X120.000 Y126.000 E87.96612
G1 X100.000 Y126.000 E89.13002
G1 X97.855 Y125.603 E89.25699
G1 X95.993 Y124.466 E89.38395
G1 X94.661 Y122.738 E89.51092
G1 X94.000 Y120.000 E89.67481
G1 X94.000 Y100.000 E90.83871
G1 X94.397 Y97.855 E90.96567
G1 X95.534 Y95.993 E91.09263
G1 X97.215 Y94.698 E91.21611
G1 X97.733 Y94.989 F7800.000
G1 F2250
G1 X100.000 Y94.500 E91.35108
G1 X120.000 Y94.500 E92.51498
G1 X122.050 Y94.896 E92.63649
G1 X123.805 Y96.028 E92.75801
G1 X125.011 Y97.733 E92.87952
G1 X125.500 Y100.000 E93.01449
G1 X125.500 Y120.000 E94.17839
G1 X125.104 Y122.050 E94.29990
G1 X123.972 Y123.805 E94.42142
G1 X122.267 Y125.011 E94.54293
G1 X120.000 Y125.500 E94.67790
G1 X100.000 Y125.500 E95.84180
G1 X97.950 Y125.104 E95.96332
G1 X96.195 Y123.972 E96.08483
G1 X94.989 Y122.267 E96.20634
G1 X94.500 Y120.000 E96.34132
G1 X94.500 Y100.000 E97.50522
G1 X94.896 Y97.950 E97.62673
G1 X96.028 Y96.195 E97.74824
G1 X97.684 Y95.024 E97.86626
G1 F6240
G1 X100.000 Y94.500 E97.32398
G1 F6240
G1 X120.000 Y94.500 E92.75667
G1 F6240
G1 X122.050 Y94.896 E92.27984
G1 F6240
G1 X122.468 Y95.166 E92.16626
G1 E91.86626 F1500.00000
G92 E0
G1 X99.048 Y97.702 F7800.000
G1 E6.00000 F1500.00000
G1 F2250
G1 X120.952 Y97.702 E7.27489
G1 X122.298 Y99.048 E7.38568
G1 X122.298 Y120.952 E8.66057
G1 X120.952 Y122.298 E8.77136
G1 X99.048 Y122.298 E10.04625
G1 X97.702 Y120.952 E10.15704
G1 X97.702 Y99.048 E11.43193
G1 X99.006 Y97.745 E11.53922
G1 X99.255 Y98.202 F7800.000
G1 F2250
G1 X120.745 Y98.202 E12.79000
G1 X121.798 Y99.255 E12.87668
G1 X121.798 Y120.745 E14.12746
G1 X120.745 Y121.798 E14.21414
G1 X99.255 Y121.798 E15.46492
G1 X98.202 Y120.745 E15.55160
G1 X98.202 Y99.255 E16.80238
G1 X99.213 Y98.245 E16.88557
G1 X99.463 Y98.702 F7800.000
G1 F2250
G1 X120.537 Y98.702 E18.11224
G1 X121.298 Y99.463 E18.17481
G1 X121.298 Y120.537 E19.40148
G1 X120.537 Y121.298 E19.46405
G1 X99.463 Y121.298 E20.69072
G1 X98.702 Y120.537 E20.75329
G1 X98.702 Y99.463 E21.97996
G1 X99.420 Y98.745 E22.03904
G1 X99.670 Y99.202 F7800.000
G1 F2250
G1 X120.330 Y99.202 E23.24160
G1 X120.798 Y99.670 E23.28006
G1 X120.798 Y120.330 E24.48263
G1 X120.330 Y120.798 E24.52108
G1 X99.670 Y120.798 E25.72365
G1 X99.202 Y120.330 E25.76211
G1 X99.202 Y99.670 E26.96467
G1 X99.627 Y99.245 E26.99964
G1 X99.877 Y99.702 F7800.000
G1 F2250
G1 X120.123 Y99.702 E28.17809
G1 X120.298 Y99.877 E28.19244
G1 X120.298 Y120.123 E29.37089
G1 X120.123 Y120.298 E29.38524
G1 X99.877 Y120.298 E30.56370
G1 X99.702 Y120.123 E30.57805
G1 X99.702 Y99.877 E31.75650
G1 X99.834 Y99.745 E31.76736
G1 F6240
G1 X120.123 Y99.702 E27.13405
G1 F6240
G1 X120.298 Y99.877 E27.07775
G1 F6240
G1 X120.298 Y104.301 E26.06736
G1 E25.76736 F1500.00000
G92 E0
G1 X119.720 Y119.720 F7800.000
G1 E6.00000 F1500.00000
G1 F900
G1 X100.280 Y119.720 E7.13131
G1 X100.280 Y100.280 E8.26262
G1 X119.720 Y100.280 E9.39393
G1 X119.720 Y119.660 E10.52175
G1 X119.334 Y119.616 F7800.000
G1 X119.220 Y119.220 F7800.000
G1 F1800
G1 X100.780 Y119.220 E11.59487
G1 X100.780 Y100.780 E12.66800
G1 X119.220 Y100.780 E13.74112
G1 X119.220 Y119.160 E14.81075
G1 X118.720 Y118.720 F7800.000
G1 F1800
G1 X101.280 Y118.720 E15.82569
G1 X101.280 Y101.280 E16.84063
G1 X118.720 Y101.280 E17.85558
G1 X118.720 Y118.660 E18.86702
G1 X117.672 Y118.768 F7800.000
G1 F900
G1 X118.768 Y117.672 E18.95822
G1 X118.768 Y116.957 E19.00028
G1 X116.957 Y118.768 E19.15095
G1 X116.243 Y118.768 E19.19301
G1 X118.768 Y116.243 E19.40316
G1 X118.768 Y115.528 E19.44522
G1 X115.528 Y118.768 E19.71485
G1 X114.813 Y118.768 E19.75691
G1 X118.768 Y114.813 E20.08602
G1 X118.768 Y114.098 E20.12808
G1 X114.098 Y118.768 E20.51666
G1 X113.383 Y118.768 E20.55872
G1 X118.768 Y113.383 E21.00679
G1 X118.768 Y112.669 E21.04885
G1 X112.669 Y118.768 E21.55639
G1 X111.954 Y118.768 E21.59845
G1 X118.768 Y111.954 E22.16547
G1 X118.768 Y111.239 E22.20753
G1 X111.239 Y118.768 E22.83404
G1 X110.524 Y118.768 E22.87609
G1 X118.768 Y110.524 E23.56208
G1 X118.768 Y109.809 E23.60413
G1 X109.809 Y118.768 E24.34959
G1 X109.095 Y118.768 E24.39165
G1 X118.768 Y109.095 E25.19659
G1 X118.768 Y108.380 E25.23865
G1 X108.380 Y118.768 E26.10307
G1 X107.665 Y118.768 E26.14512
G1 X118.768 Y107.665 E27.06902
G1 X118.768 Y106.950 E27.11108
G1 X106.950 Y118.768 E28.09445
G1 X106.235 Y118.768 E28.13651
G1 X118.768 Y106.235 E29.17937
G1 X118.768 Y105.521 E29.22142
G1 X105.521 Y118.768 E30.32376
G1 X104.806 Y118.768 E30.36581
G1 X118.768 Y104.806 E31.52763
G1 X118.768 Y104.091 E31.56968
G1 X104.091 Y118.768 E32.79097
G1 X103.376 Y118.768 E32.83303
G1 X118.768 Y103.376 E34.11380
G1 X118.768 Y102.661 E34.15586
G1 X102.661 Y118.768 E35.49610
G1 X101.947 Y118.768 E35.53816
G1 X118.768 Y101.947 E36.93789
G1 X118.768 Y101.232 E36.97995
G1 X101.232 Y118.768 E38.43915
G1 X101.232 Y118.053 E38.48121
G1 X118.053 Y101.232 E39.88094
G1 X117.339 Y101.232 E39.92300
G1 X101.232 Y117.339 E41.26325
G1 X101.232 Y116.624 E41.30531
G1 X116.624 Y101.232 E42.58608
G1 X115.909 Y101.232 E42.62814
G1 X101.232 Y115.909 E43.84943
G1 X101.232 Y115.194 E43.89149
G1 X115.194 Y101.232 E45.05331
G1 X114.479 Y101.232 E45.09537
G1 X101.232 Y114.479 E46.19770
G1 X101.232 Y113.765 E46.23976
G1 X113.765 Y101.232 E47.28262
G1 X113.050 Y101.232 E47.32468
G1 X101.232 Y113.050 E48.30806
G1 X101.232 Y112.335 E48.35012
G1 X112.335 Y101.232 E49.27402
G1 X111.620 Y101.232 E49.31608
G1 X101.232 Y111.620 E50.18050
G1 X101.232 Y110.905 E50.22256
G1 X110.905 Y101.232 E51.02750
G1 X110.191 Y101.232 E51.06956
G1 X101.232 Y110.191 E51.81502
G1 X101.232 Y109.476 E51.85708
G1 X109.476 Y101.232 E52.54307
G1 X108.761 Y101.232 E52.58513
G1 X101.232 Y108.761 E53.21164
G1 X101.232 Y108.046 E53.25369
G1 X108.046 Y101.232 E53.82072
G1 X107.331 Y101.232 E53.86278
G1 X101.232 Y107.331 E54.37033
G1 X101.232 Y106.617 E54.41239
G1 X106.617 Y101.232 E54.86046
G1 X105.902 Y101.232 E54.90252
G1 X101.232 Y105.902 E55.29111
G1 X101.232 Y105.187 E55.33317
G1 X105.187 Y101.232 E55.66229
G1 X104.472 Y101.232 E55.70435
G1 X101.232 Y104.472 E55.97398
G1 X101.232 Y103.757 E56.01604
G1 X103.757 Y101.232 E56.22620
G1 X103.043 Y101.232 E56.26825
G1 X101.232 Y103.043 E56.41893
G1 X101.232 Y102.328 E56.46099
G1 X102.328 Y101.232 E56.55219
G1 F6240
G1 X101.232 Y102.328 E56.19822
G1 F6240
G1 X101.232 Y103.043 E56.03499
G1 F6240
G1 X103.043 Y101.232 E55.45017
G1 F6240
G1 X103.757 Y101.232 E55.28693
G1 F6240
G1 X101.232 Y103.757 E54.47126
G1 F6240
G1 X101.232 Y104.472 E54.30803
G1 F6240
G1 X104.472 Y101.232 E53.26151
G1 F6240
G1 X105.187 Y101.232 E53.09827
G1 F6240
G1 X101.232 Y105.187 E51.82090
G1 F6240
